trunk/profiles/simple-src/Canon_PowerShot_G12-simple.xml
<?xml version="1.0" encoding="UTF-8"?>
<!--
     License: CC-BY-SA 3.0

     This work is licensed under a 
     Creative Commons Attribution-ShareAlike 3.0 Unported License.

     See more at:
     http://creativecommons.org/licenses/by-sa/3.0/
-->
<dcpData>
  <ProfileName>Canon PowerShot G12 Simple</ProfileName>
  <CalibrationIlluminant1>17</CalibrationIlluminant1>
  <CalibrationIlluminant2>21</CalibrationIlluminant2>
  <ColorMatrix1 Rows="3" Cols="3">
    <Element Row="2" Col="2">0.509700</Element>
    <Element Row="2" Col="1">0.053600</Element>
    <Element Row="2" Col="0">0.005000</Element>
    <Element Row="1" Col="2">0.245000</Element>
    <Element Row="1" Col="1">0.901400</Element>
    <Element Row="1" Col="0">-0.107300</Element>
    <Element Row="0" Col="2">-0.027400</Element>
    <Element Row="0" Col="1">-0.709600</Element>
    <Element Row="0" Col="0">1.410500</Element>
  </ColorMatrix1>
  <ColorMatrix2 Rows="3" Cols="3">
    <Element Row="2" Col="2">0.436600</Element>
    <Element Row="2" Col="1">0.108300</Element>
    <Element Row="2" Col="0">-0.027000</Element>
    <Element Row="1" Col="2">0.193500</Element>
    <Element Row="1" Col="1">0.985800</Element>
    <Element Row="1" Col="0">-0.150800</Element>
    <Element Row="0" Col="2">-0.124800</Element>
    <Element Row="0" Col="1">-0.550100</Element>
    <Element Row="0" Col="0">1.324400</Element>
  </ColorMatrix2>
  <ForwardMatrix1 Rows="0" Cols="0"/>
  <ForwardMatrix2 Rows="0" Cols="0"/>
  <ReductionMatrix1 Rows="0" Cols="0"/>
  <ReductionMatrix2 Rows="0" Cols="0"/>
  <EmbedPolicy>3</EmbedPolicy>
  <UniqueCameraModelRestriction>Canon PowerShot G12</UniqueCameraModelRestriction>
  <Copyright>CC-BY-SA 3.0, rawstudio.org</Copyright>
</dcpData>
