trunk/profiles/simple-src/Canon_EOS_5D_Mark_III-simple.xml
<?xml version="1.0" encoding="UTF-8"?>
<!--
     License: CC-BY-SA 3.0

     This work is licensed under a 
     Creative Commons Attribution-ShareAlike 3.0 Unported License.

     See more at:
     http://creativecommons.org/licenses/by-sa/3.0/
-->
<dcpData>
  <ProfileName>Canon EOS 5D Mark III Simple</ProfileName>
  <CalibrationIlluminant1>17</CalibrationIlluminant1>
  <CalibrationIlluminant2>21</CalibrationIlluminant2>
  <ColorMatrix1 Rows="3" Cols="3">
    <Element Row="2" Col="2">0.666400</Element>
    <Element Row="2" Col="1">0.121500</Element>
    <Element Row="2" Col="0">-0.081700</Element>
    <Element Row="1" Col="2">0.333700</Element>
    <Element Row="1" Col="1">1.326500</Element>
    <Element Row="1" Col="0">-0.624100</Element>
    <Element Row="0" Col="2">-0.033600</Element>
    <Element Row="0" Col="1">-0.022900</Element>
    <Element Row="0" Col="0">0.530900</Element>
  </ColorMatrix1>
  <ColorMatrix2 Rows="3" Cols="3">
    <Element Row="2" Col="2">0.665100</Element>
    <Element Row="2" Col="1">0.193700</Element>
    <Element Row="2" Col="0">-0.149600</Element>
    <Element Row="1" Col="2">0.248000</Element>
    <Element Row="1" Col="1">1.547400</Element>
    <Element Row="1" Col="0">-0.779800</Element>
    <Element Row="0" Col="2">-0.083000</Element>
    <Element Row="0" Col="1">0.060300</Element>
    <Element Row="0" Col="0">0.471600</Element>
  </ColorMatrix2>
  <ForwardMatrix1 Rows="0" Cols="0"/>
  <ForwardMatrix2 Rows="0" Cols="0"/>
  <ReductionMatrix1 Rows="0" Cols="0"/>
  <ReductionMatrix2 Rows="0" Cols="0"/>
  <EmbedPolicy>3</EmbedPolicy>
  <UniqueCameraModelRestriction>Canon EOS 5D Mark III</UniqueCameraModelRestriction>
  <Copyright>CC-BY-SA 3.0, rawstudio.org</Copyright>
</dcpData>
