trunk/profiles/simple-src/Canon_PowerShot_G16-simple.xml
<?xml version="1.0" encoding="UTF-8"?>
<!--
     License: CC-BY-SA 3.0

     This work is licensed under a
     Creative Commons Attribution-ShareAlike 3.0 Unported License.

     See more at:
     http://creativecommons.org/licenses/by-sa/3.0/
-->

<dcpData>
  <ProfileName>Canon PowerShot G16 Simple</ProfileName>
  <CalibrationIlluminant1>17</CalibrationIlluminant1>
  <CalibrationIlluminant2>21</CalibrationIlluminant2>
  <ColorMatrix1 Rows="3" Cols="3">
    <Element Row="2" Col="2">0.610400</Element>
    <Element Row="2" Col="1">0.093500</Element>
    <Element Row="2" Col="0">-0.014200</Element>
    <Element Row="1" Col="2">0.298300</Element>
    <Element Row="1" Col="1">0.992400</Element>
    <Element Row="1" Col="0">-0.247400</Element>
    <Element Row="0" Col="2">0.054900</Element>
    <Element Row="0" Col="1">-0.436100</Element>
    <Element Row="0" Col="0">0.924900</Element>
  </ColorMatrix1>
  <ColorMatrix2 Rows="3" Cols="3">
    <Element Row="2" Col="2">0.555600</Element>
    <Element Row="2" Col="1">0.192100</Element>
    <Element Row="2" Col="0">-0.096500</Element>
    <Element Row="1" Col="2">0.205200</Element>
    <Element Row="1" Col="1">1.187900</Element>
    <Element Row="1" Col="0">-0.370400</Element>
    <Element Row="0" Col="2">-0.068200</Element>
    <Element Row="0" Col="1">-0.268700</Element>
    <Element Row="0" Col="0">0.802000</Element>
  </ColorMatrix2>
  <ForwardMatrix1 Rows="3" Cols="3">
    <Element Row="2" Col="2">0.825100</Element>
    <Element Row="2" Col="1">0.000000</Element>
    <Element Row="2" Col="0">0.000000</Element>
    <Element Row="1" Col="2">0.000100</Element>
    <Element Row="1" Col="1">0.711900</Element>
    <Element Row="1" Col="0">0.288000</Element>
    <Element Row="0" Col="2">0.031300</Element>
    <Element Row="0" Col="1">0.135200</Element>
    <Element Row="0" Col="0">0.797800</Element>
  </ForwardMatrix1>
  <ForwardMatrix2 Rows="3" Cols="3">
    <Element Row="2" Col="2">0.825100</Element>
    <Element Row="2" Col="1">0.000000</Element>
    <Element Row="2" Col="0">0.000000</Element>
    <Element Row="1" Col="2">0.000100</Element>
    <Element Row="1" Col="1">0.711900</Element>
    <Element Row="1" Col="0">0.288000</Element>
    <Element Row="0" Col="2">0.031300</Element>
    <Element Row="0" Col="1">0.135200</Element>
    <Element Row="0" Col="0">0.797800</Element>
  </ForwardMatrix2>
  <EmbedPolicy>3</EmbedPolicy>
  <UniqueCameraModelRestriction>Canon PowerShot G16</UniqueCameraModelRestriction>
  <Copyright>CC-BY-SA 3.0, rawstudio.org</Copyright>
</dcpData>