trunk/profiles/simple-src/Canon_PowerShot_A5-simple.xml
<?xml version="1.0" encoding="UTF-8"?>
<!--
     License: CC-BY-SA 3.0

     This work is licensed under a 
     Creative Commons Attribution-ShareAlike 3.0 Unported License.

     See more at:
     http://creativecommons.org/licenses/by-sa/3.0/
-->
<dcpData>
  <ProfileName>Canon PowerShot A5 Simple</ProfileName>
  <CalibrationIlluminant1>21</CalibrationIlluminant1>
  <CalibrationIlluminant2>0</CalibrationIlluminant2>
  <ColorMatrix1 Rows="4" Cols="3">
    <Element Row="3" Col="2">0.054700</Element>
    <Element Row="3" Col="1">1.088300</Element>
    <Element Row="3" Col="0">-0.155400</Element>
    <Element Row="2" Col="2">0.594700</Element>
    <Element Row="2" Col="1">1.016400</Element>
    <Element Row="2" Col="0">-0.525900</Element>
    <Element Row="1" Col="2">0.409400</Element>
    <Element Row="1" Col="1">0.161100</Element>
    <Element Row="1" Col="0">0.292600</Element>
    <Element Row="0" Col="2">0.195200</Element>
    <Element Row="0" Col="1">0.947500</Element>
    <Element Row="0" Col="0">-0.480100</Element>
  </ColorMatrix1>
  <ColorMatrix2 Rows="0" Cols="0"/>
  <ForwardMatrix1 Rows="0" Cols="0"/>
  <ForwardMatrix2 Rows="0" Cols="0"/>
  <ReductionMatrix1 Rows="0" Cols="0"/>
  <ReductionMatrix2 Rows="0" Cols="0"/>
  <EmbedPolicy>3</EmbedPolicy>
  <UniqueCameraModelRestriction>Canon PowerShot A5</UniqueCameraModelRestriction>
  <Copyright>CC-BY-SA 3.0, rawstudio.org</Copyright>
</dcpData>
