trunk/profiles/simple-src/Canon_EOS_700D-simple.xml
<?xml version="1.0" encoding="UTF-8"?>
<!--
     License: CC-BY-SA 3.0

     This work is licensed under a
     Creative Commons Attribution-ShareAlike 3.0 Unported License.

     See more at:
     http://creativecommons.org/licenses/by-sa/3.0/
-->

<dcpData>
  <ProfileName>Canon EOS 700D Simple</ProfileName>
  <CalibrationIlluminant1>17</CalibrationIlluminant1>
  <CalibrationIlluminant2>21</CalibrationIlluminant2>
  <ColorMatrix1 Rows="3" Cols="3">
    <Element Row="2" Col="2">0.651200</Element>
    <Element Row="2" Col="1">0.113600</Element>
    <Element Row="2" Col="0">-0.034900</Element>
    <Element Row="1" Col="2">0.329500</Element>
    <Element Row="1" Col="1">1.074900</Element>
    <Element Row="1" Col="0">-0.359600</Element>
    <Element Row="0" Col="2">-0.039700</Element>
    <Element Row="0" Col="1">-0.161100</Element>
    <Element Row="0" Col="0">0.698500</Element>
  </ColorMatrix1>
  <ColorMatrix2 Rows="3" Cols="3">
    <Element Row="2" Col="2">0.614800</Element>
    <Element Row="2" Col="1">0.203900</Element>
    <Element Row="2" Col="0">-0.097500</Element>
    <Element Row="1" Col="2">0.224700</Element>
    <Element Row="1" Col="1">1.245800</Element>
    <Element Row="1" Col="0">-0.447200</Element>
    <Element Row="0" Col="2">-0.093900</Element>
    <Element Row="0" Col="1">-0.084100</Element>
    <Element Row="0" Col="0">0.660200</Element>
  </ColorMatrix2>
  <ForwardMatrix1 Rows="3" Cols="3">
    <Element Row="2" Col="2">1.229300</Element>
    <Element Row="2" Col="1">-0.414700</Element>
    <Element Row="2" Col="0">0.010500</Element>
    <Element Row="1" Col="2">-0.118000</Element>
    <Element Row="1" Col="1">0.884000</Element>
    <Element Row="1" Col="0">0.234000</Element>
    <Element Row="0" Col="2">0.141100</Element>
    <Element Row="0" Col="1">0.048500</Element>
    <Element Row="0" Col="0">0.774700</Element>
  </ForwardMatrix1>
  <ForwardMatrix2 Rows="3" Cols="3">
    <Element Row="2" Col="2">1.017100</Element>
    <Element Row="2" Col="1">-0.211300</Element>
    <Element Row="2" Col="0">0.019300</Element>
    <Element Row="1" Col="2">-0.200500</Element>
    <Element Row="1" Col="1">0.935500</Element>
    <Element Row="1" Col="0">0.265000</Element>
    <Element Row="0" Col="2">0.104700</Element>
    <Element Row="0" Col="1">0.119900</Element>
    <Element Row="0" Col="0">0.739700</Element>
  </ForwardMatrix2>
  <EmbedPolicy>3</EmbedPolicy>
  <UniqueCameraModelRestriction>Canon EOS 700D</UniqueCameraModelRestriction>
  <Copyright>CC-BY-SA 3.0, rawstudio.org</Copyright>
</dcpData>