trunk/profiles/simple-src/Canon_EOS_60Da-simple.xml
<?xml version="1.0" encoding="UTF-8"?>
<!--
     License: CC-BY-SA 3.0

     This work is licensed under a 
     Creative Commons Attribution-ShareAlike 3.0 Unported License.

     See more at:
     http://creativecommons.org/licenses/by-sa/3.0/
-->
<dcpData>
  <ProfileName>Canon EOS 60D simple</ProfileName>
  <CalibrationIlluminant1>17</CalibrationIlluminant1>
  <CalibrationIlluminant2>21</CalibrationIlluminant2>
  <ColorMatrix1 Rows="3" Cols="3">
    <Element Row="2" Col="2">0.594500</Element>
    <Element Row="2" Col="1">0.033700</Element>
    <Element Row="2" Col="0">0.057800</Element>
    <Element Row="1" Col="2">0.270200</Element>
    <Element Row="1" Col="1">0.822500</Element>
    <Element Row="1" Col="0">-0.047100</Element>
    <Element Row="0" Col="2">0.018000</Element>
    <Element Row="0" Col="1">-1.282200</Element>
    <Element Row="0" Col="0">2.199100</Element>
  </ColorMatrix1>
  <ColorMatrix2 Rows="3" Cols="3">
    <Element Row="2" Col="2">0.540600</Element>
    <Element Row="2" Col="1">0.132900</Element>
    <Element Row="2" Col="0">-0.018600</Element>
    <Element Row="1" Col="2">0.170100</Element>
    <Element Row="1" Col="1">1.032300</Element>
    <Element Row="1" Col="0">-0.179100</Element>
    <Element Row="0" Col="2">-0.202300</Element>
    <Element Row="0" Col="1">-0.724000</Element>
    <Element Row="0" Col="0">1.749200</Element>
  </ColorMatrix2>
  <ForwardMatrix1 Rows="0" Cols="0"/>
  <ForwardMatrix2 Rows="0" Cols="0"/>
  <ReductionMatrix1 Rows="0" Cols="0"/>
  <ReductionMatrix2 Rows="0" Cols="0"/>
  <EmbedPolicy>3</EmbedPolicy>
  <UniqueCameraModelRestriction>Canon EOS 60Da</UniqueCameraModelRestriction>
  <Copyright>CC-BY-SA 3.0, rawstudio.org</Copyright>
</dcpData>
