trunk/profiles/simple-src/Canon_EOS_650D-simple.xml
<?xml version="1.0" encoding="UTF-8"?>
<!--
     License: CC-BY-SA 3.0

     This work is licensed under a 
     Creative Commons Attribution-ShareAlike 3.0 Unported License.

     See more at:
     http://creativecommons.org/licenses/by-sa/3.0/
-->
<dcpData>
  <ProfileName>Canon EOS 650D Simple</ProfileName>
  <CalibrationIlluminant1>21</CalibrationIlluminant1>
  <CalibrationIlluminant2>0</CalibrationIlluminant2>
  <ColorMatrix1 Rows="3" Cols="3">
    <Element Row="0" Col="0">0.660200</Element>
    <Element Row="0" Col="1">-0.084100</Element>
    <Element Row="0" Col="2">-0.-093900</Element>
    <Element Row="1" Col="0">-0.447200</Element>
    <Element Row="1" Col="1">1.245800</Element>
    <Element Row="1" Col="2">0.224700</Element>
    <Element Row="2" Col="0">-0.097500</Element>
    <Element Row="2" Col="1">0.203900</Element>
    <Element Row="2" Col="2">0.614800</Element>
  </ColorMatrix1>
  <ColorMatrix2 Rows="0" Cols="0"/>
  <ForwardMatrix1 Rows="0" Cols="0"/>
  <ForwardMatrix2 Rows="0" Cols="0"/>
  <ReductionMatrix1 Rows="0" Cols="0"/>
  <ReductionMatrix2 Rows="0" Cols="0"/>
  <EmbedPolicy>3</EmbedPolicy>
  <UniqueCameraModelRestriction>Canon EOS 650D</UniqueCameraModelRestriction>
  <Copyright>CC-BY-SA 3.0, rawstudio.org</Copyright>
</dcpData>
