trunk/profiles/simple-src/Canon_PowerShot_S110-simple.xml
<?xml version="1.0" encoding="UTF-8"?>
<!--
     License: CC-BY-SA 3.0

     This work is licensed under a 
     Creative Commons Attribution-ShareAlike 3.0 Unported License.

     See more at:
     http://creativecommons.org/licenses/by-sa/3.0/
-->
<dcpData>
  <ProfileName>Canon PowerShot S110 Simple</ProfileName>
  <CalibrationIlluminant1>17</CalibrationIlluminant1>
  <CalibrationIlluminant2>21</CalibrationIlluminant2>
  <ColorMatrix1 Rows="3" Cols="3">
    <Element Row="2" Col="2">0.426200</Element>
    <Element Row="2" Col="1">0.024700</Element>
    <Element Row="2" Col="0">0.014000</Element>
    <Element Row="1" Col="2">0.398700</Element>
    <Element Row="1" Col="1">0.932600</Element>
    <Element Row="1" Col="0">-0.271300</Element>
    <Element Row="0" Col="2">0.024000</Element>
    <Element Row="0" Col="1">-0.411000</Element>
    <Element Row="0" Col="0">0.906300</Element>
  </ColorMatrix1>
  <ColorMatrix2 Rows="3" Cols="3">
    <Element Row="2" Col="2">0.419400</Element>
    <Element Row="2" Col="1">0.069000</Element>
    <Element Row="2" Col="0">-0.020600</Element>
    <Element Row="1" Col="2">0.293000</Element>
    <Element Row="1" Col="1">1.123000</Element>
    <Element Row="1" Col="0">-0.378300</Element>
    <Element Row="0" Col="2">-0.065400</Element>
    <Element Row="0" Col="1">-0.264300</Element>
    <Element Row="0" Col="0">0.803900</Element>
  </ColorMatrix2>
  <ForwardMatrix1 Rows="0" Cols="0"/>
  <ForwardMatrix2 Rows="0" Cols="0"/>
  <ReductionMatrix1 Rows="0" Cols="0"/>
  <ReductionMatrix2 Rows="0" Cols="0"/>
  <EmbedPolicy>3</EmbedPolicy>
  <UniqueCameraModelRestriction>Canon PowerShot S110</UniqueCameraModelRestriction>
  <Copyright>CC-BY-SA 3.0, rawstudio.org</Copyright>
</dcpData>
