trunk/profiles/simple-src/Canon_EOS_20Da-simple.xml
<?xml version="1.0" encoding="UTF-8"?>
<!--
     License: CC-BY-SA 3.0

     This work is licensed under a 
     Creative Commons Attribution-ShareAlike 3.0 Unported License.

     See more at:
     http://creativecommons.org/licenses/by-sa/3.0/
-->
<dcpData>
  <ProfileName>Canon EOS 20Da Simple</ProfileName>
  <CalibrationIlluminant1>21</CalibrationIlluminant1>
  <CalibrationIlluminant2>0</CalibrationIlluminant2>
  <ColorMatrix1 Rows="3" Cols="3">
    <Element Row="2" Col="2">0.656100</Element>
    <Element Row="2" Col="1">0.182400</Element>
    <Element Row="2" Col="0">-0.162300</Element>
    <Element Row="1" Col="2">0.203900</Element>
    <Element Row="1" Col="1">1.463300</Element>
    <Element Row="1" Col="0">-0.655000</Element>
    <Element Row="0" Col="2">-0.138200</Element>
    <Element Row="0" Col="1">-0.506500</Element>
    <Element Row="0" Col="0">1.415500</Element>
  </ColorMatrix1>
  <ColorMatrix2 Rows="0" Cols="0"/>
  <ForwardMatrix1 Rows="0" Cols="0"/>
  <ForwardMatrix2 Rows="0" Cols="0"/>
  <ReductionMatrix1 Rows="0" Cols="0"/>
  <ReductionMatrix2 Rows="0" Cols="0"/>
  <EmbedPolicy>3</EmbedPolicy>
  <UniqueCameraModelRestriction>Canon EOS 20Da</UniqueCameraModelRestriction>
  <Copyright>CC-BY-SA 3.0, rawstudio.org</Copyright>
</dcpData>
