trunk/profiles/simple-src/Canon_PowerShot_G15-simple.xml
<?xml version="1.0" encoding="UTF-8"?>
<!--
     License: CC-BY-SA 3.0

     This work is licensed under a 
     Creative Commons Attribution-ShareAlike 3.0 Unported License.

     See more at:
     http://creativecommons.org/licenses/by-sa/3.0/
-->
<dcpData>
  <ProfileName>Canon PowerShot G15 Simple</ProfileName>
  <CalibrationIlluminant1>17</CalibrationIlluminant1>
  <CalibrationIlluminant2>21</CalibrationIlluminant2>
  <ColorMatrix1 Rows="3" Cols="3">
    <Element Row="2" Col="2">0.429100</Element>
    <Element Row="2" Col="1">0.022500</Element>
    <Element Row="2" Col="0">0.015900</Element>
    <Element Row="1" Col="2">0.406500</Element>
    <Element Row="1" Col="1">0.946100</Element>
    <Element Row="1" Col="0">-0.291900</Element>
    <Element Row="0" Col="2">0.032600</Element>
    <Element Row="0" Col="1">-0.347500</Element>
    <Element Row="0" Col="0">0.820400</Element>
  </ColorMatrix1>
  <ColorMatrix2 Rows="3" Cols="3">
    <Element Row="2" Col="2">0.418100</Element>
    <Element Row="2" Col="1">0.071600</Element>
    <Element Row="2" Col="0">-0.022200</Element>
    <Element Row="1" Col="2">0.297500</Element>
    <Element Row="1" Col="1">1.145600</Element>
    <Element Row="1" Col="0">-0.405600</Element>
    <Element Row="0" Col="2">-0.056700</Element>
    <Element Row="0" Col="1">-0.230100</Element>
    <Element Row="0" Col="0">0.747400</Element>
  </ColorMatrix2>
  <ForwardMatrix1 Rows="0" Cols="0"/>
  <ForwardMatrix2 Rows="0" Cols="0"/>
  <ReductionMatrix1 Rows="0" Cols="0"/>
  <ReductionMatrix2 Rows="0" Cols="0"/>
  <EmbedPolicy>3</EmbedPolicy>
  <UniqueCameraModelRestriction>Canon PowerShot G15</UniqueCameraModelRestriction>
  <Copyright>CC-BY-SA 3.0, rawstudio.org</Copyright>
</dcpData>
