trunk/profiles/simple-src/FUJIFILM_FinePix_X-S1-simple.xml
<?xml version="1.0" encoding="UTF-8"?>
<!--
     License: CC-BY-SA 3.0

     This work is licensed under a 
     Creative Commons Attribution-ShareAlike 3.0 Unported License.

     See more at:
     http://creativecommons.org/licenses/by-sa/3.0/
-->
<dcpData>
  <ProfileName>Fujifilm X-S1 Simple</ProfileName>
  <CalibrationIlluminant1>17</CalibrationIlluminant1>
  <CalibrationIlluminant2>21</CalibrationIlluminant2>
  <ColorMatrix1 Rows="3" Cols="3">
    <Element Row="2" Col="2">0.579100</Element>
    <Element Row="2" Col="1">0.051800</Element>
    <Element Row="2" Col="0">0.035200</Element>
    <Element Row="1" Col="2">0.277300</Element>
    <Element Row="1" Col="1">1.122600</Element>
    <Element Row="1" Col="0">-0.364400</Element>
    <Element Row="0" Col="2">0.063900</Element>
    <Element Row="0" Col="1">-0.856700</Element>
    <Element Row="0" Col="0">1.508500</Element>
  </ColorMatrix1>
  <ColorMatrix2 Rows="3" Cols="3">
    <Element Row="2" Col="2">0.502200</Element>
    <Element Row="2" Col="1">0.144100</Element>
    <Element Row="2" Col="0">-0.033100</Element>
    <Element Row="1" Col="2">0.186500</Element>
    <Element Row="1" Col="1">1.273300</Element>
    <Element Row="1" Col="0">-0.443000</Element>
    <Element Row="0" Col="2">-0.125400</Element>
    <Element Row="0" Col="1">-0.619900</Element>
    <Element Row="0" Col="0">1.350900</Element>
  </ColorMatrix2>
  <ForwardMatrix1 Rows="0" Cols="0"/>
  <ForwardMatrix2 Rows="0" Cols="0"/>
  <ReductionMatrix1 Rows="0" Cols="0"/>
  <ReductionMatrix2 Rows="0" Cols="0"/>
  <EmbedPolicy>3</EmbedPolicy>
  <UniqueCameraModelRestriction>Fujifilm X-S1</UniqueCameraModelRestriction>
  <Copyright>CC-BY-SA 3.0, rawstudio.org</Copyright>
</dcpData>
