trunk/profiles/simple-src/Konica_Minolta_Maxxum_7D-simple.xml
<?xml version="1.0" encoding="UTF-8"?>
<!--
     License: CC-BY-SA 3.0

     This work is licensed under a 
     Creative Commons Attribution-ShareAlike 3.0 Unported License.

     See more at:
     http://creativecommons.org/licenses/by-sa/3.0/
-->
<dcpData>
  <ProfileName>Konica Minolta Maxxum 7D Simple</ProfileName>
  <CalibrationIlluminant1>17</CalibrationIlluminant1>
  <CalibrationIlluminant2>21</CalibrationIlluminant2>
  <ColorMatrix1 Rows="3" Cols="3">
    <Element Row="2" Col="2">0.683900</Element>
    <Element Row="2" Col="1">0.063600</Element>
    <Element Row="2" Col="0">-0.051300</Element>
    <Element Row="1" Col="2">0.281100</Element>
    <Element Row="1" Col="1">1.444900</Element>
    <Element Row="1" Col="0">-0.701900</Element>
    <Element Row="0" Col="2">-0.007600</Element>
    <Element Row="0" Col="1">-0.495500</Element>
    <Element Row="0" Col="0">1.203600</Element>
  </ColorMatrix1>
  <ColorMatrix2 Rows="3" Cols="3">
    <Element Row="2" Col="2">0.687100</Element>
    <Element Row="2" Col="1">0.092600</Element>
    <Element Row="2" Col="0">-0.092800</Element>
    <Element Row="1" Col="2">0.245200</Element>
    <Element Row="1" Col="1">1.572700</Element>
    <Element Row="1" Col="0">-0.803700</Element>
    <Element Row="0" Col="2">-0.109900</Element>
    <Element Row="0" Col="1">-0.310400</Element>
    <Element Row="0" Col="0">1.023900</Element>
  </ColorMatrix2>
  <ForwardMatrix1 Rows="0" Cols="0"/>
  <ForwardMatrix2 Rows="0" Cols="0"/>
  <ReductionMatrix1 Rows="0" Cols="0"/>
  <ReductionMatrix2 Rows="0" Cols="0"/>
  <EmbedPolicy>3</EmbedPolicy>
  <UniqueCameraModelRestriction>Konica Minolta Maxxum 7D</UniqueCameraModelRestriction>
  <Copyright>CC-BY-SA 3.0, rawstudio.org</Copyright>
</dcpData>
