trunk/profiles/simple-src/Leaf_Credo_60-simple.xml
<?xml version="1.0" encoding="UTF-8"?>
<!--
     License: CC-BY-SA 3.0

     This work is licensed under a 
     Creative Commons Attribution-ShareAlike 3.0 Unported License.

     See more at:
     http://creativecommons.org/licenses/by-sa/3.0/
-->
<dcpData>
  <ProfileName>Leaf Credo 60 Simple</ProfileName>
  <CalibrationIlluminant1>17</CalibrationIlluminant1>
  <CalibrationIlluminant2>21</CalibrationIlluminant2>
  <ColorMatrix1 Rows="3" Cols="3">
    <Element Row="2" Col="2">0.585800</Element>
    <Element Row="2" Col="1">0.262200</Element>
    <Element Row="2" Col="0">-0.088100</Element>
    <Element Row="1" Col="2">0.283200</Element>
    <Element Row="1" Col="1">1.277400</Element>
    <Element Row="1" Col="0">-0.530000</Element>
    <Element Row="0" Col="2">-0.076100</Element>
    <Element Row="0" Col="1">0.024400</Element>
    <Element Row="0" Col="0">0.775600</Element>
  </ColorMatrix1>
  <ColorMatrix2 Rows="3" Cols="3">
    <Element Row="2" Col="2">0.543400</Element>
    <Element Row="2" Col="1">0.306500</Element>
    <Element Row="2" Col="0">-0.115900</Element>
    <Element Row="1" Col="2">0.232000</Element>
    <Element Row="1" Col="1">1.387200</Element>
    <Element Row="1" Col="0">-0.600100</Element>
    <Element Row="0" Col="2">-0.096200</Element>
    <Element Row="0" Col="1">0.043500</Element>
    <Element Row="0" Col="0">0.803500</Element>
  </ColorMatrix2>
  <ForwardMatrix1 Rows="0" Cols="0"/>
  <ForwardMatrix2 Rows="0" Cols="0"/>
  <ReductionMatrix1 Rows="0" Cols="0"/>
  <ReductionMatrix2 Rows="0" Cols="0"/>
  <EmbedPolicy>3</EmbedPolicy>
  <UniqueCameraModelRestriction>Leaf Credo 60</UniqueCameraModelRestriction>
  <Copyright>CC-BY-SA 3.0, rawstudio.org</Copyright>
</dcpData>
