trunk/profiles/simple-src/Minolta_DiMAGE_7i-simple.xml
<?xml version="1.0" encoding="UTF-8"?>
<!--
     License: CC-BY-SA 3.0

     This work is licensed under a 
     Creative Commons Attribution-ShareAlike 3.0 Unported License.

     See more at:
     http://creativecommons.org/licenses/by-sa/3.0/
-->
<dcpData>
  <ProfileName>Minolta DiMAGE 7i Simple</ProfileName>
  <CalibrationIlluminant1>17</CalibrationIlluminant1>
  <CalibrationIlluminant2>21</CalibrationIlluminant2>
  <ColorMatrix1 Rows="3" Cols="3">
    <Element Row="2" Col="2">0.826500</Element>
    <Element Row="2" Col="1">0.219400</Element>
    <Element Row="2" Col="0">-0.155600</Element>
    <Element Row="1" Col="2">0.280200</Element>
    <Element Row="1" Col="1">1.417000</Element>
    <Element Row="1" Col="0">-0.672100</Element>
    <Element Row="0" Col="2">0.005800</Element>
    <Element Row="0" Col="1">-0.644900</Element>
    <Element Row="0" Col="0">1.352400</Element>
  </ColorMatrix1>
  <ColorMatrix2 Rows="3" Cols="3">
    <Element Row="2" Col="2">0.756000</Element>
    <Element Row="2" Col="1">0.335900</Element>
    <Element Row="2" Col="0">-0.279700</Element>
    <Element Row="1" Col="2">0.243400</Element>
    <Element Row="1" Col="1">1.558500</Element>
    <Element Row="1" Col="0">-0.787500</Element>
    <Element Row="0" Col="2">-0.119900</Element>
    <Element Row="0" Col="1">-0.379100</Element>
    <Element Row="0" Col="0">1.105000</Element>
  </ColorMatrix2>
  <ForwardMatrix1 Rows="0" Cols="0"/>
  <ForwardMatrix2 Rows="0" Cols="0"/>
  <ReductionMatrix1 Rows="0" Cols="0"/>
  <ReductionMatrix2 Rows="0" Cols="0"/>
  <EmbedPolicy>3</EmbedPolicy>
  <UniqueCameraModelRestriction>Minolta DiMAGE 7i</UniqueCameraModelRestriction>
  <Copyright>CC-BY-SA 3.0, rawstudio.org</Copyright>
</dcpData>
