trunk/profiles/simple-src/Minolta_DiMAGE_5-simple.xml
<?xml version="1.0" encoding="UTF-8"?>
<!--
     License: CC-BY-SA 3.0

     This work is licensed under a 
     Creative Commons Attribution-ShareAlike 3.0 Unported License.

     See more at:
     http://creativecommons.org/licenses/by-sa/3.0/
-->
<dcpData>
  <ProfileName>Minolta DiMAGE 5 Simple</ProfileName>
  <CalibrationIlluminant1>21</CalibrationIlluminant1>
  <CalibrationIlluminant2>0</CalibrationIlluminant2>
  <ColorMatrix1 Rows="3" Cols="3">
    <Element Row="2" Col="2">0.801400</Element>
    <Element Row="2" Col="1">0.288700</Element>
    <Element Row="2" Col="0">-0.242600</Element>
    <Element Row="1" Col="2">0.223700</Element>
    <Element Row="1" Col="1">1.447600</Element>
    <Element Row="1" Col="0">-0.655600</Element>
    <Element Row="0" Col="2">-0.096300</Element>
    <Element Row="0" Col="1">-0.294200</Element>
    <Element Row="0" Col="0">0.898300</Element>
  </ColorMatrix1>
  <ColorMatrix2 Rows="0" Cols="0"/>
  <ForwardMatrix1 Rows="0" Cols="0"/>
  <ForwardMatrix2 Rows="0" Cols="0"/>
  <ReductionMatrix1 Rows="0" Cols="0"/>
  <ReductionMatrix2 Rows="0" Cols="0"/>
  <EmbedPolicy>3</EmbedPolicy>
  <UniqueCameraModelRestriction>Minolta DiMAGE 5</UniqueCameraModelRestriction>
  <Copyright>CC-BY-SA 3.0, rawstudio.org</Copyright>
</dcpData>
