trunk/profiles/simple-src/NIKON_D800-simple.xml
<?xml version="1.0" encoding="UTF-8"?>
<!--
     License: CC-BY-SA 3.0

     This work is licensed under a 
     Creative Commons Attribution-ShareAlike 3.0 Unported License.

     See more at:
     http://creativecommons.org/licenses/by-sa/3.0/
-->
<dcpData>
  <ProfileName>NIKON D800 Simple</ProfileName>
  <CalibrationIlluminant1>17</CalibrationIlluminant1>
  <CalibrationIlluminant2>21</CalibrationIlluminant2>
  <ColorMatrix1 Rows="3" Cols="3">
    <Element Row="2" Col="2">0.825000</Element>
    <Element Row="2" Col="1">0.104900</Element>
    <Element Row="2" Col="0">-0.044400</Element>
    <Element Row="1" Col="2">0.351600</Element>
    <Element Row="1" Col="1">1.092700</Element>
    <Element Row="1" Col="0">-0.397000</Element>
    <Element Row="0" Col="2">0.022800</Element>
    <Element Row="0" Col="1">-0.304600</Element>
    <Element Row="0" Col="0">0.843700</Element>
  </ColorMatrix1>
  <ColorMatrix2 Rows="3" Cols="3">
    <Element Row="2" Col="2">0.750100</Element>
    <Element Row="2" Col="1">0.206900</Element>
    <Element Row="2" Col="0">-0.117600</Element>
    <Element Row="1" Col="2">0.268100</Element>
    <Element Row="1" Col="1">1.248300</Element>
    <Element Row="1" Col="0">-0.486900</Element>
    <Element Row="0" Col="2">-0.055500</Element>
    <Element Row="0" Col="1">-0.210800</Element>
    <Element Row="0" Col="0">0.786600</Element>
  </ColorMatrix2>
  <ForwardMatrix1 Rows="0" Cols="0"/>
  <ForwardMatrix2 Rows="0" Cols="0"/>
  <ReductionMatrix1 Rows="0" Cols="0"/>
  <ReductionMatrix2 Rows="0" Cols="0"/>
  <EmbedPolicy>3</EmbedPolicy>
  <UniqueCameraModelRestriction>NIKON D800</UniqueCameraModelRestriction>
  <Copyright>CC-BY-SA 3.0, rawstudio.org</Copyright>
</dcpData>
