trunk/profiles/simple-src/NIKON_E950-simple.xml
<?xml version="1.0" encoding="UTF-8"?>
<!--
     License: CC-BY-SA 3.0

     This work is licensed under a 
     Creative Commons Attribution-ShareAlike 3.0 Unported License.

     See more at:
     http://creativecommons.org/licenses/by-sa/3.0/
-->
<dcpData>
  <ProfileName>NIKON E950 Simple</ProfileName>
  <CalibrationIlluminant1>21</CalibrationIlluminant1>
  <CalibrationIlluminant2>0</CalibrationIlluminant2>
  <ColorMatrix1 Rows="4" Cols="3">
    <Element Row="3" Col="2">-0.026300</Element>
    <Element Row="3" Col="1">0.658500</Element>
    <Element Row="3" Col="0">0.366700</Element>
    <Element Row="2" Col="2">0.329900</Element>
    <Element Row="2" Col="1">0.762500</Element>
    <Element Row="2" Col="0">-0.257200</Element>
    <Element Row="1" Col="2">0.227600</Element>
    <Element Row="1" Col="1">-0.186700</Element>
    <Element Row="1" Col="0">1.035900</Element>
    <Element Row="0" Col="2">0.179300</Element>
    <Element Row="0" Col="1">1.142500</Element>
    <Element Row="0" Col="0">-0.403300</Element>
  </ColorMatrix1>
  <ColorMatrix2 Rows="0" Cols="0"/>
  <ForwardMatrix1 Rows="0" Cols="0"/>
  <ForwardMatrix2 Rows="0" Cols="0"/>
  <ReductionMatrix1 Rows="0" Cols="0"/>
  <ReductionMatrix2 Rows="0" Cols="0"/>
  <EmbedPolicy>3</EmbedPolicy>
  <UniqueCameraModelRestriction>NIKON E950</UniqueCameraModelRestriction>
  <Copyright>CC-BY-SA 3.0, rawstudio.org</Copyright>
</dcpData>
