trunk/profiles/simple-src/NIKON_E8800-simple.xml
<?xml version="1.0" encoding="UTF-8"?>
<!--
     License: CC-BY-SA 3.0

     This work is licensed under a 
     Creative Commons Attribution-ShareAlike 3.0 Unported License.

     See more at:
     http://creativecommons.org/licenses/by-sa/3.0/
-->
<dcpData>
  <ProfileName>NIKON E8800 Simple</ProfileName>
  <CalibrationIlluminant1>21</CalibrationIlluminant1>
  <CalibrationIlluminant2>0</CalibrationIlluminant2>
  <ColorMatrix1 Rows="3" Cols="3">
    <Element Row="2" Col="2">0.761000</Element>
    <Element Row="2" Col="1">0.152000</Element>
    <Element Row="2" Col="0">-0.144200</Element>
    <Element Row="1" Col="2">0.289400</Element>
    <Element Row="1" Col="1">1.576200</Element>
    <Element Row="1" Col="0">-0.845100</Element>
    <Element Row="0" Col="2">-0.091300</Element>
    <Element Row="0" Col="1">-0.231400</Element>
    <Element Row="0" Col="0">0.797100</Element>
  </ColorMatrix1>
  <ColorMatrix2 Rows="0" Cols="0"/>
  <ForwardMatrix1 Rows="0" Cols="0"/>
  <ForwardMatrix2 Rows="0" Cols="0"/>
  <ReductionMatrix1 Rows="0" Cols="0"/>
  <ReductionMatrix2 Rows="0" Cols="0"/>
  <EmbedPolicy>3</EmbedPolicy>
  <UniqueCameraModelRestriction>NIKON E8800</UniqueCameraModelRestriction>
  <Copyright>CC-BY-SA 3.0, rawstudio.org</Copyright>
</dcpData>
