trunk/profiles/simple-src/NIKON_D5100-simple.xml
<?xml version="1.0" encoding="UTF-8"?>
<!--
     License: CC-BY-SA 3.0

     This work is licensed under a 
     Creative Commons Attribution-ShareAlike 3.0 Unported License.

     See more at:
     http://creativecommons.org/licenses/by-sa/3.0/
-->
<dcpData>
  <ProfileName>NIKON D5100 Simple</ProfileName>
  <CalibrationIlluminant1>21</CalibrationIlluminant1>
  <CalibrationIlluminant2>0</CalibrationIlluminant2>
  <ColorMatrix1 Rows="3" Cols="3">
    <Element Row="0" Col="0">0.8198</Element>
    <Element Row="0" Col="1">-0.2239</Element>
    <Element Row="0" Col="2">-0.0724</Element>
    <Element Row="1" Col="0">-0.4871</Element>
    <Element Row="1" Col="1">1.2389</Element>
    <Element Row="1" Col="2">0.2798</Element>
    <Element Row="2" Col="0">-0.1043</Element>
    <Element Row="2" Col="1">0.2050</Element>
    <Element Row="2" Col="2">0.7181</Element>
  </ColorMatrix1>
  <ColorMatrix2 Rows="0" Cols="0"/>
  <ForwardMatrix1 Rows="0" Cols="0"/>
  <ForwardMatrix2 Rows="0" Cols="0"/>
  <ReductionMatrix1 Rows="0" Cols="0"/>
  <ReductionMatrix2 Rows="0" Cols="0"/>
  <EmbedPolicy>3</EmbedPolicy>
  <UniqueCameraModelRestriction>NIKON D5100</UniqueCameraModelRestriction>
  <Copyright>CC-BY-SA 3.0, rawstudio.org</Copyright>
</dcpData>
