trunk/profiles/simple-src/Nikon_D610-simple.xml
<?xml version="1.0" encoding="UTF-8"?>
<!--
     License: CC-BY-SA 3.0

     This work is licensed under a
     Creative Commons Attribution-ShareAlike 3.0 Unported License.

     See more at:
     http://creativecommons.org/licenses/by-sa/3.0/
-->

<dcpData>
  <ProfileName>Nikon D610 Simple</ProfileName>
  <CalibrationIlluminant1>17</CalibrationIlluminant1>
  <CalibrationIlluminant2>21</CalibrationIlluminant2>
  <ColorMatrix1 Rows="3" Cols="3">
    <Element Row="2" Col="2">0.807200</Element>
    <Element Row="2" Col="1">0.105300</Element>
    <Element Row="2" Col="0">-0.046700</Element>
    <Element Row="1" Col="2">0.363500</Element>
    <Element Row="1" Col="1">1.084900</Element>
    <Element Row="1" Col="0">-0.399100</Element>
    <Element Row="0" Col="2">0.017100</Element>
    <Element Row="0" Col="1">-0.296600</Element>
    <Element Row="0" Col="0">0.850800</Element>
  </ColorMatrix1>
  <ColorMatrix2 Rows="3" Cols="3">
    <Element Row="2" Col="2">0.729800</Element>
    <Element Row="2" Col="1">0.208600</Element>
    <Element Row="2" Col="0">-0.120700</Element>
    <Element Row="1" Col="2">0.277600</Element>
    <Element Row="1" Col="1">1.239400</Element>
    <Element Row="1" Col="0">-0.485700</Element>
    <Element Row="0" Col="2">-0.060900</Element>
    <Element Row="0" Col="1">-0.224500</Element>
    <Element Row="0" Col="0">0.817800</Element>
  </ColorMatrix2>
  <ForwardMatrix1 Rows="3" Cols="3">
    <Element Row="2" Col="2">1.083800</Element>
    <Element Row="2" Col="1">-0.299600</Element>
    <Element Row="2" Col="0">0.040900</Element>
    <Element Row="1" Col="2">-0.135500</Element>
    <Element Row="1" Col="1">0.887400</Element>
    <Element Row="1" Col="0">0.248100</Element>
    <Element Row="0" Col="2">0.074200</Element>
    <Element Row="0" Col="1">0.159300</Element>
    <Element Row="0" Col="0">0.730800</Element>
  </ForwardMatrix1>
  <ForwardMatrix2 Rows="3" Cols="3">
    <Element Row="2" Col="2">0.974600</Element>
    <Element Row="2" Col="1">-0.175300</Element>
    <Element Row="2" Col="0">0.025800</Element>
    <Element Row="1" Col="2">-0.305100</Element>
    <Element Row="1" Col="1">1.036000</Element>
    <Element Row="1" Col="0">0.269100</Element>
    <Element Row="0" Col="2">-0.055100</Element>
    <Element Row="0" Col="1">0.318700</Element>
    <Element Row="0" Col="0">0.700800</Element>
  </ForwardMatrix2>
  <EmbedPolicy>3</EmbedPolicy>
  <UniqueCameraModelRestriction>Nikon D610</UniqueCameraModelRestriction>
  <Copyright>CC-BY-SA 3.0, rawstudio.org</Copyright>
</dcpData>