trunk/profiles/simple-src/NIKON_D70s-simple.xml
<?xml version="1.0" encoding="UTF-8"?>
<!--
     License: CC-BY-SA 3.0

     This work is licensed under a 
     Creative Commons Attribution-ShareAlike 3.0 Unported License.

     See more at:
     http://creativecommons.org/licenses/by-sa/3.0/
-->
<dcpData>
  <ProfileName>NIKON D70s Simple</ProfileName>
  <CalibrationIlluminant1>17</CalibrationIlluminant1>
  <CalibrationIlluminant2>21</CalibrationIlluminant2>
  <ColorMatrix1 Rows="3" Cols="3">
    <Element Row="2" Col="2">0.726700</Element>
    <Element Row="2" Col="1">0.042000</Element>
    <Element Row="2" Col="0">-0.031800</Element>
    <Element Row="1" Col="2">0.290200</Element>
    <Element Row="1" Col="1">1.407800</Element>
    <Element Row="1" Col="0">-0.671200</Element>
    <Element Row="0" Col="2">0.022000</Element>
    <Element Row="0" Col="1">-0.431100</Element>
    <Element Row="0" Col="0">0.950500</Element>
  </ColorMatrix1>
  <ColorMatrix2 Rows="3" Cols="3">
    <Element Row="2" Col="2">0.733000</Element>
    <Element Row="2" Col="1">0.078300</Element>
    <Element Row="2" Col="0">-0.085900</Element>
    <Element Row="1" Col="2">0.249800</Element>
    <Element Row="1" Col="1">1.588300</Element>
    <Element Row="1" Col="0">-0.823800</Element>
    <Element Row="0" Col="2">-0.078900</Element>
    <Element Row="0" Col="1">-0.242100</Element>
    <Element Row="0" Col="0">0.773200</Element>
  </ColorMatrix2>
  <ForwardMatrix1 Rows="0" Cols="0"/>
  <ForwardMatrix2 Rows="0" Cols="0"/>
  <ReductionMatrix1 Rows="0" Cols="0"/>
  <ReductionMatrix2 Rows="0" Cols="0"/>
  <EmbedPolicy>3</EmbedPolicy>
  <UniqueCameraModelRestriction>NIKON D70s</UniqueCameraModelRestriction>
  <Copyright>CC-BY-SA 3.0, rawstudio.org</Copyright>
</dcpData>
