trunk/profiles/simple-src/NIKON_D3100-simple.xml
<?xml version="1.0" encoding="UTF-8"?>
<!--
     License: CC-BY-SA 3.0

     This work is licensed under a 
     Creative Commons Attribution-ShareAlike 3.0 Unported License.

     See more at:
     http://creativecommons.org/licenses/by-sa/3.0/
-->
<dcpData>
  <ProfileName>Nikon D3100 Simple</ProfileName>
  <CalibrationIlluminant1>17</CalibrationIlluminant1>
  <CalibrationIlluminant2>21</CalibrationIlluminant2>
  <ColorMatrix1 Rows="3" Cols="3">
    <Element Row="2" Col="2">0.863200</Element>
    <Element Row="2" Col="1">0.147200</Element>
    <Element Row="2" Col="0">-0.067500</Element>
    <Element Row="1" Col="2">0.295500</Element>
    <Element Row="1" Col="1">1.194900</Element>
    <Element Row="1" Col="0">-0.455000</Element>
    <Element Row="0" Col="2">-0.041000</Element>
    <Element Row="0" Col="1">-0.282000</Element>
    <Element Row="0" Col="0">0.830600</Element>
  </ColorMatrix1>
  <ColorMatrix2 Rows="3" Cols="3">
    <Element Row="2" Col="2">0.796800</Element>
    <Element Row="2" Col="1">0.248300</Element>
    <Element Row="2" Col="0">-0.128800</Element>
    <Element Row="1" Col="2">0.240800</Element>
    <Element Row="1" Col="1">1.315000</Element>
    <Element Row="1" Col="0">-0.532700</Element>
    <Element Row="0" Col="2">-0.081300</Element>
    <Element Row="0" Col="1">-0.216700</Element>
    <Element Row="0" Col="0">0.791100</Element>
  </ColorMatrix2>
  <ForwardMatrix1 Rows="0" Cols="0"/>
  <ForwardMatrix2 Rows="0" Cols="0"/>
  <ReductionMatrix1 Rows="0" Cols="0"/>
  <ReductionMatrix2 Rows="0" Cols="0"/>
  <EmbedPolicy>3</EmbedPolicy>
  <UniqueCameraModelRestriction>Nikon D3100</UniqueCameraModelRestriction>
  <Copyright>CC-BY-SA 3.0, rawstudio.org</Copyright>
</dcpData>
