trunk/profiles/simple-src/NIKON_D7000-simple.xml
<?xml version="1.0" encoding="UTF-8"?>
<!--
     License: CC-BY-SA 3.0

     This work is licensed under a 
     Creative Commons Attribution-ShareAlike 3.0 Unported License.

     See more at:
     http://creativecommons.org/licenses/by-sa/3.0/
-->
<dcpData>
  <ProfileName>Nikon D7000 Simple</ProfileName>
  <CalibrationIlluminant1>17</CalibrationIlluminant1>
  <CalibrationIlluminant2>21</CalibrationIlluminant2>
  <ColorMatrix1 Rows="3" Cols="3">
    <Element Row="2" Col="2">0.781400</Element>
    <Element Row="2" Col="1">0.109900</Element>
    <Element Row="2" Col="0">-0.045300</Element>
    <Element Row="1" Col="2">0.342200</Element>
    <Element Row="1" Col="1">1.103300</Element>
    <Element Row="1" Col="0">-0.399900</Element>
    <Element Row="0" Col="2">-0.024300</Element>
    <Element Row="0" Col="1">-0.305800</Element>
    <Element Row="0" Col="0">0.864200</Element>
  </ColorMatrix1>
  <ColorMatrix2 Rows="3" Cols="3">
    <Element Row="2" Col="2">0.718100</Element>
    <Element Row="2" Col="1">0.205000</Element>
    <Element Row="2" Col="0">-0.104300</Element>
    <Element Row="1" Col="2">0.279800</Element>
    <Element Row="1" Col="1">1.238900</Element>
    <Element Row="1" Col="0">-0.487100</Element>
    <Element Row="0" Col="2">-0.072400</Element>
    <Element Row="0" Col="1">-0.223900</Element>
    <Element Row="0" Col="0">0.819800</Element>
  </ColorMatrix2>
  <ForwardMatrix1 Rows="0" Cols="0"/>
  <ForwardMatrix2 Rows="0" Cols="0"/>
  <ReductionMatrix1 Rows="0" Cols="0"/>
  <ReductionMatrix2 Rows="0" Cols="0"/>
  <EmbedPolicy>3</EmbedPolicy>
  <UniqueCameraModelRestriction>Nikon D7000</UniqueCameraModelRestriction>
  <Copyright>CC-BY-SA 3.0, rawstudio.org</Copyright>
</dcpData>
