trunk/profiles/simple-src/Olympus_STYLUS_1-simple.xml
<?xml version="1.0" encoding="UTF-8"?>
<!--
     License: CC-BY-SA 3.0

     This work is licensed under a
     Creative Commons Attribution-ShareAlike 3.0 Unported License.

     See more at:
     http://creativecommons.org/licenses/by-sa/3.0/
-->

<dcpData>
  <ProfileName>Olympus STYLUS 1 Simple</ProfileName>
  <CalibrationIlluminant1>17</CalibrationIlluminant1>
  <CalibrationIlluminant2>21</CalibrationIlluminant2>
  <ColorMatrix1 Rows="3" Cols="3">
    <Element Row="2" Col="2">0.522800</Element>
    <Element Row="2" Col="1">0.170400</Element>
    <Element Row="2" Col="0">-0.061700</Element>
    <Element Row="1" Col="2">0.230200</Element>
    <Element Row="1" Col="1">1.096600</Element>
    <Element Row="1" Col="0">-0.297200</Element>
    <Element Row="0" Col="2">0.005600</Element>
    <Element Row="0" Col="1">-0.236700</Element>
    <Element Row="0" Col="0">0.808800</Element>
  </ColorMatrix1>
  <ColorMatrix2 Rows="3" Cols="3">
    <Element Row="2" Col="2">0.517300</Element>
    <Element Row="2" Col="1">0.241600</Element>
    <Element Row="2" Col="0">-0.138100</Element>
    <Element Row="1" Col="2">0.173900</Element>
    <Element Row="1" Col="1">1.235300</Element>
    <Element Row="1" Col="0">-0.392800</Element>
    <Element Row="0" Col="2">-0.088000</Element>
    <Element Row="0" Col="1">-0.242000</Element>
    <Element Row="0" Col="0">0.836000</Element>
  </ColorMatrix2>
  <ForwardMatrix1 Rows="3" Cols="3">
    <Element Row="2" Col="2">0.598400</Element>
    <Element Row="2" Col="1">0.001300</Element>
    <Element Row="2" Col="0">0.225400</Element>
    <Element Row="1" Col="2">0.035900</Element>
    <Element Row="1" Col="1">0.675200</Element>
    <Element Row="1" Col="0">0.288900</Element>
    <Element Row="0" Col="2">0.115300</Element>
    <Element Row="0" Col="1">0.347600</Element>
    <Element Row="0" Col="0">0.501400</Element>
  </ForwardMatrix1>
  <ForwardMatrix2 Rows="3" Cols="3">
    <Element Row="2" Col="2">0.696300</Element>
    <Element Row="2" Col="1">0.000200</Element>
    <Element Row="2" Col="0">0.128700</Element>
    <Element Row="1" Col="2">0.052900</Element>
    <Element Row="1" Col="1">0.719900</Element>
    <Element Row="1" Col="0">0.227200</Element>
    <Element Row="0" Col="2">0.163700</Element>
    <Element Row="0" Col="1">0.341900</Element>
    <Element Row="0" Col="0">0.458600</Element>
  </ForwardMatrix2>
  <EmbedPolicy>3</EmbedPolicy>
  <UniqueCameraModelRestriction>Olympus STYLUS 1</UniqueCameraModelRestriction>
  <Copyright>CC-BY-SA 3.0, rawstudio.org</Copyright>
</dcpData>