trunk/profiles/simple-src/OLYMPUS_E-PM1-simple.xml
<?xml version="1.0" encoding="UTF-8"?>
<!--
     License: CC-BY-SA 3.0

     This work is licensed under a 
     Creative Commons Attribution-ShareAlike 3.0 Unported License.

     See more at:
     http://creativecommons.org/licenses/by-sa/3.0/
-->
<dcpData>
  <ProfileName>OLYMPUS E-PM1 Simple</ProfileName>
  <CalibrationIlluminant1>17</CalibrationIlluminant1>
  <CalibrationIlluminant2>21</CalibrationIlluminant2>
  <ColorMatrix1 Rows="3" Cols="3">
    <Element Row="2" Col="2">0.645300</Element>
    <Element Row="2" Col="1">0.195000</Element>
    <Element Row="2" Col="0">-0.078200</Element>
    <Element Row="1" Col="2">0.350900</Element>
    <Element Row="1" Col="1">0.986400</Element>
    <Element Row="1" Col="0">-0.286100</Element>
    <Element Row="0" Col="2">0.047600</Element>
    <Element Row="0" Col="1">-0.272800</Element>
    <Element Row="0" Col="0">0.772600</Element>
  </ColorMatrix1>
  <ColorMatrix2 Rows="3" Cols="3">
    <Element Row="2" Col="2">0.627100</Element>
    <Element Row="2" Col="1">0.281900</Element>
    <Element Row="2" Col="0">-0.143400</Element>
    <Element Row="1" Col="2">0.272500</Element>
    <Element Row="1" Col="1">1.134100</Element>
    <Element Row="1" Col="0">-0.372200</Element>
    <Element Row="0" Col="2">-0.057100</Element>
    <Element Row="0" Col="1">-0.215900</Element>
    <Element Row="0" Col="0">0.757500</Element>
  </ColorMatrix2>
  <ForwardMatrix1 Rows="0" Cols="0"/>
  <ForwardMatrix2 Rows="0" Cols="0"/>
  <ReductionMatrix1 Rows="0" Cols="0"/>
  <ReductionMatrix2 Rows="0" Cols="0"/>
  <EmbedPolicy>3</EmbedPolicy>
  <UniqueCameraModelRestriction>OLYMPUS E-PM1</UniqueCameraModelRestriction>
  <Copyright>CC-BY-SA 3.0, rawstudio.org</Copyright>
</dcpData>
