trunk/profiles/simple-src/OLYMPUS_E-5-simple.xml
<?xml version="1.0" encoding="UTF-8"?>
<!--
     License: CC-BY-SA 3.0

     This work is licensed under a 
     Creative Commons Attribution-ShareAlike 3.0 Unported License.

     See more at:
     http://creativecommons.org/licenses/by-sa/3.0/
-->
<dcpData>
  <ProfileName>Olympus E-5 Simple</ProfileName>
  <CalibrationIlluminant1>17</CalibrationIlluminant1>
  <CalibrationIlluminant2>21</CalibrationIlluminant2>
  <ColorMatrix1 Rows="3" Cols="3">
    <Element Row="2" Col="2">0.805000</Element>
    <Element Row="2" Col="1">0.115600</Element>
    <Element Row="2" Col="0">-0.034200</Element>
    <Element Row="1" Col="2">0.279600</Element>
    <Element Row="1" Col="1">1.143700</Element>
    <Element Row="1" Col="0">-0.388300</Element>
    <Element Row="0" Col="2">-0.061200</Element>
    <Element Row="0" Col="1">-0.473000</Element>
    <Element Row="0" Col="0">1.144900</Element>
  </ColorMatrix1>
  <ColorMatrix2 Rows="3" Cols="3">
    <Element Row="2" Col="2">0.750400</Element>
    <Element Row="2" Col="1">0.174200</Element>
    <Element Row="2" Col="0">-0.069500</Element>
    <Element Row="1" Col="2">0.220600</Element>
    <Element Row="1" Col="1">1.259300</Element>
    <Element Row="1" Col="0">-0.457600</Element>
    <Element Row="0" Col="2">-0.132500</Element>
    <Element Row="0" Col="1">-0.378300</Element>
    <Element Row="0" Col="0">1.120000</Element>
  </ColorMatrix2>
  <ForwardMatrix1 Rows="0" Cols="0"/>
  <ForwardMatrix2 Rows="0" Cols="0"/>
  <ReductionMatrix1 Rows="0" Cols="0"/>
  <ReductionMatrix2 Rows="0" Cols="0"/>
  <EmbedPolicy>3</EmbedPolicy>
  <UniqueCameraModelRestriction>Olympus E-5</UniqueCameraModelRestriction>
  <Copyright>CC-BY-SA 3.0, rawstudio.org</Copyright>
</dcpData>
