trunk/profiles/simple-src/OLYMPUS_SP500UZ-simple.xml
<?xml version="1.0" encoding="UTF-8"?>
<!--
     License: CC-BY-SA 3.0

     This work is licensed under a 
     Creative Commons Attribution-ShareAlike 3.0 Unported License.

     See more at:
     http://creativecommons.org/licenses/by-sa/3.0/
-->
<dcpData>
  <ProfileName>OLYMPUS SP500UZ Simple</ProfileName>
  <CalibrationIlluminant1>21</CalibrationIlluminant1>
  <CalibrationIlluminant2>0</CalibrationIlluminant2>
  <ColorMatrix1 Rows="3" Cols="3">
    <Element Row="2" Col="2">0.648200</Element>
    <Element Row="2" Col="1">0.226200</Element>
    <Element Row="2" Col="0">-0.154800</Element>
    <Element Row="1" Col="2">0.326000</Element>
    <Element Row="1" Col="1">1.233400</Element>
    <Element Row="1" Col="0">-0.521100</Element>
    <Element Row="0" Col="2">-0.066600</Element>
    <Element Row="0" Col="1">-0.341500</Element>
    <Element Row="0" Col="0">0.949300</Element>
  </ColorMatrix1>
  <ColorMatrix2 Rows="0" Cols="0"/>
  <ForwardMatrix1 Rows="0" Cols="0"/>
  <ForwardMatrix2 Rows="0" Cols="0"/>
  <ReductionMatrix1 Rows="0" Cols="0"/>
  <ReductionMatrix2 Rows="0" Cols="0"/>
  <EmbedPolicy>3</EmbedPolicy>
  <UniqueCameraModelRestriction>OLYMPUS SP500UZ</UniqueCameraModelRestriction>
  <Copyright>CC-BY-SA 3.0, rawstudio.org</Copyright>
</dcpData>
