trunk/profiles/simple-src/Olympus_E-M1-simple.xml
<?xml version="1.0" encoding="UTF-8"?>
<!--
     License: CC-BY-SA 3.0

     This work is licensed under a
     Creative Commons Attribution-ShareAlike 3.0 Unported License.

     See more at:
     http://creativecommons.org/licenses/by-sa/3.0/
-->

<dcpData>
  <ProfileName>Olympus E-M1 Simple</ProfileName>
  <CalibrationIlluminant1>17</CalibrationIlluminant1>
  <CalibrationIlluminant2>21</CalibrationIlluminant2>
  <ColorMatrix1 Rows="3" Cols="3">
    <Element Row="2" Col="2">0.653900</Element>
    <Element Row="2" Col="1">0.189000</Element>
    <Element Row="2" Col="0">-0.075100</Element>
    <Element Row="1" Col="2">0.261900</Element>
    <Element Row="1" Col="1">1.020500</Element>
    <Element Row="1" Col="0">-0.245300</Element>
    <Element Row="0" Col="2">0.011800</Element>
    <Element Row="0" Col="1">-0.574200</Element>
    <Element Row="0" Col="0">1.152800</Element>
  </ColorMatrix1>
  <ColorMatrix2 Rows="3" Cols="3">
    <Element Row="2" Col="2">0.645200</Element>
    <Element Row="2" Col="1">0.233900</Element>
    <Element Row="2" Col="0">-0.138100</Element>
    <Element Row="1" Col="2">0.272100</Element>
    <Element Row="1" Col="1">1.192800</Element>
    <Element Row="1" Col="0">-0.432700</Element>
    <Element Row="0" Col="2">-0.060600</Element>
    <Element Row="0" Col="1">-0.198400</Element>
    <Element Row="0" Col="0">0.768700</Element>
  </ColorMatrix2>
  <ForwardMatrix1 Rows="3" Cols="3">
    <Element Row="2" Col="2">0.612900</Element>
    <Element Row="2" Col="1">0.000600</Element>
    <Element Row="2" Col="0">0.211600</Element>
    <Element Row="1" Col="2">0.040700</Element>
    <Element Row="1" Col="1">0.682700</Element>
    <Element Row="1" Col="0">0.276500</Element>
    <Element Row="0" Col="2">0.129100</Element>
    <Element Row="0" Col="1">0.361800</Element>
    <Element Row="0" Col="0">0.473400</Element>
  </ForwardMatrix1>
  <ForwardMatrix2 Rows="3" Cols="3">
    <Element Row="2" Col="2">0.649700</Element>
    <Element Row="2" Col="1">0.003300</Element>
    <Element Row="2" Col="0">0.172200</Element>
    <Element Row="1" Col="2">0.056000</Element>
    <Element Row="1" Col="1">0.666100</Element>
    <Element Row="1" Col="0">0.277900</Element>
    <Element Row="0" Col="2">0.176600</Element>
    <Element Row="0" Col="1">0.324400</Element>
    <Element Row="0" Col="0">0.463300</Element>
  </ForwardMatrix2>
  <EmbedPolicy>3</EmbedPolicy>
  <UniqueCameraModelRestriction>Olympus E-M1</UniqueCameraModelRestriction>
  <Copyright>CC-BY-SA 3.0, rawstudio.org</Copyright>
</dcpData>