trunk/profiles/simple-src/Olympus_E-P5-simple.xml
<?xml version="1.0" encoding="UTF-8"?>
<!--
     License: CC-BY-SA 3.0

     This work is licensed under a
     Creative Commons Attribution-ShareAlike 3.0 Unported License.

     See more at:
     http://creativecommons.org/licenses/by-sa/3.0/
-->

<dcpData>
  <ProfileName>Olympus E-P5 Simple</ProfileName>
  <CalibrationIlluminant1>17</CalibrationIlluminant1>
  <CalibrationIlluminant2>21</CalibrationIlluminant2>
  <ColorMatrix1 Rows="3" Cols="3">
    <Element Row="2" Col="2">0.583800</Element>
    <Element Row="2" Col="1">0.080700</Element>
    <Element Row="2" Col="0">-0.018100</Element>
    <Element Row="1" Col="2">0.311100</Element>
    <Element Row="1" Col="1">0.970000</Element>
    <Element Row="1" Col="0">-0.235100</Element>
    <Element Row="0" Col="2">0.026000</Element>
    <Element Row="0" Col="1">-0.359700</Element>
    <Element Row="0" Col="0">0.903300</Element>
  </ColorMatrix1>
  <ColorMatrix2 Rows="3" Cols="3">
    <Element Row="2" Col="2">0.543800</Element>
    <Element Row="2" Col="1">0.142700</Element>
    <Element Row="2" Col="0">-0.062700</Element>
    <Element Row="1" Col="2">0.249600</Element>
    <Element Row="1" Col="1">1.072500</Element>
    <Element Row="1" Col="0">-0.288700</Element>
    <Element Row="0" Col="2">-0.063900</Element>
    <Element Row="0" Col="1">-0.263000</Element>
    <Element Row="0" Col="0">0.838000</Element>
  </ColorMatrix2>
  <ForwardMatrix1 Rows="3" Cols="3">
    <Element Row="2" Col="2">1.184800</Element>
    <Element Row="2" Col="1">-0.379900</Element>
    <Element Row="2" Col="0">0.020200</Element>
    <Element Row="1" Col="2">-0.132100</Element>
    <Element Row="1" Col="1">1.011000</Element>
    <Element Row="1" Col="0">0.121100</Element>
    <Element Row="0" Col="2">0.073600</Element>
    <Element Row="0" Col="1">0.221900</Element>
    <Element Row="0" Col="0">0.668800</Element>
  </ForwardMatrix1>
  <ForwardMatrix2 Rows="3" Cols="3">
    <Element Row="2" Col="2">0.990000</Element>
    <Element Row="2" Col="1">-0.183100</Element>
    <Element Row="2" Col="0">0.018100</Element>
    <Element Row="1" Col="2">-0.327300</Element>
    <Element Row="1" Col="1">1.155100</Element>
    <Element Row="1" Col="0">0.172200</Element>
    <Element Row="0" Col="2">-0.071200</Element>
    <Element Row="0" Col="1">0.402400</Element>
    <Element Row="0" Col="0">0.633100</Element>
  </ForwardMatrix2>
  <EmbedPolicy>3</EmbedPolicy>
  <UniqueCameraModelRestriction>Olympus E-P5</UniqueCameraModelRestriction>
  <Copyright>CC-BY-SA 3.0, rawstudio.org</Copyright>
</dcpData>