trunk/profiles/simple-src/Panasonic_DMC-LF1-simple.xml
<?xml version="1.0" encoding="UTF-8"?>
<!--
     License: CC-BY-SA 3.0

     This work is licensed under a
     Creative Commons Attribution-ShareAlike 3.0 Unported License.

     See more at:
     http://creativecommons.org/licenses/by-sa/3.0/
-->

<dcpData>
  <ProfileName>Panasonic DMC-LF1 Simple</ProfileName>
  <CalibrationIlluminant1>17</CalibrationIlluminant1>
  <CalibrationIlluminant2>21</CalibrationIlluminant2>
  <ColorMatrix1 Rows="3" Cols="3">
    <Element Row="2" Col="2">0.611900</Element>
    <Element Row="2" Col="1">0.098000</Element>
    <Element Row="2" Col="0">-0.010000</Element>
    <Element Row="1" Col="2">0.271100</Element>
    <Element Row="1" Col="1">0.994000</Element>
    <Element Row="1" Col="0">-0.225700</Element>
    <Element Row="0" Col="2">0.077600</Element>
    <Element Row="0" Col="1">-0.527600</Element>
    <Element Row="0" Col="0">1.088400</Element>
  </ColorMatrix1>
  <ColorMatrix2 Rows="3" Cols="3">
    <Element Row="2" Col="2">0.534000</Element>
    <Element Row="2" Col="1">0.192800</Element>
    <Element Row="2" Col="0">-0.092600</Element>
    <Element Row="1" Col="2">0.188100</Element>
    <Element Row="1" Col="1">1.156000</Element>
    <Element Row="1" Col="0">-0.322700</Element>
    <Element Row="0" Col="2">-0.081600</Element>
    <Element Row="0" Col="1">-0.326700</Element>
    <Element Row="0" Col="0">0.937900</Element>
  </ColorMatrix2>
  <ForwardMatrix1 Rows="3" Cols="3">
    <Element Row="2" Col="2">0.825100</Element>
    <Element Row="2" Col="1">0.000000</Element>
    <Element Row="2" Col="0">0.000000</Element>
    <Element Row="1" Col="2">0.000100</Element>
    <Element Row="1" Col="1">0.711900</Element>
    <Element Row="1" Col="0">0.288000</Element>
    <Element Row="0" Col="2">0.031300</Element>
    <Element Row="0" Col="1">0.135200</Element>
    <Element Row="0" Col="0">0.797800</Element>
  </ForwardMatrix1>
  <ForwardMatrix2 Rows="3" Cols="3">
    <Element Row="2" Col="2">0.825100</Element>
    <Element Row="2" Col="1">0.000000</Element>
    <Element Row="2" Col="0">0.000000</Element>
    <Element Row="1" Col="2">0.000100</Element>
    <Element Row="1" Col="1">0.711900</Element>
    <Element Row="1" Col="0">0.288000</Element>
    <Element Row="0" Col="2">0.031300</Element>
    <Element Row="0" Col="1">0.135200</Element>
    <Element Row="0" Col="0">0.797800</Element>
  </ForwardMatrix2>
  <EmbedPolicy>3</EmbedPolicy>
  <UniqueCameraModelRestriction>Panasonic DMC-LF1</UniqueCameraModelRestriction>
  <Copyright>CC-BY-SA 3.0, rawstudio.org</Copyright>
</dcpData>