trunk/profiles/simple-src/Panasonic_DMC-GX7-simple.xml
<?xml version="1.0" encoding="UTF-8"?>
<!--
     License: CC-BY-SA 3.0

     This work is licensed under a
     Creative Commons Attribution-ShareAlike 3.0 Unported License.

     See more at:
     http://creativecommons.org/licenses/by-sa/3.0/
-->

<dcpData>
  <ProfileName>Panasonic DMC-GX7 Simple</ProfileName>
  <CalibrationIlluminant1>17</CalibrationIlluminant1>
  <CalibrationIlluminant2>21</CalibrationIlluminant2>
  <ColorMatrix1 Rows="3" Cols="3">
    <Element Row="2" Col="2">0.746800</Element>
    <Element Row="2" Col="1">0.148600</Element>
    <Element Row="2" Col="0">-0.063100</Element>
    <Element Row="1" Col="2">0.326700</Element>
    <Element Row="1" Col="1">1.107700</Element>
    <Element Row="1" Col="0">-0.391300</Element>
    <Element Row="0" Col="2">0.025100</Element>
    <Element Row="0" Col="1">-0.369200</Element>
    <Element Row="0" Col="0">0.823900</Element>
  </ColorMatrix1>
  <ColorMatrix2 Rows="3" Cols="3">
    <Element Row="2" Col="2">0.649000</Element>
    <Element Row="2" Col="1">0.239300</Element>
    <Element Row="2" Col="0">-0.137500</Element>
    <Element Row="1" Col="2">0.273300</Element>
    <Element Row="1" Col="1">1.219500</Element>
    <Element Row="1" Col="0">-0.461400</Element>
    <Element Row="0" Col="2">-0.057600</Element>
    <Element Row="0" Col="1">-0.278000</Element>
    <Element Row="0" Col="0">0.761000</Element>
  </ColorMatrix2>
  <ForwardMatrix1 Rows="3" Cols="3">
    <Element Row="2" Col="2">0.825100</Element>
    <Element Row="2" Col="1">0.000000</Element>
    <Element Row="2" Col="0">0.000000</Element>
    <Element Row="1" Col="2">0.000100</Element>
    <Element Row="1" Col="1">0.711900</Element>
    <Element Row="1" Col="0">0.288000</Element>
    <Element Row="0" Col="2">0.031300</Element>
    <Element Row="0" Col="1">0.135200</Element>
    <Element Row="0" Col="0">0.797800</Element>
  </ForwardMatrix1>
  <ForwardMatrix2 Rows="3" Cols="3">
    <Element Row="2" Col="2">0.825100</Element>
    <Element Row="2" Col="1">0.000000</Element>
    <Element Row="2" Col="0">0.000000</Element>
    <Element Row="1" Col="2">0.000100</Element>
    <Element Row="1" Col="1">0.711900</Element>
    <Element Row="1" Col="0">0.288000</Element>
    <Element Row="0" Col="2">0.031300</Element>
    <Element Row="0" Col="1">0.135200</Element>
    <Element Row="0" Col="0">0.797800</Element>
  </ForwardMatrix2>
  <EmbedPolicy>3</EmbedPolicy>
  <UniqueCameraModelRestriction>Panasonic DMC-GX7</UniqueCameraModelRestriction>
  <Copyright>CC-BY-SA 3.0, rawstudio.org</Copyright>
</dcpData>