trunk/profiles/simple-src/Panasonic_DMC-GX1-simple.xml
<?xml version="1.0" encoding="UTF-8"?>
<!--
     License: CC-BY-SA 3.0

     This work is licensed under a 
     Creative Commons Attribution-ShareAlike 3.0 Unported License.

     See more at:
     http://creativecommons.org/licenses/by-sa/3.0/
-->
<dcpData>
  <ProfileName>Panasonic DMC-GX1 Simple</ProfileName>
  <CalibrationIlluminant1>17</CalibrationIlluminant1>
  <CalibrationIlluminant2>21</CalibrationIlluminant2>
  <ColorMatrix1 Rows="3" Cols="3">
    <Element Row="2" Col="2">0.661400</Element>
    <Element Row="2" Col="1">0.155100</Element>
    <Element Row="2" Col="0">-0.072500</Element>
    <Element Row="1" Col="2">0.325300</Element>
    <Element Row="1" Col="1">1.056600</Element>
    <Element Row="1" Col="0">-0.337100</Element>
    <Element Row="0" Col="2">-0.063400</Element>
    <Element Row="0" Col="1">-0.205300</Element>
    <Element Row="0" Col="0">0.667700</Element>
  </ColorMatrix1>
  <ColorMatrix2 Rows="3" Cols="3">
    <Element Row="2" Col="2">0.587900</Element>
    <Element Row="2" Col="1">0.238700</Element>
    <Element Row="2" Col="0">-0.121600</Element>
    <Element Row="1" Col="2">0.268400</Element>
    <Element Row="1" Col="1">1.151500</Element>
    <Element Row="1" Col="0">-0.386800</Element>
    <Element Row="0" Col="2">-0.086300</Element>
    <Element Row="0" Col="1">-0.191900</Element>
    <Element Row="0" Col="0">0.676300</Element>
  </ColorMatrix2>
  <ForwardMatrix1 Rows="0" Cols="0"/>
  <ForwardMatrix2 Rows="0" Cols="0"/>
  <ReductionMatrix1 Rows="0" Cols="0"/>
  <ReductionMatrix2 Rows="0" Cols="0"/>
  <EmbedPolicy>3</EmbedPolicy>
  <UniqueCameraModelRestriction>Panasonic DMC-GX1</UniqueCameraModelRestriction>
  <Copyright>CC-BY-SA 3.0, rawstudio.org</Copyright>
</dcpData>
