trunk/profiles/simple-src/Panasonic_DMC-GH3-simple.xml
<?xml version="1.0" encoding="UTF-8"?>
<!--
     License: CC-BY-SA 3.0

     This work is licensed under a 
     Creative Commons Attribution-ShareAlike 3.0 Unported License.

     See more at:
     http://creativecommons.org/licenses/by-sa/3.0/
-->
<dcpData>
  <ProfileName>Panasonic DMC-GH3 Simple</ProfileName>
  <CalibrationIlluminant1>17</CalibrationIlluminant1>
  <CalibrationIlluminant2>21</CalibrationIlluminant2>
  <ColorMatrix1 Rows="3" Cols="3">
    <Element Row="2" Col="2">0.586400</Element>
    <Element Row="2" Col="1">0.097400</Element>
    <Element Row="2" Col="0">-0.031200</Element>
    <Element Row="1" Col="2">0.345200</Element>
    <Element Row="1" Col="1">0.999300</Element>
    <Element Row="1" Col="0">-0.294600</Element>
    <Element Row="0" Col="2">0.039300</Element>
    <Element Row="0" Col="1">-0.228300</Element>
    <Element Row="0" Col="0">0.672100</Element>
  </ColorMatrix1>
  <ColorMatrix2 Rows="3" Cols="3">
    <Element Row="2" Col="2">0.513000</Element>
    <Element Row="2" Col="1">0.187500</Element>
    <Element Row="2" Col="0">-0.096200</Element>
    <Element Row="1" Col="2">0.258600</Element>
    <Element Row="1" Col="1">1.140700</Element>
    <Element Row="1" Col="0">-0.367200</Element>
    <Element Row="0" Col="2">-0.049100</Element>
    <Element Row="0" Col="1">-0.175200</Element>
    <Element Row="0" Col="0">0.655900</Element>
  </ColorMatrix2>
  <ForwardMatrix1 Rows="0" Cols="0"/>
  <ForwardMatrix2 Rows="0" Cols="0"/>
  <ReductionMatrix1 Rows="0" Cols="0"/>
  <ReductionMatrix2 Rows="0" Cols="0"/>
  <EmbedPolicy>3</EmbedPolicy>
  <UniqueCameraModelRestriction>Panasonic DMC-GH3</UniqueCameraModelRestriction>
  <Copyright>CC-BY-SA 3.0, rawstudio.org</Copyright>
</dcpData>
