trunk/profiles/simple-src/Panasonic_LX5-simple.xml
<?xml version="1.0" encoding="UTF-8"?>
<!--
     License: CC-BY-SA 3.0

     This work is licensed under a 
     Creative Commons Attribution-ShareAlike 3.0 Unported License.

     See more at:
     http://creativecommons.org/licenses/by-sa/3.0/
-->
<dcpData>
  <ProfileName>Panasonic DMC-LX5 Simple</ProfileName>
  <CalibrationIlluminant1>17</CalibrationIlluminant1>
  <CalibrationIlluminant2>21</CalibrationIlluminant2>
  <ColorMatrix1 Rows="3" Cols="3">
    <Element Row="2" Col="2">0.544000</Element>
    <Element Row="2" Col="1">0.075100</Element>
    <Element Row="2" Col="0">0.064000</Element>
    <Element Row="1" Col="2">0.313600</Element>
    <Element Row="1" Col="1">0.786100</Element>
    <Element Row="1" Col="0">-0.046500</Element>
    <Element Row="0" Col="2">0.003000</Element>
    <Element Row="0" Col="1">-0.608800</Element>
    <Element Row="0" Col="0">1.203400</Element>
  </ColorMatrix1>
  <ColorMatrix2 Rows="3" Cols="3">
    <Element Row="2" Col="2">0.458200</Element>
    <Element Row="2" Col="1">0.173800</Element>
    <Element Row="2" Col="0">0.002200</Element>
    <Element Row="1" Col="2">0.239900</Element>
    <Element Row="1" Col="1">0.930600</Element>
    <Element Row="1" Col="0">-0.133300</Element>
    <Element Row="0" Col="2">-0.094800</Element>
    <Element Row="0" Col="1">-0.429500</Element>
    <Element Row="0" Col="0">1.090900</Element>
  </ColorMatrix2>
  <ForwardMatrix1 Rows="0" Cols="0"/>
  <ForwardMatrix2 Rows="0" Cols="0"/>
  <ReductionMatrix1 Rows="0" Cols="0"/>
  <ReductionMatrix2 Rows="0" Cols="0"/>
  <EmbedPolicy>3</EmbedPolicy>
  <UniqueCameraModelRestriction>Panasonic DMC-LX5</UniqueCameraModelRestriction>
  <Copyright>CC-BY-SA 3.0, rawstudio.org</Copyright>
</dcpData>
