trunk/profiles/simple-src/PENTAX_istDS-simple.xml
<?xml version="1.0" encoding="UTF-8"?>
<!--
     License: CC-BY-SA 3.0

     This work is licensed under a 
     Creative Commons Attribution-ShareAlike 3.0 Unported License.

     See more at:
     http://creativecommons.org/licenses/by-sa/3.0/
-->
<dcpData>
  <ProfileName>PENTAX istDS Simple</ProfileName>
  <CalibrationIlluminant1>17</CalibrationIlluminant1>
  <CalibrationIlluminant2>21</CalibrationIlluminant2>
  <ColorMatrix1 Rows="3" Cols="3">
    <Element Row="2" Col="2">0.847800</Element>
    <Element Row="2" Col="1">0.091100</Element>
    <Element Row="2" Col="0">-0.072300</Element>
    <Element Row="1" Col="2">0.223300</Element>
    <Element Row="1" Col="1">1.526000</Element>
    <Element Row="1" Col="0">-0.736500</Element>
    <Element Row="0" Col="2">-0.052900</Element>
    <Element Row="0" Col="1">-0.622300</Element>
    <Element Row="0" Col="0">1.649200</Element>
  </ColorMatrix1>
  <ColorMatrix2 Rows="3" Cols="3">
    <Element Row="2" Col="2">1.128200</Element>
    <Element Row="2" Col="1">0.111600</Element>
    <Element Row="2" Col="0">-0.123000</Element>
    <Element Row="1" Col="2">0.260200</Element>
    <Element Row="1" Col="1">1.623200</Element>
    <Element Row="1" Col="0">-0.868800</Element>
    <Element Row="0" Col="2">-0.120600</Element>
    <Element Row="0" Col="1">-0.233300</Element>
    <Element Row="0" Col="0">1.037100</Element>
  </ColorMatrix2>
  <ForwardMatrix1 Rows="0" Cols="0"/>
  <ForwardMatrix2 Rows="0" Cols="0"/>
  <ReductionMatrix1 Rows="0" Cols="0"/>
  <ReductionMatrix2 Rows="0" Cols="0"/>
  <EmbedPolicy>3</EmbedPolicy>
  <UniqueCameraModelRestriction>Pentax *istDS</UniqueCameraModelRestriction>
  <Copyright>CC-BY-SA 3.0, rawstudio.org</Copyright>
</dcpData>
