trunk/profiles/simple-src/PENTAX_645D-simple.xml
<?xml version="1.0" encoding="UTF-8"?>
<!--
     License: CC-BY-SA 3.0

     This work is licensed under a 
     Creative Commons Attribution-ShareAlike 3.0 Unported License.

     See more at:
     http://creativecommons.org/licenses/by-sa/3.0/
-->
<dcpData>
  <ProfileName>PENTAX 645D Simple</ProfileName>
  <CalibrationIlluminant1>17</CalibrationIlluminant1>
  <CalibrationIlluminant2>21</CalibrationIlluminant2>
  <ColorMatrix1 Rows="3" Cols="3">
    <Element Row="2" Col="2">0.735300</Element>
    <Element Row="2" Col="1">0.199800</Element>
    <Element Row="2" Col="0">-0.026700</Element>
    <Element Row="1" Col="2">0.220300</Element>
    <Element Row="1" Col="1">1.112000</Element>
    <Element Row="1" Col="0">-0.304700</Element>
    <Element Row="0" Col="2">-0.052100</Element>
    <Element Row="0" Col="1">-0.460300</Element>
    <Element Row="0" Col="0">1.112500</Element>
  </ColorMatrix1>
  <ColorMatrix2 Rows="3" Cols="3">
    <Element Row="2" Col="2">0.628700</Element>
    <Element Row="2" Col="1">0.287400</Element>
    <Element Row="2" Col="0">-0.066700</Element>
    <Element Row="1" Col="2">0.183100</Element>
    <Element Row="1" Col="1">1.169900</Element>
    <Element Row="1" Col="0">-0.332900</Element>
    <Element Row="0" Col="2">-0.115800</Element>
    <Element Row="0" Col="1">-0.359300</Element>
    <Element Row="0" Col="0">1.064600</Element>
  </ColorMatrix2>
  <ForwardMatrix1 Rows="0" Cols="0"/>
  <ForwardMatrix2 Rows="0" Cols="0"/>
  <ReductionMatrix1 Rows="0" Cols="0"/>
  <ReductionMatrix2 Rows="0" Cols="0"/>
  <EmbedPolicy>3</EmbedPolicy>
  <UniqueCameraModelRestriction>PENTAX 645D</UniqueCameraModelRestriction>
  <Copyright>CC-BY-SA 3.0, rawstudio.org</Copyright>
</dcpData>
