trunk/profiles/simple-src/PENTAX_Q10-simple.xml
<?xml version="1.0" encoding="UTF-8"?>
<!--
     License: CC-BY-SA 3.0

     This work is licensed under a 
     Creative Commons Attribution-ShareAlike 3.0 Unported License.

     See more at:
     http://creativecommons.org/licenses/by-sa/3.0/
-->
<dcpData>
  <ProfileName>PENTAX Q10 Simple</ProfileName>
  <CalibrationIlluminant1>17</CalibrationIlluminant1>
  <CalibrationIlluminant2>21</CalibrationIlluminant2>
  <ColorMatrix1 Rows="3" Cols="3">
    <Element Row="2" Col="2">0.542300</Element>
    <Element Row="2" Col="1">0.086400</Element>
    <Element Row="2" Col="0">0.004800</Element>
    <Element Row="1" Col="2">0.289200</Element>
    <Element Row="1" Col="1">0.900400</Element>
    <Element Row="1" Col="0">-0.144200</Element>
    <Element Row="0" Col="2">0.026700</Element>
    <Element Row="0" Col="1">-0.575100</Element>
    <Element Row="0" Col="0">1.246000</Element>
  </ColorMatrix1>
  <ColorMatrix2 Rows="3" Cols="3">
    <Element Row="2" Col="2">0.511200</Element>
    <Element Row="2" Col="1">0.172600</Element>
    <Element Row="2" Col="0">-0.058200</Element>
    <Element Row="1" Col="2">0.164100</Element>
    <Element Row="1" Col="1">1.091900</Element>
    <Element Row="1" Col="0">-0.235700</Element>
    <Element Row="0" Col="2">-0.117200</Element>
    <Element Row="0" Col="1">-0.418300</Element>
    <Element Row="0" Col="0">1.156200</Element>
  </ColorMatrix2>
  <ForwardMatrix1 Rows="0" Cols="0"/>
  <ForwardMatrix2 Rows="0" Cols="0"/>
  <ReductionMatrix1 Rows="0" Cols="0"/>
  <ReductionMatrix2 Rows="0" Cols="0"/>
  <EmbedPolicy>3</EmbedPolicy>
  <UniqueCameraModelRestriction>PENTAX Q10</UniqueCameraModelRestriction>
  <Copyright>CC-BY-SA 3.0, rawstudio.org</Copyright>
</dcpData>
