trunk/profiles/simple-src/PENTAX_K-3-simple.xml
<?xml version="1.0" encoding="UTF-8"?>
<!--
     License: CC-BY-SA 3.0

     This work is licensed under a
     Creative Commons Attribution-ShareAlike 3.0 Unported License.

     See more at:
     http://creativecommons.org/licenses/by-sa/3.0/
-->

<dcpData>
  <ProfileName>PENTAX K-3 Simple</ProfileName>
  <CalibrationIlluminant1>17</CalibrationIlluminant1>
  <CalibrationIlluminant2>21</CalibrationIlluminant2>
  <ColorMatrix1 Rows="3" Cols="3">
    <Element Row="2" Col="2">0.695400</Element>
    <Element Row="2" Col="1">0.145600</Element>
    <Element Row="2" Col="0">-0.065000</Element>
    <Element Row="1" Col="2">0.330400</Element>
    <Element Row="1" Col="1">1.107200</Element>
    <Element Row="1" Col="0">-0.393900</Element>
    <Element Row="0" Col="2">0.019200</Element>
    <Element Row="0" Col="1">-0.250300</Element>
    <Element Row="0" Col="0">0.756300</Element>
  </ColorMatrix1>
  <ColorMatrix2 Rows="3" Cols="3">
    <Element Row="2" Col="2">0.677300</Element>
    <Element Row="2" Col="1">0.215700</Element>
    <Element Row="2" Col="0">-0.144600</Element>
    <Element Row="1" Col="2">0.268200</Element>
    <Element Row="1" Col="1">1.278800</Element>
    <Element Row="1" Col="0">-0.518600</Element>
    <Element Row="0" Col="2">-0.072100</Element>
    <Element Row="0" Col="1">-0.205200</Element>
    <Element Row="0" Col="0">0.741500</Element>
  </ColorMatrix2>
  <ForwardMatrix1 Rows="3" Cols="3">
    <Element Row="2" Col="2">0.621900</Element>
    <Element Row="2" Col="1">0.001600</Element>
    <Element Row="2" Col="0">0.201700</Element>
    <Element Row="1" Col="2">0.045400</Element>
    <Element Row="1" Col="1">0.638800</Element>
    <Element Row="1" Col="0">0.315800</Element>
    <Element Row="0" Col="2">0.138200</Element>
    <Element Row="0" Col="1">0.293600</Element>
    <Element Row="0" Col="0">0.532500</Element>
  </ForwardMatrix1>
  <ForwardMatrix2 Rows="3" Cols="3">
    <Element Row="2" Col="2">0.662900</Element>
    <Element Row="2" Col="1">0.003700</Element>
    <Element Row="2" Col="0">0.158500</Element>
    <Element Row="1" Col="2">0.057800</Element>
    <Element Row="1" Col="1">0.639700</Element>
    <Element Row="1" Col="0">0.302500</Element>
    <Element Row="0" Col="2">0.182600</Element>
    <Element Row="0" Col="1">0.273700</Element>
    <Element Row="0" Col="0">0.508000</Element>
  </ForwardMatrix2>
  <EmbedPolicy>3</EmbedPolicy>
  <UniqueCameraModelRestriction>PENTAX K-3</UniqueCameraModelRestriction>
  <Copyright>CC-BY-SA 3.0, rawstudio.org</Copyright>
</dcpData>