trunk/profiles/simple-src/PENTAX_Q7-simple.xml
<?xml version="1.0" encoding="UTF-8"?>
<!--
     License: CC-BY-SA 3.0

     This work is licensed under a
     Creative Commons Attribution-ShareAlike 3.0 Unported License.

     See more at:
     http://creativecommons.org/licenses/by-sa/3.0/
-->

<dcpData>
  <ProfileName>PENTAX Q7 Simple</ProfileName>
  <CalibrationIlluminant1>17</CalibrationIlluminant1>
  <CalibrationIlluminant2>21</CalibrationIlluminant2>
  <ColorMatrix1 Rows="3" Cols="3">
    <Element Row="2" Col="2">0.597800</Element>
    <Element Row="2" Col="1">0.086800</Element>
    <Element Row="2" Col="0">-0.002700</Element>
    <Element Row="1" Col="2">0.261600</Element>
    <Element Row="1" Col="1">0.947100</Element>
    <Element Row="1" Col="0">-0.169000</Element>
    <Element Row="0" Col="2">0.062900</Element>
    <Element Row="0" Col="1">-0.619400</Element>
    <Element Row="0" Col="0">1.260800</Element>
  </ColorMatrix1>
  <ColorMatrix2 Rows="3" Cols="3">
    <Element Row="2" Col="2">0.534400</Element>
    <Element Row="2" Col="1">0.180500</Element>
    <Element Row="2" Col="0">-0.082300</Element>
    <Element Row="1" Col="2">0.173800</Element>
    <Element Row="1" Col="1">1.121000</Element>
    <Element Row="1" Col="0">-0.274300</Element>
    <Element Row="0" Col="2">-0.102500</Element>
    <Element Row="0" Col="1">-0.393800</Element>
    <Element Row="0" Col="0">1.090100</Element>
  </ColorMatrix2>
  <ForwardMatrix1 Rows="3" Cols="3">
    <Element Row="2" Col="2">0.825100</Element>
    <Element Row="2" Col="1">0.000000</Element>
    <Element Row="2" Col="0">0.000000</Element>
    <Element Row="1" Col="2">0.000100</Element>
    <Element Row="1" Col="1">0.711900</Element>
    <Element Row="1" Col="0">0.288000</Element>
    <Element Row="0" Col="2">0.031300</Element>
    <Element Row="0" Col="1">0.135200</Element>
    <Element Row="0" Col="0">0.797800</Element>
  </ForwardMatrix1>
  <ForwardMatrix2 Rows="3" Cols="3">
    <Element Row="2" Col="2">0.825100</Element>
    <Element Row="2" Col="1">0.000000</Element>
    <Element Row="2" Col="0">0.000000</Element>
    <Element Row="1" Col="2">0.000100</Element>
    <Element Row="1" Col="1">0.711900</Element>
    <Element Row="1" Col="0">0.288000</Element>
    <Element Row="0" Col="2">0.031300</Element>
    <Element Row="0" Col="1">0.135200</Element>
    <Element Row="0" Col="0">0.797800</Element>
  </ForwardMatrix2>
  <EmbedPolicy>3</EmbedPolicy>
  <UniqueCameraModelRestriction>PENTAX Q7</UniqueCameraModelRestriction>
  <Copyright>CC-BY-SA 3.0, rawstudio.org</Copyright>
</dcpData>