trunk/profiles/simple-src/PENTAX_istD-simple.xml
<?xml version="1.0" encoding="UTF-8"?>
<!--
     License: CC-BY-SA 3.0

     This work is licensed under a 
     Creative Commons Attribution-ShareAlike 3.0 Unported License.

     See more at:
     http://creativecommons.org/licenses/by-sa/3.0/
-->
<dcpData>
  <ProfileName>PENTAX istD Simple</ProfileName>
  <CalibrationIlluminant1>17</CalibrationIlluminant1>
  <CalibrationIlluminant2>21</CalibrationIlluminant2>
  <ColorMatrix1 Rows="3" Cols="3">
    <Element Row="2" Col="2">1.073300</Element>
    <Element Row="2" Col="1">0.079400</Element>
    <Element Row="2" Col="0">-0.072400</Element>
    <Element Row="1" Col="2">0.289900</Element>
    <Element Row="1" Col="1">1.496200</Element>
    <Element Row="1" Col="0">-0.762600</Element>
    <Element Row="0" Col="2">-0.065200</Element>
    <Element Row="0" Col="1">-0.303300</Element>
    <Element Row="0" Col="0">1.064200</Element>
  </ColorMatrix1>
  <ColorMatrix2 Rows="3" Cols="3">
    <Element Row="2" Col="2">1.068700</Element>
    <Element Row="2" Col="1">0.134500</Element>
    <Element Row="2" Col="0">-0.146000</Element>
    <Element Row="1" Col="2">0.248700</Element>
    <Element Row="1" Col="1">1.651200</Element>
    <Element Row="1" Col="0">-0.888100</Element>
    <Element Row="0" Col="2">-0.118900</Element>
    <Element Row="0" Col="1">-0.205800</Element>
    <Element Row="0" Col="0">0.965200</Element>
  </ColorMatrix2>
  <ForwardMatrix1 Rows="0" Cols="0"/>
  <ForwardMatrix2 Rows="0" Cols="0"/>
  <ReductionMatrix1 Rows="0" Cols="0"/>
  <ReductionMatrix2 Rows="0" Cols="0"/>
  <EmbedPolicy>3</EmbedPolicy>
  <UniqueCameraModelRestriction>Pentax *istD</UniqueCameraModelRestriction>
  <Copyright>CC-BY-SA 3.0, rawstudio.org</Copyright>
</dcpData>
