trunk/profiles/simple-src/RICOH_GR_A12_50mm_F2.5_MACRO-simple.xml
<?xml version="1.0" encoding="UTF-8"?>
<!--
     License: CC-BY-SA 3.0

     This work is licensed under a
     Creative Commons Attribution-ShareAlike 3.0 Unported License.

     See more at:
     http://creativecommons.org/licenses/by-sa/3.0/
-->

<dcpData>
  <ProfileName>RICOH GR A12 50mm F2.5 MACRO Simple</ProfileName>
  <CalibrationIlluminant1>17</CalibrationIlluminant1>
  <CalibrationIlluminant2>21</CalibrationIlluminant2>
  <ColorMatrix1 Rows="3" Cols="3">
    <Element Row="2" Col="2">0.798100</Element>
    <Element Row="2" Col="1">0.055900</Element>
    <Element Row="2" Col="0">-0.006200</Element>
    <Element Row="1" Col="2">0.266000</Element>
    <Element Row="1" Col="1">1.176600</Element>
    <Element Row="1" Col="0">-0.410800</Element>
    <Element Row="0" Col="2">0.048300</Element>
    <Element Row="0" Col="1">-0.844100</Element>
    <Element Row="0" Col="0">1.398000</Element>
  </ColorMatrix1>
  <ColorMatrix2 Rows="3" Cols="3">
    <Element Row="2" Col="2">0.710400</Element>
    <Element Row="2" Col="1">0.128000</Element>
    <Element Row="2" Col="0">-0.050700</Element>
    <Element Row="1" Col="2">0.252000</Element>
    <Element Row="1" Col="1">1.283100</Element>
    <Element Row="1" Col="0">-0.509200</Element>
    <Element Row="0" Col="2">-0.068900</Element>
    <Element Row="0" Col="1">-0.256000</Element>
    <Element Row="0" Col="0">0.884900</Element>
  </ColorMatrix2>
  <ForwardMatrix1 Rows="3" Cols="3">
    <Element Row="2" Col="2">1.027400</Element>
    <Element Row="2" Col="1">-0.189300</Element>
    <Element Row="2" Col="0">-0.013000</Element>
    <Element Row="1" Col="2">-0.093700</Element>
    <Element Row="1" Col="1">0.918100</Element>
    <Element Row="1" Col="0">0.175600</Element>
    <Element Row="0" Col="2">0.040000</Element>
    <Element Row="0" Col="1">0.381900</Element>
    <Element Row="0" Col="0">0.542400</Element>
  </ForwardMatrix1>
  <ForwardMatrix2 Rows="3" Cols="3">
    <Element Row="2" Col="2">0.932700</Element>
    <Element Row="2" Col="1">-0.105400</Element>
    <Element Row="2" Col="0">-0.002200</Element>
    <Element Row="1" Col="2">-0.250900</Element>
    <Element Row="1" Col="1">0.975700</Element>
    <Element Row="1" Col="0">0.275200</Element>
    <Element Row="0" Col="2">-0.036700</Element>
    <Element Row="0" Col="1">0.312800</Element>
    <Element Row="0" Col="0">0.688200</Element>
  </ForwardMatrix2>
  <EmbedPolicy>3</EmbedPolicy>
  <UniqueCameraModelRestriction>RICOH GR A12 50mm F2.5 MACRO</UniqueCameraModelRestriction>
  <Copyright>CC-BY-SA 3.0, rawstudio.org</Copyright>
</dcpData>