trunk/profiles/simple-src/Ricoh_Digital_3-simple.xml
<?xml version="1.0" encoding="UTF-8"?>
<!--
     License: CC-BY-SA 3.0

     This work is licensed under a 
     Creative Commons Attribution-ShareAlike 3.0 Unported License.

     See more at:
     http://creativecommons.org/licenses/by-sa/3.0/
-->
<dcpData>
  <ProfileName>Ricoh Digital 3 Simple</ProfileName>
  <CalibrationIlluminant1>17</CalibrationIlluminant1>
  <CalibrationIlluminant2>21</CalibrationIlluminant2>
  <ColorMatrix1 Rows="3" Cols="3">
    <Element Row="2" Col="2">0.531900</Element>
    <Element Row="2" Col="1">0.121900</Element>
    <Element Row="2" Col="0">-0.064000</Element>
    <Element Row="1" Col="2">0.266600</Element>
    <Element Row="1" Col="1">1.154900</Element>
    <Element Row="1" Col="0">-0.388700</Element>
    <Element Row="0" Col="2">0.045300</Element>
    <Element Row="0" Col="1">-0.465000</Element>
    <Element Row="0" Col="0">1.027200</Element>
  </ColorMatrix1>
  <ColorMatrix2 Rows="3" Cols="3">
    <Element Row="2" Col="2">0.526500</Element>
    <Element Row="2" Col="1">0.185900</Element>
    <Element Row="2" Col="0">-0.136700</Element>
    <Element Row="1" Col="2">0.231200</Element>
    <Element Row="1" Col="1">1.305600</Element>
    <Element Row="1" Col="0">-0.514700</Element>
    <Element Row="0" Col="2">-0.065500</Element>
    <Element Row="0" Col="1">-0.249600</Element>
    <Element Row="0" Col="0">0.817000</Element>
  </ColorMatrix2>
  <ForwardMatrix1 Rows="0" Cols="0"/>
  <ForwardMatrix2 Rows="0" Cols="0"/>
  <ReductionMatrix1 Rows="0" Cols="0"/>
  <ReductionMatrix2 Rows="0" Cols="0"/>
  <EmbedPolicy>3</EmbedPolicy>
  <UniqueCameraModelRestriction>Ricoh GR DIGITAL 3</UniqueCameraModelRestriction>
  <Copyright>CC-BY-SA 3.0, rawstudio.org</Copyright>
</dcpData>
