trunk/profiles/simple-src/Ricoh_GR_DIGITAL_4-simple.xml
<?xml version="1.0" encoding="UTF-8"?>
<!--
     License: CC-BY-SA 3.0

     This work is licensed under a
     Creative Commons Attribution-ShareAlike 3.0 Unported License.

     See more at:
     http://creativecommons.org/licenses/by-sa/3.0/
-->

<dcpData>
  <ProfileName>Ricoh GR DIGITAL 4 Simple</ProfileName>
  <CalibrationIlluminant1>17</CalibrationIlluminant1>
  <CalibrationIlluminant2>21</CalibrationIlluminant2>
  <ColorMatrix1 Rows="3" Cols="3">
    <Element Row="2" Col="2">0.528400</Element>
    <Element Row="2" Col="1">0.054100</Element>
    <Element Row="2" Col="0">-0.011500</Element>
    <Element Row="1" Col="2">0.324900</Element>
    <Element Row="1" Col="1">0.971000</Element>
    <Element Row="1" Col="0">-0.248000</Element>
    <Element Row="0" Col="2">0.029300</Element>
    <Element Row="0" Col="1">-0.403100</Element>
    <Element Row="0" Col="0">0.916700</Element>
  </ColorMatrix1>
  <ColorMatrix2 Rows="3" Cols="3">
    <Element Row="2" Col="2">0.492400</Element>
    <Element Row="2" Col="1">0.134300</Element>
    <Element Row="2" Col="0">-0.070300</Element>
    <Element Row="1" Col="2">0.238900</Element>
    <Element Row="1" Col="1">1.101500</Element>
    <Element Row="1" Col="0">-0.309700</Element>
    <Element Row="0" Col="2">-0.083700</Element>
    <Element Row="0" Col="1">-0.315100</Element>
    <Element Row="0" Col="0">0.877100</Element>
  </ColorMatrix2>
  <ForwardMatrix1 Rows="3" Cols="3">
    <Element Row="2" Col="2">1.104600</Element>
    <Element Row="2" Col="1">-0.294300</Element>
    <Element Row="2" Col="0">0.014800</Element>
    <Element Row="1" Col="2">-0.133100</Element>
    <Element Row="1" Col="1">1.005800</Element>
    <Element Row="1" Col="0">0.127300</Element>
    <Element Row="0" Col="2">0.058400</Element>
    <Element Row="0" Col="1">0.265600</Element>
    <Element Row="0" Col="0">0.640300</Element>
  </ForwardMatrix1>
  <ForwardMatrix2 Rows="3" Cols="3">
    <Element Row="2" Col="2">0.978600</Element>
    <Element Row="2" Col="1">-0.179300</Element>
    <Element Row="2" Col="0">0.025700</Element>
    <Element Row="1" Col="2">-0.293000</Element>
    <Element Row="1" Col="1">1.134800</Element>
    <Element Row="1" Col="0">0.158100</Element>
    <Element Row="0" Col="2">-0.045500</Element>
    <Element Row="0" Col="1">0.443100</Element>
    <Element Row="0" Col="0">0.566700</Element>
  </ForwardMatrix2>
  <EmbedPolicy>3</EmbedPolicy>
  <UniqueCameraModelRestriction>Ricoh GR DIGITAL 4</UniqueCameraModelRestriction>
  <Copyright>CC-BY-SA 3.0, rawstudio.org</Copyright>
</dcpData>