trunk/profiles/simple-src/Ricoh_GR_DIGITAL_3-simple.xml
<?xml version="1.0" encoding="UTF-8"?>
<!--
     License: CC-BY-SA 3.0

     This work is licensed under a
     Creative Commons Attribution-ShareAlike 3.0 Unported License.

     See more at:
     http://creativecommons.org/licenses/by-sa/3.0/
-->

<dcpData>
  <ProfileName>Ricoh GR DIGITAL 3 Simple</ProfileName>
  <CalibrationIlluminant1>17</CalibrationIlluminant1>
  <CalibrationIlluminant2>21</CalibrationIlluminant2>
  <ColorMatrix1 Rows="3" Cols="3">
    <Element Row="2" Col="2">0.531900</Element>
    <Element Row="2" Col="1">0.121900</Element>
    <Element Row="2" Col="0">-0.064000</Element>
    <Element Row="1" Col="2">0.266600</Element>
    <Element Row="1" Col="1">1.154900</Element>
    <Element Row="1" Col="0">-0.388700</Element>
    <Element Row="0" Col="2">0.045300</Element>
    <Element Row="0" Col="1">-0.465000</Element>
    <Element Row="0" Col="0">1.027200</Element>
  </ColorMatrix1>
  <ColorMatrix2 Rows="3" Cols="3">
    <Element Row="2" Col="2">0.526500</Element>
    <Element Row="2" Col="1">0.185900</Element>
    <Element Row="2" Col="0">-0.136700</Element>
    <Element Row="1" Col="2">0.231200</Element>
    <Element Row="1" Col="1">1.305600</Element>
    <Element Row="1" Col="0">-0.514700</Element>
    <Element Row="0" Col="2">-0.065500</Element>
    <Element Row="0" Col="1">-0.249600</Element>
    <Element Row="0" Col="0">0.817000</Element>
  </ColorMatrix2>
  <ForwardMatrix1 Rows="3" Cols="3">
    <Element Row="2" Col="2">1.143000</Element>
    <Element Row="2" Col="1">-0.421500</Element>
    <Element Row="2" Col="0">0.103600</Element>
    <Element Row="1" Col="2">-0.070800</Element>
    <Element Row="1" Col="1">0.749900</Element>
    <Element Row="1" Col="0">0.320900</Element>
    <Element Row="0" Col="2">0.066800</Element>
    <Element Row="0" Col="1">0.207200</Element>
    <Element Row="0" Col="0">0.690300</Element>
  </ForwardMatrix1>
  <ForwardMatrix2 Rows="3" Cols="3">
    <Element Row="2" Col="2">0.956900</Element>
    <Element Row="2" Col="1">-0.192200</Element>
    <Element Row="2" Col="0">0.060400</Element>
    <Element Row="1" Col="2">-0.190600</Element>
    <Element Row="1" Col="1">0.824100</Element>
    <Element Row="1" Col="0">0.366500</Element>
    <Element Row="0" Col="2">-0.021900</Element>
    <Element Row="0" Col="1">0.296000</Element>
    <Element Row="0" Col="0">0.690100</Element>
  </ForwardMatrix2>
  <EmbedPolicy>3</EmbedPolicy>
  <UniqueCameraModelRestriction>Ricoh GR DIGITAL 3</UniqueCameraModelRestriction>
  <Copyright>CC-BY-SA 3.0, rawstudio.org</Copyright>
</dcpData>