trunk/profiles/simple-src/SAMSUNG_GX10-simple.xml
<?xml version="1.0" encoding="UTF-8"?>
<!--
     License: CC-BY-SA 3.0

     This work is licensed under a 
     Creative Commons Attribution-ShareAlike 3.0 Unported License.

     See more at:
     http://creativecommons.org/licenses/by-sa/3.0/
-->
<dcpData>
  <ProfileName>SAMSUNG GX10 Simple</ProfileName>
  <CalibrationIlluminant1>17</CalibrationIlluminant1>
  <CalibrationIlluminant2>21</CalibrationIlluminant2>
  <ColorMatrix1 Rows="3" Cols="3">
    <Element Row="2" Col="2">0.962500</Element>
    <Element Row="2" Col="1">0.065400</Element>
    <Element Row="2" Col="0">-0.057900</Element>
    <Element Row="1" Col="2">0.258700</Element>
    <Element Row="1" Col="1">1.503400</Element>
    <Element Row="1" Col="0">-0.743400</Element>
    <Element Row="0" Col="2">0.005300</Element>
    <Element Row="0" Col="1">-0.457500</Element>
    <Element Row="0" Col="0">1.126500</Element>
  </ColorMatrix1>
  <ColorMatrix2 Rows="3" Cols="3">
    <Element Row="2" Col="2">0.979300</Element>
    <Element Row="2" Col="1">0.088300</Element>
    <Element Row="2" Col="0">-0.097500</Element>
    <Element Row="1" Col="2">0.218200</Element>
    <Element Row="1" Col="1">1.651400</Element>
    <Element Row="1" Col="0">-0.862200</Element>
    <Element Row="0" Col="2">-0.081100</Element>
    <Element Row="0" Col="1">-0.296500</Element>
    <Element Row="0" Col="0">0.967900</Element>
  </ColorMatrix2>
  <ForwardMatrix1 Rows="0" Cols="0"/>
  <ForwardMatrix2 Rows="0" Cols="0"/>
  <ReductionMatrix1 Rows="0" Cols="0"/>
  <ReductionMatrix2 Rows="0" Cols="0"/>
  <EmbedPolicy>3</EmbedPolicy>
  <UniqueCameraModelRestriction>Samsung GX10</UniqueCameraModelRestriction>
  <Copyright>CC-BY-SA 3.0, rawstudio.org</Copyright>
</dcpData>
