trunk/profiles/simple-src/SONY_NEX-5R-simple.xml
<?xml version="1.0" encoding="UTF-8"?>
<!--
     License: CC-BY-SA 3.0

     This work is licensed under a 
     Creative Commons Attribution-ShareAlike 3.0 Unported License.

     See more at:
     http://creativecommons.org/licenses/by-sa/3.0/
-->
<dcpData>
  <ProfileName>SONY NEX-5R Simple</ProfileName>
  <CalibrationIlluminant1>17</CalibrationIlluminant1>
  <CalibrationIlluminant2>21</CalibrationIlluminant2>
  <ColorMatrix1 Rows="3" Cols="3">
    <Element Row="2" Col="2">0.720600</Element>
    <Element Row="2" Col="1">0.098600</Element>
    <Element Row="2" Col="0">-0.045800</Element>
    <Element Row="1" Col="2">0.350200</Element>
    <Element Row="1" Col="1">1.115400</Element>
    <Element Row="1" Col="0">-0.419400</Element>
    <Element Row="0" Col="2">0.001000</Element>
    <Element Row="0" Col="1">-0.208200</Element>
    <Element Row="0" Col="0">0.644200</Element>
  </ColorMatrix1>
  <ColorMatrix2 Rows="3" Cols="3">
    <Element Row="2" Col="2">0.661500</Element>
    <Element Row="2" Col="1">0.169300</Element>
    <Element Row="2" Col="0">-0.097700</Element>
    <Element Row="1" Col="2">0.274300</Element>
    <Element Row="1" Col="1">1.249000</Element>
    <Element Row="1" Col="0">-0.493000</Element>
    <Element Row="0" Col="2">-0.041800</Element>
    <Element Row="0" Col="1">-0.154500</Element>
    <Element Row="0" Col="0">0.612900</Element>
  </ColorMatrix2>
  <ForwardMatrix1 Rows="0" Cols="0"/>
  <ForwardMatrix2 Rows="0" Cols="0"/>
  <ReductionMatrix1 Rows="0" Cols="0"/>
  <ReductionMatrix2 Rows="0" Cols="0"/>
  <EmbedPolicy>3</EmbedPolicy>
  <UniqueCameraModelRestriction>SONY NEX-5R</UniqueCameraModelRestriction>
  <Copyright>CC-BY-SA 3.0, rawstudio.org</Copyright>
</dcpData>
