trunk/profiles/simple-src/SONY_NEX-3-simple.xml
<?xml version="1.0" encoding="UTF-8"?>
<!--
     License: CC-BY-SA 3.0

     This work is licensed under a 
     Creative Commons Attribution-ShareAlike 3.0 Unported License.

     See more at:
     http://creativecommons.org/licenses/by-sa/3.0/
-->
<dcpData>
  <ProfileName>SONY NEX-3 Simple</ProfileName>
  <CalibrationIlluminant1>17</CalibrationIlluminant1>
  <CalibrationIlluminant2>21</CalibrationIlluminant2>
  <ColorMatrix1 Rows="3" Cols="3">
    <Element Row="2" Col="2">0.743100</Element>
    <Element Row="2" Col="1">0.130700</Element>
    <Element Row="2" Col="0">-0.052700</Element>
    <Element Row="1" Col="2">0.320200</Element>
    <Element Row="1" Col="1">1.150700</Element>
    <Element Row="1" Col="0">-0.430300</Element>
    <Element Row="0" Col="2">-0.017200</Element>
    <Element Row="0" Col="1">-0.193400</Element>
    <Element Row="0" Col="0">0.671000</Element>
  </ColorMatrix1>
  <ColorMatrix2 Rows="3" Cols="3">
    <Element Row="2" Col="2">0.697600</Element>
    <Element Row="2" Col="1">0.186800</Element>
    <Element Row="2" Col="0">-0.085400</Element>
    <Element Row="1" Col="2">0.275300</Element>
    <Element Row="1" Col="1">1.243500</Element>
    <Element Row="1" Col="0">-0.488000</Element>
    <Element Row="0" Col="2">-0.043600</Element>
    <Element Row="0" Col="1">-0.155000</Element>
    <Element Row="0" Col="0">0.654900</Element>
  </ColorMatrix2>
  <ForwardMatrix1 Rows="0" Cols="0"/>
  <ForwardMatrix2 Rows="0" Cols="0"/>
  <ReductionMatrix1 Rows="0" Cols="0"/>
  <ReductionMatrix2 Rows="0" Cols="0"/>
  <EmbedPolicy>3</EmbedPolicy>
  <UniqueCameraModelRestriction>SONY NEX-3</UniqueCameraModelRestriction>
  <Copyright>CC-BY-SA 3.0, rawstudio.org</Copyright>
</dcpData>
