trunk/profiles/simple-src/SONY_SLTA33-simple.xml
<?xml version="1.0" encoding="UTF-8"?>
<!--
     License: CC-BY-SA 3.0

     This work is licensed under a 
     Creative Commons Attribution-ShareAlike 3.0 Unported License.

     See more at:
     http://creativecommons.org/licenses/by-sa/3.0/
-->
<dcpData>
  <ProfileName>SONY SLT-A33 Simple</ProfileName>
  <CalibrationIlluminant1>17</CalibrationIlluminant1>
  <CalibrationIlluminant2>21</CalibrationIlluminant2>
  <ColorMatrix1 Rows="3" Cols="3">
    <Element Row="2" Col="2">0.740300</Element>
    <Element Row="2" Col="1">0.144600</Element>
    <Element Row="2" Col="0">-0.065200</Element>
    <Element Row="1" Col="2">0.326500</Element>
    <Element Row="1" Col="1">1.172700</Element>
    <Element Row="1" Col="0">-0.458500</Element>
    <Element Row="0" Col="2">-0.012800</Element>
    <Element Row="0" Col="1">-0.139300</Element>
    <Element Row="0" Col="0">0.598800</Element>
  </ColorMatrix1>
  <ColorMatrix2 Rows="3" Cols="3">
    <Element Row="2" Col="2">0.683400</Element>
    <Element Row="2" Col="1">0.206600</Element>
    <Element Row="2" Col="0">-0.102400</Element>
    <Element Row="1" Col="2">0.273400</Element>
    <Element Row="1" Col="1">1.277900</Element>
    <Element Row="1" Col="0">-0.522100</Element>
    <Element Row="0" Col="2">-0.036600</Element>
    <Element Row="0" Col="1">-0.122100</Element>
    <Element Row="0" Col="0">0.606900</Element>
  </ColorMatrix2>
  <ForwardMatrix1 Rows="0" Cols="0"/>
  <ForwardMatrix2 Rows="0" Cols="0"/>
  <ReductionMatrix1 Rows="0" Cols="0"/>
  <ReductionMatrix2 Rows="0" Cols="0"/>
  <EmbedPolicy>3</EmbedPolicy>
  <UniqueCameraModelRestriction>Sony SLT-A33</UniqueCameraModelRestriction>
  <Copyright>CC-BY-SA 3.0, rawstudio.org</Copyright>
</dcpData>
