trunk/profiles/simple-src/SONY_DSC-RX1-simple.xml
<?xml version="1.0" encoding="UTF-8"?>
<!--
     License: CC-BY-SA 3.0

     This work is licensed under a 
     Creative Commons Attribution-ShareAlike 3.0 Unported License.

     See more at:
     http://creativecommons.org/licenses/by-sa/3.0/
-->
<dcpData>
  <ProfileName>SONY DSC-RX1 Simple</ProfileName>
  <CalibrationIlluminant1>17</CalibrationIlluminant1>
  <CalibrationIlluminant2>21</CalibrationIlluminant2>
  <ColorMatrix1 Rows="3" Cols="3">
    <Element Row="2" Col="2">0.756700</Element>
    <Element Row="2" Col="1">0.115400</Element>
    <Element Row="2" Col="0">-0.045900</Element>
    <Element Row="1" Col="2">0.330800</Element>
    <Element Row="1" Col="1">1.149800</Element>
    <Element Row="1" Col="0">-0.438400</Element>
    <Element Row="0" Col="2">-0.014500</Element>
    <Element Row="0" Col="1">-0.208300</Element>
    <Element Row="0" Col="0">0.663700</Element>
  </ColorMatrix1>
  <ColorMatrix2 Rows="3" Cols="3">
    <Element Row="2" Col="2">0.689900</Element>
    <Element Row="2" Col="1">0.178600</Element>
    <Element Row="2" Col="0">-0.086500</Element>
    <Element Row="1" Col="2">0.268100</Element>
    <Element Row="1" Col="1">1.247700</Element>
    <Element Row="1" Col="0">-0.486300</Element>
    <Element Row="0" Col="2">-0.046200</Element>
    <Element Row="0" Col="1">-0.161200</Element>
    <Element Row="0" Col="0">0.634400</Element>
  </ColorMatrix2>
  <ForwardMatrix1 Rows="0" Cols="0"/>
  <ForwardMatrix2 Rows="0" Cols="0"/>
  <ReductionMatrix1 Rows="0" Cols="0"/>
  <ReductionMatrix2 Rows="0" Cols="0"/>
  <EmbedPolicy>3</EmbedPolicy>
  <UniqueCameraModelRestriction>SONY DSC-RX1</UniqueCameraModelRestriction>
  <Copyright>CC-BY-SA 3.0, rawstudio.org</Copyright>
</dcpData>
