trunk/profiles/simple-src/SONY_DSC-F828-simple.xml
<?xml version="1.0" encoding="UTF-8"?>
<!--
     License: CC-BY-SA 3.0

     This work is licensed under a 
     Creative Commons Attribution-ShareAlike 3.0 Unported License.

     See more at:
     http://creativecommons.org/licenses/by-sa/3.0/
-->
<dcpData>
  <ProfileName>SONY DSC-F828 Simple</ProfileName>
  <CalibrationIlluminant1>21</CalibrationIlluminant1>
  <CalibrationIlluminant2>0</CalibrationIlluminant2>
  <ColorMatrix1 Rows="4" Cols="3">
    <Element Row="3" Col="2">0.348100</Element>
    <Element Row="3" Col="1">1.140100</Element>
    <Element Row="3" Col="0">-0.724200</Element>
    <Element Row="2" Col="2">0.681800</Element>
    <Element Row="2" Col="1">0.219900</Element>
    <Element Row="2" Col="0">-0.151700</Element>
    <Element Row="1" Col="2">0.299800</Element>
    <Element Row="1" Col="1">1.545900</Element>
    <Element Row="1" Col="0">-0.822600</Element>
    <Element Row="0" Col="2">-0.077700</Element>
    <Element Row="0" Col="1">-0.191000</Element>
    <Element Row="0" Col="0">0.792400</Element>
  </ColorMatrix1>
  <ColorMatrix2 Rows="0" Cols="0"/>
  <ForwardMatrix1 Rows="0" Cols="0"/>
  <ForwardMatrix2 Rows="0" Cols="0"/>
  <ReductionMatrix1 Rows="0" Cols="0"/>
  <ReductionMatrix2 Rows="0" Cols="0"/>
  <EmbedPolicy>3</EmbedPolicy>
  <UniqueCameraModelRestriction>SONY DSC-F828</UniqueCameraModelRestriction>
  <Copyright>CC-BY-SA 3.0, rawstudio.org</Copyright>
</dcpData>
