trunk/profiles/simple-src/Sony_DSC-RX10-simple.xml
<?xml version="1.0" encoding="UTF-8"?>
<!--
     License: CC-BY-SA 3.0

     This work is licensed under a
     Creative Commons Attribution-ShareAlike 3.0 Unported License.

     See more at:
     http://creativecommons.org/licenses/by-sa/3.0/
-->

<dcpData>
  <ProfileName>Sony DSC-RX10 Simple</ProfileName>
  <CalibrationIlluminant1>17</CalibrationIlluminant1>
  <CalibrationIlluminant2>21</CalibrationIlluminant2>
  <ColorMatrix1 Rows="3" Cols="3">
    <Element Row="2" Col="2">0.538200</Element>
    <Element Row="2" Col="1">0.161100</Element>
    <Element Row="2" Col="0">-0.070000</Element>
    <Element Row="1" Col="2">0.268500</Element>
    <Element Row="1" Col="1">1.131500</Element>
    <Element Row="1" Col="0">-0.366100</Element>
    <Element Row="0" Col="2">-0.002500</Element>
    <Element Row="0" Col="1">-0.190300</Element>
    <Element Row="0" Col="0">0.648600</Element>
  </ColorMatrix1>
  <ColorMatrix2 Rows="3" Cols="3">
    <Element Row="2" Col="2">0.518300</Element>
    <Element Row="2" Col="1">0.242200</Element>
    <Element Row="2" Col="0">-0.158000</Element>
    <Element Row="1" Col="2">0.195300</Element>
    <Element Row="1" Col="1">1.325600</Element>
    <Element Row="1" Col="0">-0.504700</Element>
    <Element Row="0" Col="2">-0.074500</Element>
    <Element Row="0" Col="1">-0.182500</Element>
    <Element Row="0" Col="0">0.667900</Element>
  </ColorMatrix2>
  <ForwardMatrix1 Rows="3" Cols="3">
    <Element Row="2" Col="2">0.580600</Element>
    <Element Row="2" Col="1">0.000100</Element>
    <Element Row="2" Col="0">0.244300</Element>
    <Element Row="1" Col="2">0.035400</Element>
    <Element Row="1" Col="1">0.635400</Element>
    <Element Row="1" Col="0">0.329200</Element>
    <Element Row="0" Col="2">0.119000</Element>
    <Element Row="0" Col="1">0.314300</Element>
    <Element Row="0" Col="0">0.530900</Element>
  </ForwardMatrix1>
  <ForwardMatrix2 Rows="3" Cols="3">
    <Element Row="2" Col="2">0.681900</Element>
    <Element Row="2" Col="1">0.000700</Element>
    <Element Row="2" Col="0">0.142500</Element>
    <Element Row="1" Col="2">0.053900</Element>
    <Element Row="1" Col="1">0.683200</Element>
    <Element Row="1" Col="0">0.262900</Element>
    <Element Row="0" Col="2">0.167900</Element>
    <Element Row="0" Col="1">0.314500</Element>
    <Element Row="0" Col="0">0.481900</Element>
  </ForwardMatrix2>
  <EmbedPolicy>3</EmbedPolicy>
  <UniqueCameraModelRestriction>Sony DSC-RX10</UniqueCameraModelRestriction>
  <Copyright>CC-BY-SA 3.0, rawstudio.org</Copyright>
</dcpData>