trunk/profiles/simple-src/SONY_DSC-R100-simple.xml
<?xml version="1.0" encoding="UTF-8"?>
<!--
     License: CC-BY-SA 3.0

     This work is licensed under a 
     Creative Commons Attribution-ShareAlike 3.0 Unported License.

     See more at:
     http://creativecommons.org/licenses/by-sa/3.0/
-->
<dcpData>
  <ProfileName>SONY DSC-RX100 Simple</ProfileName>
  <CalibrationIlluminant1>17</CalibrationIlluminant1>
  <CalibrationIlluminant2>21</CalibrationIlluminant2>
  <ColorMatrix1 Rows="3" Cols="3">
    <Element Row="2" Col="2">0.500800</Element>
    <Element Row="2" Col="1">0.063900</Element>
    <Element Row="2" Col="0">-0.008000</Element>
    <Element Row="1" Col="2">0.223300</Element>
    <Element Row="1" Col="1">1.108000</Element>
    <Element Row="1" Col="0">-0.303000</Element>
    <Element Row="0" Col="2">-0.074200</Element>
    <Element Row="0" Col="1">-0.344300</Element>
    <Element Row="0" Col="0">0.910500</Element>
  </ColorMatrix1>
  <ColorMatrix2 Rows="3" Cols="3">
    <Element Row="2" Col="2">0.443400</Element>
    <Element Row="2" Col="1">0.139800</Element>
    <Element Row="2" Col="0">-0.056800</Element>
    <Element Row="1" Col="2">0.137300</Element>
    <Element Row="1" Col="1">1.220700</Element>
    <Element Row="1" Col="0">-0.346400</Element>
    <Element Row="0" Col="2">-0.105700</Element>
    <Element Row="0" Col="1">-0.275400</Element>
    <Element Row="0" Col="0">0.865100</Element>
  </ColorMatrix2>
  <ForwardMatrix1 Rows="0" Cols="0"/>
  <ForwardMatrix2 Rows="0" Cols="0"/>
  <ReductionMatrix1 Rows="0" Cols="0"/>
  <ReductionMatrix2 Rows="0" Cols="0"/>
  <EmbedPolicy>3</EmbedPolicy>
  <UniqueCameraModelRestriction>SONY DSC-RX100</UniqueCameraModelRestriction>
  <Copyright>CC-BY-SA 3.0, rawstudio.org</Copyright>
</dcpData>
