profiles/simple-src/Blackmagic_Pocket_Cinema_Camera-simple.xml
<?xml version="1.0" encoding="UTF-8"?>
<!--
     License: CC-BY-SA 3.0

     This work is licensed under a
     Creative Commons Attribution-ShareAlike 3.0 Unported License.

     See more at:
     http://creativecommons.org/licenses/by-sa/3.0/
-->

<dcpData>
  <ProfileName>Blackmagic Pocket Cinema Camera Simple</ProfileName>
  <CalibrationIlluminant1>17</CalibrationIlluminant1>
  <CalibrationIlluminant2>21</CalibrationIlluminant2>
  <ColorMatrix1 Rows="3" Cols="3">
    <Element Row="2" Col="2">0.674300</Element>
    <Element Row="2" Col="1">0.201500</Element>
    <Element Row="2" Col="0">0.062400</Element>
    <Element Row="1" Col="2">0.042000</Element>
    <Element Row="1" Col="1">1.338800</Element>
    <Element Row="1" Col="0">-0.387300</Element>
    <Element Row="0" Col="2">0.010700</Element>
    <Element Row="0" Col="1">-0.461100</Element>
    <Element Row="0" Col="0">1.217700</Element>
  </ColorMatrix1>
  <ColorMatrix2 Rows="3" Cols="3">
    <Element Row="2" Col="2">0.559200</Element>
    <Element Row="2" Col="1">0.342200</Element>
    <Element Row="2" Col="0">-0.066400</Element>
    <Element Row="1" Col="2">0.115900</Element>
    <Element Row="1" Col="1">1.394400</Element>
    <Element Row="1" Col="0">-0.508200</Element>
    <Element Row="0" Col="2">-0.085700</Element>
    <Element Row="0" Col="1">-0.283700</Element>
    <Element Row="0" Col="0">1.046400</Element>
  </ColorMatrix2>
  <ForwardMatrix1 Rows="0" Cols="0"></ForwardMatrix1>
  <ForwardMatrix2 Rows="0" Cols="0"></ForwardMatrix2>
  <EmbedPolicy>3</EmbedPolicy>
  <UniqueCameraModelRestriction>Blackmagic Pocket Cinema Camera</UniqueCameraModelRestriction>
  <Copyright>CC-BY-SA 3.0, rawstudio.org</Copyright>
</dcpData>