profiles/simple-src/Canon_EOS_550D-simple.xml
<?xml version="1.0" encoding="UTF-8"?>
<!--
     License: CC-BY-SA 3.0

     This work is licensed under a 
     Creative Commons Attribution-ShareAlike 3.0 Unported License.

     See more at:
     http://creativecommons.org/licenses/by-sa/3.0/
-->
<dcpData>
  <ProfileName>Canon EOS 550D Simple</ProfileName>
  <CalibrationIlluminant1>17</CalibrationIlluminant1>
  <CalibrationIlluminant2>21</CalibrationIlluminant2>
  <ColorMatrix1 Rows="3" Cols="3">
    <Element Row="2" Col="2">0.640900</Element>
    <Element Row="2" Col="1">0.098600</Element>
    <Element Row="2" Col="0">-0.015600</Element>
    <Element Row="1" Col="2">0.336200</Element>
    <Element Row="1" Col="1">1.022200</Element>
    <Element Row="1" Col="0">-0.310600</Element>
    <Element Row="0" Col="2">-0.034900</Element>
    <Element Row="0" Col="1">-0.244900</Element>
    <Element Row="0" Col="0">0.775500</Element>
  </ColorMatrix1>
  <ColorMatrix2 Rows="3" Cols="3">
    <Element Row="2" Col="2">0.603900</Element>
    <Element Row="2" Col="1">0.154000</Element>
    <Element Row="2" Col="0">-0.041600</Element>
    <Element Row="1" Col="2">0.253400</Element>
    <Element Row="1" Col="1">1.159700</Element>
    <Element Row="1" Col="0">-0.382500</Element>
    <Element Row="0" Col="2">-0.085700</Element>
    <Element Row="0" Col="1">-0.116400</Element>
    <Element Row="0" Col="0">0.694100</Element>
  </ColorMatrix2>
  <ForwardMatrix1 Rows="0" Cols="0"/>
  <ForwardMatrix2 Rows="0" Cols="0"/>
  <ReductionMatrix1 Rows="0" Cols="0"/>
  <ReductionMatrix2 Rows="0" Cols="0"/>
  <EmbedPolicy>3</EmbedPolicy>
  <UniqueCameraModelRestriction>Canon EOS 550D</UniqueCameraModelRestriction>
  <Copyright>CC-BY-SA 3.0, rawstudio.org</Copyright>
</dcpData>
