profiles/simple-src/Canon_PowerShot_Pro70-simple.xml
<?xml version="1.0" encoding="UTF-8"?>
<!--
     License: CC-BY-SA 3.0

     This work is licensed under a 
     Creative Commons Attribution-ShareAlike 3.0 Unported License.

     See more at:
     http://creativecommons.org/licenses/by-sa/3.0/
-->
<dcpData>
  <ProfileName>Canon PowerShot Pro70 Simple</ProfileName>
  <CalibrationIlluminant1>21</CalibrationIlluminant1>
  <CalibrationIlluminant2>0</CalibrationIlluminant2>
  <ColorMatrix1 Rows="4" Cols="3">
    <Element Row="3" Col="2">0.134200</Element>
    <Element Row="3" Col="1">1.087300</Element>
    <Element Row="3" Col="0">-0.223800</Element>
    <Element Row="2" Col="2">0.661000</Element>
    <Element Row="2" Col="1">0.987000</Element>
    <Element Row="2" Col="0">-0.552100</Element>
    <Element Row="1" Col="2">0.452200</Element>
    <Element Row="1" Col="1">-0.002500</Element>
    <Element Row="1" Col="0">0.393900</Element>
    <Element Row="0" Col="2">0.152900</Element>
    <Element Row="0" Col="1">0.981800</Element>
    <Element Row="0" Col="0">-0.415500</Element>
  </ColorMatrix1>
  <ColorMatrix2 Rows="0" Cols="0"/>
  <ForwardMatrix1 Rows="0" Cols="0"/>
  <ForwardMatrix2 Rows="0" Cols="0"/>
  <ReductionMatrix1 Rows="0" Cols="0"/>
  <ReductionMatrix2 Rows="0" Cols="0"/>
  <EmbedPolicy>3</EmbedPolicy>
  <UniqueCameraModelRestriction>Canon PowerShot Pro70</UniqueCameraModelRestriction>
  <Copyright>CC-BY-SA 3.0, rawstudio.org</Copyright>
</dcpData>
