profiles/simple-src/Canon_PowerShot_G1X-simple.xml
<?xml version="1.0" encoding="UTF-8"?>
<!--
     License: CC-BY-SA 3.0

     This work is licensed under a 
     Creative Commons Attribution-ShareAlike 3.0 Unported License.

     See more at:
     http://creativecommons.org/licenses/by-sa/3.0/
-->
<dcpData>
  <ProfileName>Canon PowerShot G1 X Simple</ProfileName>
  <CalibrationIlluminant1>17</CalibrationIlluminant1>
  <CalibrationIlluminant2>21</CalibrationIlluminant2>
  <ColorMatrix1 Rows="3" Cols="3">
    <Element Row="2" Col="2">0.647100</Element>
    <Element Row="2" Col="1">0.111800</Element>
    <Element Row="2" Col="0">-0.029700</Element>
    <Element Row="1" Col="2">0.281600</Element>
    <Element Row="1" Col="1">1.100600</Element>
    <Element Row="1" Col="0">-0.345300</Element>
    <Element Row="0" Col="2">-0.065900</Element>
    <Element Row="0" Col="1">-0.228100</Element>
    <Element Row="0" Col="0">0.813800</Element>
  </ColorMatrix1>
  <ColorMatrix2 Rows="3" Cols="3">
    <Element Row="2" Col="2">0.580500</Element>
    <Element Row="2" Col="1">0.194600</Element>
    <Element Row="2" Col="0">-0.087600</Element>
    <Element Row="1" Col="2">0.204800</Element>
    <Element Row="1" Col="1">1.225100</Element>
    <Element Row="1" Col="0">-0.408800</Element>
    <Element Row="0" Col="2">-0.104300</Element>
    <Element Row="0" Col="1">-0.125500</Element>
    <Element Row="0" Col="0">0.737800</Element>
  </ColorMatrix2>
  <ForwardMatrix1 Rows="0" Cols="0"/>
  <ForwardMatrix2 Rows="0" Cols="0"/>
  <ReductionMatrix1 Rows="0" Cols="0"/>
  <ReductionMatrix2 Rows="0" Cols="0"/>
  <EmbedPolicy>3</EmbedPolicy>
  <UniqueCameraModelRestriction>Canon PowerShot G1 X</UniqueCameraModelRestriction>
  <Copyright>CC-BY-SA 3.0, rawstudio.org</Copyright>
</dcpData>
