profiles/simple-src/Canon_EOS_6D-simple.xml
<?xml version="1.0" encoding="UTF-8"?>
<!--
     License: CC-BY-SA 3.0

     This work is licensed under a 
     Creative Commons Attribution-ShareAlike 3.0 Unported License.

     See more at:
     http://creativecommons.org/licenses/by-sa/3.0/
-->
<dcpData>
  <ProfileName>Canon EOS 6D Simple</ProfileName>
  <CalibrationIlluminant1>17</CalibrationIlluminant1>
  <CalibrationIlluminant2>21</CalibrationIlluminant2>
  <ColorMatrix1 Rows="3" Cols="3">
    <Element Row="2" Col="2">0.637000</Element>
    <Element Row="2" Col="1">0.120900</Element>
    <Element Row="2" Col="0">-0.033200</Element>
    <Element Row="1" Col="2">0.269200</Element>
    <Element Row="1" Col="1">1.148800</Element>
    <Element Row="1" Col="0">-0.384600</Element>
    <Element Row="0" Col="2">-0.092900</Element>
    <Element Row="0" Col="1">-0.143500</Element>
    <Element Row="0" Col="0">0.754600</Element>
  </ColorMatrix1>
  <ColorMatrix2 Rows="3" Cols="3">
    <Element Row="2" Col="2">0.575800</Element>
    <Element Row="2" Col="1">0.199400</Element>
    <Element Row="2" Col="0">-0.085100</Element>
    <Element Row="1" Col="2">0.205800</Element>
    <Element Row="1" Col="1">1.256400</Element>
    <Element Row="1" Col="0">-0.442000</Element>
    <Element Row="0" Col="2">-0.101400</Element>
    <Element Row="0" Col="1">-0.080400</Element>
    <Element Row="0" Col="0">0.703400</Element>
  </ColorMatrix2>
  <ForwardMatrix1 Rows="0" Cols="0"/>
  <ForwardMatrix2 Rows="0" Cols="0"/>
  <ReductionMatrix1 Rows="0" Cols="0"/>
  <ReductionMatrix2 Rows="0" Cols="0"/>
  <EmbedPolicy>3</EmbedPolicy>
  <UniqueCameraModelRestriction>Canon EOS 6D</UniqueCameraModelRestriction>
  <Copyright>CC-BY-SA 3.0, rawstudio.org</Copyright>
</dcpData>
