profiles/simple-src/Canon_PowerShot_S40-simple.xml
<?xml version="1.0" encoding="UTF-8"?>
<!--
     License: CC-BY-SA 3.0

     This work is licensed under a 
     Creative Commons Attribution-ShareAlike 3.0 Unported License.

     See more at:
     http://creativecommons.org/licenses/by-sa/3.0/
-->
<dcpData>
  <ProfileName>Canon PowerShot S40 Simple</ProfileName>
  <CalibrationIlluminant1>21</CalibrationIlluminant1>
  <CalibrationIlluminant2>0</CalibrationIlluminant2>
  <ColorMatrix1 Rows="3" Cols="3">
    <Element Row="2" Col="2">0.901300</Element>
    <Element Row="2" Col="1">0.282900</Element>
    <Element Row="2" Col="0">-0.231800</Element>
    <Element Row="1" Col="2">0.290000</Element>
    <Element Row="1" Col="1">1.423100</Element>
    <Element Row="1" Col="0">-0.686900</Element>
    <Element Row="0" Col="2">-0.094000</Element>
    <Element Row="0" Col="1">-0.248700</Element>
    <Element Row="0" Col="0">0.851000</Element>
  </ColorMatrix1>
  <ColorMatrix2 Rows="0" Cols="0"/>
  <ForwardMatrix1 Rows="0" Cols="0"/>
  <ForwardMatrix2 Rows="0" Cols="0"/>
  <ReductionMatrix1 Rows="0" Cols="0"/>
  <ReductionMatrix2 Rows="0" Cols="0"/>
  <EmbedPolicy>3</EmbedPolicy>
  <UniqueCameraModelRestriction>Canon PowerShot S40</UniqueCameraModelRestriction>
  <Copyright>CC-BY-SA 3.0, rawstudio.org</Copyright>
</dcpData>
