profiles/simple-src/Canon_EOS_70D-simple.xml
<?xml version="1.0" encoding="UTF-8"?>
<!--
     License: CC-BY-SA 3.0

     This work is licensed under a
     Creative Commons Attribution-ShareAlike 3.0 Unported License.

     See more at:
     http://creativecommons.org/licenses/by-sa/3.0/
-->

<dcpData>
  <ProfileName>Canon EOS 70D Simple</ProfileName>
  <CalibrationIlluminant1>17</CalibrationIlluminant1>
  <CalibrationIlluminant2>21</CalibrationIlluminant2>
  <ColorMatrix1 Rows="3" Cols="3">
    <Element Row="2" Col="2">0.637000</Element>
    <Element Row="2" Col="1">0.120900</Element>
    <Element Row="2" Col="0">-0.033200</Element>
    <Element Row="1" Col="2">0.269200</Element>
    <Element Row="1" Col="1">1.148800</Element>
    <Element Row="1" Col="0">-0.384600</Element>
    <Element Row="0" Col="2">-0.092900</Element>
    <Element Row="0" Col="1">-0.143500</Element>
    <Element Row="0" Col="0">0.754600</Element>
  </ColorMatrix1>
  <ColorMatrix2 Rows="3" Cols="3">
    <Element Row="2" Col="2">0.575800</Element>
    <Element Row="2" Col="1">0.199400</Element>
    <Element Row="2" Col="0">-0.085100</Element>
    <Element Row="1" Col="2">0.205800</Element>
    <Element Row="1" Col="1">1.256400</Element>
    <Element Row="1" Col="0">-0.442000</Element>
    <Element Row="0" Col="2">-0.101400</Element>
    <Element Row="0" Col="1">-0.080400</Element>
    <Element Row="0" Col="0">0.703400</Element>
  </ColorMatrix2>
  <ForwardMatrix1 Rows="3" Cols="3">
    <Element Row="2" Col="2">1.253800</Element>
    <Element Row="2" Col="1">-0.422800</Element>
    <Element Row="2" Col="0">-0.005900</Element>
    <Element Row="1" Col="2">-0.071500</Element>
    <Element Row="1" Col="1">0.835100</Element>
    <Element Row="1" Col="0">0.236400</Element>
    <Element Row="0" Col="2">0.181500</Element>
    <Element Row="0" Col="1">0.006500</Element>
    <Element Row="0" Col="0">0.776300</Element>
  </ForwardMatrix1>
  <ForwardMatrix2 Rows="3" Cols="3">
    <Element Row="2" Col="2">1.029200</Element>
    <Element Row="2" Col="1">-0.215400</Element>
    <Element Row="2" Col="0">0.011300</Element>
    <Element Row="1" Col="2">-0.182000</Element>
    <Element Row="1" Col="1">0.917300</Element>
    <Element Row="1" Col="0">0.264800</Element>
    <Element Row="0" Col="2">0.113500</Element>
    <Element Row="0" Col="1">0.104400</Element>
    <Element Row="0" Col="0">0.746400</Element>
  </ForwardMatrix2>
  <EmbedPolicy>3</EmbedPolicy>
  <UniqueCameraModelRestriction>Canon EOS 70D</UniqueCameraModelRestriction>
  <Copyright>CC-BY-SA 3.0, rawstudio.org</Copyright>
</dcpData>