profiles/simple-src/Canon_EOS-1D_C-simple.xml
<?xml version="1.0" encoding="UTF-8"?>
<!--
     License: CC-BY-SA 3.0

     This work is licensed under a
     Creative Commons Attribution-ShareAlike 3.0 Unported License.

     See more at:
     http://creativecommons.org/licenses/by-sa/3.0/
-->

<dcpData>
  <ProfileName>Canon EOS-1D C Simple</ProfileName>
  <CalibrationIlluminant1>17</CalibrationIlluminant1>
  <CalibrationIlluminant2>21</CalibrationIlluminant2>
  <ColorMatrix1 Rows="3" Cols="3">
    <Element Row="2" Col="2">0.769000</Element>
    <Element Row="2" Col="1">0.139800</Element>
    <Element Row="2" Col="0">-0.047700</Element>
    <Element Row="1" Col="2">0.297500</Element>
    <Element Row="1" Col="1">1.140000</Element>
    <Element Row="1" Col="0">-0.399800</Element>
    <Element Row="0" Col="2">-0.079000</Element>
    <Element Row="0" Col="1">-0.114300</Element>
    <Element Row="0" Col="0">0.715100</Element>
  </ColorMatrix1>
  <ColorMatrix2 Rows="3" Cols="3">
    <Element Row="2" Col="2">0.684600</Element>
    <Element Row="2" Col="1">0.248800</Element>
    <Element Row="2" Col="0">-0.119700</Element>
    <Element Row="1" Col="2">0.213900</Element>
    <Element Row="1" Col="1">1.273700</Element>
    <Element Row="1" Col="0">-0.466900</Element>
    <Element Row="0" Col="2">-0.101400</Element>
    <Element Row="0" Col="1">-0.061400</Element>
    <Element Row="0" Col="0">0.684700</Element>
  </ColorMatrix2>
  <ForwardMatrix1 Rows="3" Cols="3">
    <Element Row="2" Col="2">1.215800</Element>
    <Element Row="2" Col="1">-0.407900</Element>
    <Element Row="2" Col="0">0.017200</Element>
    <Element Row="1" Col="2">-0.081800</Element>
    <Element Row="1" Col="1">0.823000</Element>
    <Element Row="1" Col="0">0.258800</Element>
    <Element Row="0" Col="2">0.173100</Element>
    <Element Row="0" Col="1">-0.013000</Element>
    <Element Row="0" Col="0">0.804200</Element>
  </ForwardMatrix1>
  <ForwardMatrix2 Rows="3" Cols="3">
    <Element Row="2" Col="2">1.033100</Element>
    <Element Row="2" Col="1">-0.229300</Element>
    <Element Row="2" Col="0">0.021300</Element>
    <Element Row="1" Col="2">-0.177900</Element>
    <Element Row="1" Col="1">0.898300</Element>
    <Element Row="1" Col="0">0.279600</Element>
    <Element Row="0" Col="2">0.125500</Element>
    <Element Row="0" Col="1">0.073500</Element>
    <Element Row="0" Col="0">0.765300</Element>
  </ForwardMatrix2>
  <EmbedPolicy>3</EmbedPolicy>
  <UniqueCameraModelRestriction>Canon EOS-1D C</UniqueCameraModelRestriction>
  <Copyright>CC-BY-SA 3.0, rawstudio.org</Copyright>
</dcpData>