profiles/simple-src/Canon_EOS-1Ds_Mark_II-simple.xml
<?xml version="1.0" encoding="UTF-8"?>
<!--
     License: CC-BY-SA 3.0

     This work is licensed under a 
     Creative Commons Attribution-ShareAlike 3.0 Unported License.

     See more at:
     http://creativecommons.org/licenses/by-sa/3.0/
-->
<dcpData>
  <ProfileName>Canon EOS-1Ds Mark II Simple</ProfileName>
  <CalibrationIlluminant1>21</CalibrationIlluminant1>
  <CalibrationIlluminant2>0</CalibrationIlluminant2>
  <ColorMatrix1 Rows="3" Cols="3">
    <Element Row="2" Col="2">0.763300</Element>
    <Element Row="2" Col="1">0.177100</Element>
    <Element Row="2" Col="0">-0.161800</Element>
    <Element Row="1" Col="2">0.237800</Element>
    <Element Row="1" Col="1">1.592600</Element>
    <Element Row="1" Col="0">-0.818000</Element>
    <Element Row="0" Col="2">-0.086700</Element>
    <Element Row="0" Col="1">-0.060200</Element>
    <Element Row="0" Col="0">0.651700</Element>
  </ColorMatrix1>
  <ColorMatrix2 Rows="0" Cols="0"/>
  <ForwardMatrix1 Rows="0" Cols="0"/>
  <ForwardMatrix2 Rows="0" Cols="0"/>
  <ReductionMatrix1 Rows="0" Cols="0"/>
  <ReductionMatrix2 Rows="0" Cols="0"/>
  <EmbedPolicy>3</EmbedPolicy>
  <UniqueCameraModelRestriction>Canon EOS-1Ds Mark II</UniqueCameraModelRestriction>
  <Copyright>CC-BY-SA 3.0, rawstudio.org</Copyright>
</dcpData>
