profiles/simple-src/Canon_EOS_600D-simple.xml
<?xml version="1.0" encoding="UTF-8"?>
<!--
     License: CC-BY-SA 3.0

     This work is licensed under a 
     Creative Commons Attribution-ShareAlike 3.0 Unported License.

     See more at:
     http://creativecommons.org/licenses/by-sa/3.0/
-->
<dcpData>
  <ProfileName>Canon EOS 600D Simple</ProfileName>
  <CalibrationIlluminant1>17</CalibrationIlluminant1>
  <CalibrationIlluminant2>21</CalibrationIlluminant2>
  <ColorMatrix1 Rows="3" Cols="3">
    <Element Row="2" Col="2">0.644200</Element>
    <Element Row="2" Col="1">0.105800</Element>
    <Element Row="2" Col="0">-0.027200</Element>
    <Element Row="1" Col="2">0.320000</Element>
    <Element Row="1" Col="1">1.060000</Element>
    <Element Row="1" Col="0">-0.336100</Element>
    <Element Row="0" Col="2">-0.043100</Element>
    <Element Row="0" Col="1">-0.191600</Element>
    <Element Row="0" Col="0">0.716400</Element>
  </ColorMatrix1>
  <ColorMatrix2 Rows="3" Cols="3">
    <Element Row="2" Col="2">0.593100</Element>
    <Element Row="2" Col="1">0.194400</Element>
    <Element Row="2" Col="0">-0.081900</Element>
    <Element Row="1" Col="2">0.237800</Element>
    <Element Row="1" Col="1">1.218400</Element>
    <Element Row="1" Col="0">-0.430000</Element>
    <Element Row="0" Col="2">-0.088200</Element>
    <Element Row="0" Col="1">-0.090700</Element>
    <Element Row="0" Col="0">0.646100</Element>
  </ColorMatrix2>
  <ForwardMatrix1 Rows="0" Cols="0"/>
  <ForwardMatrix2 Rows="0" Cols="0"/>
  <ReductionMatrix1 Rows="0" Cols="0"/>
  <ReductionMatrix2 Rows="0" Cols="0"/>
  <EmbedPolicy>3</EmbedPolicy>
  <UniqueCameraModelRestriction>Canon EOS 600D</UniqueCameraModelRestriction>
  <Copyright>CC-BY-SA 3.0, rawstudio.org</Copyright>
</dcpData>
