profiles/simple-src/Canon_PowerShot_SX50_HS-simple.xml
<?xml version="1.0" encoding="UTF-8"?>
<!--
     License: CC-BY-SA 3.0

     This work is licensed under a 
     Creative Commons Attribution-ShareAlike 3.0 Unported License.

     See more at:
     http://creativecommons.org/licenses/by-sa/3.0/
-->
<dcpData>
  <ProfileName>Canon PowerShot SX50 HS Simple</ProfileName>
  <CalibrationIlluminant1>17</CalibrationIlluminant1>
  <CalibrationIlluminant2>21</CalibrationIlluminant2>
  <ColorMatrix1 Rows="3" Cols="3">
    <Element Row="2" Col="2">0.534300</Element>
    <Element Row="2" Col="1">0.067200</Element>
    <Element Row="2" Col="0">0.024100</Element>
    <Element Row="1" Col="2">0.311200</Element>
    <Element Row="1" Col="1">0.855000</Element>
    <Element Row="1" Col="0">-0.115900</Element>
    <Element Row="0" Col="2">0.060000</Element>
    <Element Row="0" Col="1">-0.681900</Element>
    <Element Row="0" Col="0">1.358700</Element>
  </ColorMatrix1>
  <ColorMatrix2 Rows="3" Cols="3">
    <Element Row="2" Col="2">0.492600</Element>
    <Element Row="2" Col="1">0.162300</Element>
    <Element Row="2" Col="0">-0.041200</Element>
    <Element Row="1" Col="2">0.162900</Element>
    <Element Row="1" Col="1">1.069100</Element>
    <Element Row="1" Col="0">-0.211000</Element>
    <Element Row="0" Col="2">-0.124700</Element>
    <Element Row="0" Col="1">-0.475300</Element>
    <Element Row="0" Col="0">1.243200</Element>
  </ColorMatrix2>
  <ForwardMatrix1 Rows="0" Cols="0"/>
  <ForwardMatrix2 Rows="0" Cols="0"/>
  <ReductionMatrix1 Rows="0" Cols="0"/>
  <ReductionMatrix2 Rows="0" Cols="0"/>
  <EmbedPolicy>3</EmbedPolicy>
  <UniqueCameraModelRestriction>Canon PowerShot SX50 HS</UniqueCameraModelRestriction>
  <Copyright>CC-BY-SA 3.0, rawstudio.org</Copyright>
</dcpData>
