profiles/simple-src/Canon_PowerShot_S70-simple.xml
<?xml version="1.0" encoding="UTF-8"?>
<!--
     License: CC-BY-SA 3.0

     This work is licensed under a 
     Creative Commons Attribution-ShareAlike 3.0 Unported License.

     See more at:
     http://creativecommons.org/licenses/by-sa/3.0/
-->
<dcpData>
  <ProfileName>Canon PowerShot S70 Simple</ProfileName>
  <CalibrationIlluminant1>21</CalibrationIlluminant1>
  <CalibrationIlluminant2>0</CalibrationIlluminant2>
  <ColorMatrix1 Rows="3" Cols="3">
    <Element Row="2" Col="2">0.788900</Element>
    <Element Row="2" Col="1">0.098900</Element>
    <Element Row="2" Col="0">-0.090100</Element>
    <Element Row="1" Col="2">0.290600</Element>
    <Element Row="1" Col="1">1.446300</Element>
    <Element Row="1" Col="0">-0.711500</Element>
    <Element Row="0" Col="2">-0.083200</Element>
    <Element Row="0" Col="1">-0.381000</Element>
    <Element Row="0" Col="0">0.997600</Element>
  </ColorMatrix1>
  <ColorMatrix2 Rows="0" Cols="0"/>
  <ForwardMatrix1 Rows="0" Cols="0"/>
  <ForwardMatrix2 Rows="0" Cols="0"/>
  <ReductionMatrix1 Rows="0" Cols="0"/>
  <ReductionMatrix2 Rows="0" Cols="0"/>
  <EmbedPolicy>3</EmbedPolicy>
  <UniqueCameraModelRestriction>Canon PowerShot S70</UniqueCameraModelRestriction>
  <Copyright>CC-BY-SA 3.0, rawstudio.org</Copyright>
</dcpData>
