profiles/simple-src/Canon_EOS_60D-simple.xml
<?xml version="1.0" encoding="UTF-8"?>
<!--
     License: CC-BY-SA 3.0

     This work is licensed under a 
     Creative Commons Attribution-ShareAlike 3.0 Unported License.

     See more at:
     http://creativecommons.org/licenses/by-sa/3.0/
-->
<dcpData>
  <ProfileName>Canon EOS 60D simple</ProfileName>
  <CalibrationIlluminant1>17</CalibrationIlluminant1>
  <CalibrationIlluminant2>21</CalibrationIlluminant2>
  <ColorMatrix1 Rows="3" Cols="3">
    <Element Row="2" Col="2">0.641300</Element>
    <Element Row="2" Col="1">0.124200</Element>
    <Element Row="2" Col="0">-0.033700</Element>
    <Element Row="1" Col="2">0.292900</Element>
    <Element Row="1" Col="1">1.096300</Element>
    <Element Row="1" Col="0">-0.350500</Element>
    <Element Row="0" Col="2">-0.049100</Element>
    <Element Row="0" Col="1">-0.189700</Element>
    <Element Row="0" Col="0">0.742800</Element>
  </ColorMatrix1>
  <ColorMatrix2 Rows="3" Cols="3">
    <Element Row="2" Col="2">0.605100</Element>
    <Element Row="2" Col="1">0.212900</Element>
    <Element Row="2" Col="0">-0.088700</Element>
    <Element Row="1" Col="2">0.221100</Element>
    <Element Row="1" Col="1">1.242600</Element>
    <Element Row="1" Col="0">-0.440800</Element>
    <Element Row="0" Col="2">-0.092500</Element>
    <Element Row="0" Col="1">-0.099400</Element>
    <Element Row="0" Col="0">0.671900</Element>
  </ColorMatrix2>
  <ForwardMatrix1 Rows="0" Cols="0"/>
  <ForwardMatrix2 Rows="0" Cols="0"/>
  <ReductionMatrix1 Rows="0" Cols="0"/>
  <ReductionMatrix2 Rows="0" Cols="0"/>
  <EmbedPolicy>3</EmbedPolicy>
  <UniqueCameraModelRestriction>Canon EOS 60D</UniqueCameraModelRestriction>
  <Copyright>CC-BY-SA 3.0, rawstudio.org</Copyright>
</dcpData>
