profiles/simple-src/Canon_PowerShot_A50-simple.xml
<?xml version="1.0" encoding="UTF-8"?>
<!--
     License: CC-BY-SA 3.0

     This work is licensed under a 
     Creative Commons Attribution-ShareAlike 3.0 Unported License.

     See more at:
     http://creativecommons.org/licenses/by-sa/3.0/
-->
<dcpData>
  <ProfileName>Canon PowerShot A50 Simple</ProfileName>
  <CalibrationIlluminant1>21</CalibrationIlluminant1>
  <CalibrationIlluminant2>0</CalibrationIlluminant2>
  <ColorMatrix1 Rows="4" Cols="3">
    <Element Row="3" Col="2">0.021700</Element>
    <Element Row="3" Col="1">1.117500</Element>
    <Element Row="3" Col="0">-0.140400</Element>
    <Element Row="2" Col="2">0.620000</Element>
    <Element Row="2" Col="1">0.987900</Element>
    <Element Row="2" Col="0">-0.554000</Element>
    <Element Row="1" Col="2">0.393900</Element>
    <Element Row="1" Col="1">0.068400</Element>
    <Element Row="1" Col="0">0.343600</Element>
    <Element Row="0" Col="2">0.177600</Element>
    <Element Row="0" Col="1">0.984600</Element>
    <Element Row="0" Col="0">-0.530000</Element>
  </ColorMatrix1>
  <ColorMatrix2 Rows="0" Cols="0"/>
  <ForwardMatrix1 Rows="0" Cols="0"/>
  <ForwardMatrix2 Rows="0" Cols="0"/>
  <ReductionMatrix1 Rows="0" Cols="0"/>
  <ReductionMatrix2 Rows="0" Cols="0"/>
  <EmbedPolicy>3</EmbedPolicy>
  <UniqueCameraModelRestriction>Canon PowerShot A50</UniqueCameraModelRestriction>
  <Copyright>CC-BY-SA 3.0, rawstudio.org</Copyright>
</dcpData>
