profiles/simple-src/FUJIFILM_FinePix_S2Pro-simple.xml
<?xml version="1.0" encoding="UTF-8"?>
<!--
     License: CC-BY-SA 3.0

     This work is licensed under a 
     Creative Commons Attribution-ShareAlike 3.0 Unported License.

     See more at:
     http://creativecommons.org/licenses/by-sa/3.0/
-->
<dcpData>
  <ProfileName>FUJIFILM FinePix S2Pro Simple</ProfileName>
  <CalibrationIlluminant1>21</CalibrationIlluminant1>
  <CalibrationIlluminant2>0</CalibrationIlluminant2>
  <ColorMatrix1 Rows="3" Cols="3">
    <Element Row="2" Col="2">0.769700</Element>
    <Element Row="2" Col="1">0.211100</Element>
    <Element Row="2" Col="0">-0.150700</Element>
    <Element Row="1" Col="2">0.164700</Element>
    <Element Row="1" Col="1">1.542300</Element>
    <Element Row="1" Col="0">-0.703300</Element>
    <Element Row="0" Col="2">-0.140200</Element>
    <Element Row="0" Col="1">-0.469000</Element>
    <Element Row="0" Col="0">1.249200</Element>
  </ColorMatrix1>
  <ColorMatrix2 Rows="0" Cols="0"/>
  <ForwardMatrix1 Rows="0" Cols="0"/>
  <ForwardMatrix2 Rows="0" Cols="0"/>
  <ReductionMatrix1 Rows="0" Cols="0"/>
  <ReductionMatrix2 Rows="0" Cols="0"/>
  <EmbedPolicy>3</EmbedPolicy>
  <UniqueCameraModelRestriction>FUJIFILM FinePix S2Pro</UniqueCameraModelRestriction>
  <Copyright>CC-BY-SA 3.0, rawstudio.org</Copyright>
</dcpData>
