profiles/simple-src/Fujifilm_X20-simple.xml
<?xml version="1.0" encoding="UTF-8"?>
<!--
     License: CC-BY-SA 3.0

     This work is licensed under a
     Creative Commons Attribution-ShareAlike 3.0 Unported License.

     See more at:
     http://creativecommons.org/licenses/by-sa/3.0/
-->

<dcpData>
  <ProfileName>Fujifilm X20 Simple</ProfileName>
  <CalibrationIlluminant1>17</CalibrationIlluminant1>
  <CalibrationIlluminant2>21</CalibrationIlluminant2>
  <ColorMatrix1 Rows="3" Cols="3">
    <Element Row="2" Col="2">0.530900</Element>
    <Element Row="2" Col="1">0.073100</Element>
    <Element Row="2" Col="0">0.024100</Element>
    <Element Row="1" Col="2">0.315100</Element>
    <Element Row="1" Col="1">1.128700</Element>
    <Element Row="1" Col="0">-0.403100</Element>
    <Element Row="0" Col="2">0.057200</Element>
    <Element Row="0" Col="1">-0.685100</Element>
    <Element Row="0" Col="0">1.299700</Element>
  </ColorMatrix1>
  <ColorMatrix2 Rows="3" Cols="3">
    <Element Row="2" Col="2">0.460500</Element>
    <Element Row="2" Col="1">0.172300</Element>
    <Element Row="2" Col="0">-0.048000</Element>
    <Element Row="1" Col="2">0.218300</Element>
    <Element Row="1" Col="1">1.292700</Element>
    <Element Row="1" Col="0">-0.490400</Element>
    <Element Row="0" Col="2">-0.113300</Element>
    <Element Row="0" Col="1">-0.497100</Element>
    <Element Row="0" Col="0">1.176800</Element>
  </ColorMatrix2>
  <ForwardMatrix1 Rows="3" Cols="3">
    <Element Row="2" Col="2">1.420900</Element>
    <Element Row="2" Col="1">-0.430800</Element>
    <Element Row="2" Col="0">-0.165000</Element>
    <Element Row="1" Col="2">-0.158000</Element>
    <Element Row="1" Col="1">0.938000</Element>
    <Element Row="1" Col="0">0.220000</Element>
    <Element Row="0" Col="2">0.054900</Element>
    <Element Row="0" Col="1">0.311300</Element>
    <Element Row="0" Col="0">0.598100</Element>
  </ForwardMatrix1>
  <ForwardMatrix2 Rows="3" Cols="3">
    <Element Row="2" Col="2">1.087000</Element>
    <Element Row="2" Col="1">-0.245400</Element>
    <Element Row="2" Col="0">-0.016500</Element>
    <Element Row="1" Col="2">-0.254200</Element>
    <Element Row="1" Col="1">1.048000</Element>
    <Element Row="1" Col="0">0.206200</Element>
    <Element Row="0" Col="2">-0.038300</Element>
    <Element Row="0" Col="1">0.474400</Element>
    <Element Row="0" Col="0">0.528200</Element>
  </ForwardMatrix2>
  <EmbedPolicy>3</EmbedPolicy>
  <UniqueCameraModelRestriction>Fujifilm X20</UniqueCameraModelRestriction>
  <Copyright>CC-BY-SA 3.0, rawstudio.org</Copyright>
</dcpData>