profiles/simple-src/FUJIFILM_FinePix_X100-simple.xml
<?xml version="1.0" encoding="UTF-8"?>
<!--
     License: CC-BY-SA 3.0

     This work is licensed under a 
     Creative Commons Attribution-ShareAlike 3.0 Unported License.

     See more at:
     http://creativecommons.org/licenses/by-sa/3.0/
-->
<dcpData>
  <ProfileName>Fujifilm FinePix X100 Simple</ProfileName>
  <CalibrationIlluminant1>17</CalibrationIlluminant1>
  <CalibrationIlluminant2>21</CalibrationIlluminant2>
  <ColorMatrix1 Rows="3" Cols="3">
    <Element Row="2" Col="2">0.761600</Element>
    <Element Row="2" Col="1">0.088800</Element>
    <Element Row="2" Col="0">-0.027700</Element>
    <Element Row="1" Col="2">0.298800</Element>
    <Element Row="1" Col="1">1.156700</Element>
    <Element Row="1" Col="0">-0.418200</Element>
    <Element Row="0" Col="2">-0.014800</Element>
    <Element Row="0" Col="1">-0.649400</Element>
    <Element Row="0" Col="0">1.358900</Element>
  </ColorMatrix1>
  <ColorMatrix2 Rows="3" Cols="3">
    <Element Row="2" Col="2">0.690400</Element>
    <Element Row="2" Col="1">0.172400</Element>
    <Element Row="2" Col="0">-0.079500</Element>
    <Element Row="1" Col="2">0.240000</Element>
    <Element Row="1" Col="1">1.287400</Element>
    <Element Row="1" Col="0">-0.503400</Element>
    <Element Row="0" Col="2">-0.106900</Element>
    <Element Row="0" Col="1">-0.445700</Element>
    <Element Row="0" Col="0">1.216100</Element>
  </ColorMatrix2>
  <ForwardMatrix1 Rows="0" Cols="0"/>
  <ForwardMatrix2 Rows="0" Cols="0"/>
  <ReductionMatrix1 Rows="0" Cols="0"/>
  <ReductionMatrix2 Rows="0" Cols="0"/>
  <EmbedPolicy>3</EmbedPolicy>
  <UniqueCameraModelRestriction>Fujifilm FinePix X100</UniqueCameraModelRestriction>
  <Copyright>CC-BY-SA 3.0, rawstudio.org</Copyright>
</dcpData>
