profiles/simple-src/Fujifilm_X-E2-simple.xml
<?xml version="1.0" encoding="UTF-8"?>
<!--
     License: CC-BY-SA 3.0

     This work is licensed under a
     Creative Commons Attribution-ShareAlike 3.0 Unported License.

     See more at:
     http://creativecommons.org/licenses/by-sa/3.0/
-->

<dcpData>
  <ProfileName>Fujifilm X-E2 Simple</ProfileName>
  <CalibrationIlluminant1>17</CalibrationIlluminant1>
  <CalibrationIlluminant2>21</CalibrationIlluminant2>
  <ColorMatrix1 Rows="3" Cols="3">
    <Element Row="2" Col="2">0.710900</Element>
    <Element Row="2" Col="1">0.198800</Element>
    <Element Row="2" Col="0">-0.084200</Element>
    <Element Row="1" Col="2">0.249500</Element>
    <Element Row="1" Col="1">1.066500</Element>
    <Element Row="1" Col="0">-0.282400</Element>
    <Element Row="0" Col="2">0.008800</Element>
    <Element Row="0" Col="1">-0.660000</Element>
    <Element Row="0" Col="0">1.267000</Element>
  </ColorMatrix1>
  <ColorMatrix2 Rows="3" Cols="3">
    <Element Row="2" Col="2">0.652600</Element>
    <Element Row="2" Col="1">0.248200</Element>
    <Element Row="2" Col="0">-0.147500</Element>
    <Element Row="1" Col="2">0.240700</Element>
    <Element Row="1" Col="1">1.244700</Element>
    <Element Row="1" Col="0">-0.459700</Element>
    <Element Row="0" Col="2">-0.085500</Element>
    <Element Row="0" Col="1">-0.245100</Element>
    <Element Row="0" Col="0">0.845800</Element>
  </ColorMatrix2>
  <ForwardMatrix1 Rows="3" Cols="3">
    <Element Row="2" Col="2">0.621500</Element>
    <Element Row="2" Col="1">0.000900</Element>
    <Element Row="2" Col="0">0.202700</Element>
    <Element Row="1" Col="2">0.040200</Element>
    <Element Row="1" Col="1">0.683200</Element>
    <Element Row="1" Col="0">0.276500</Element>
    <Element Row="0" Col="2">0.125100</Element>
    <Element Row="0" Col="1">0.368100</Element>
    <Element Row="0" Col="0">0.471100</Element>
  </ForwardMatrix1>
  <ForwardMatrix2 Rows="3" Cols="3">
    <Element Row="2" Col="2">0.684000</Element>
    <Element Row="2" Col="1">0.003400</Element>
    <Element Row="2" Col="0">0.137700</Element>
    <Element Row="1" Col="2">0.056100</Element>
    <Element Row="1" Col="1">0.703200</Element>
    <Element Row="1" Col="0">0.240800</Element>
    <Element Row="0" Col="2">0.180200</Element>
    <Element Row="0" Col="1">0.356000</Element>
    <Element Row="0" Col="0">0.428100</Element>
  </ForwardMatrix2>
  <EmbedPolicy>3</EmbedPolicy>
  <UniqueCameraModelRestriction>Fujifilm X-E2</UniqueCameraModelRestriction>
  <Copyright>CC-BY-SA 3.0, rawstudio.org</Copyright>
</dcpData>