profiles/simple-src/FUJIFILM_FinePix_F550EXR-simple.xml
<?xml version="1.0" encoding="UTF-8"?>
<!--
     License: CC-BY-SA 3.0

     This work is licensed under a 
     Creative Commons Attribution-ShareAlike 3.0 Unported License.

     See more at:
     http://creativecommons.org/licenses/by-sa/3.0/
-->
<dcpData>
  <ProfileName>Fujifilm FinePix F550EXR Simple</ProfileName>
  <CalibrationIlluminant1>17</CalibrationIlluminant1>
  <CalibrationIlluminant2>21</CalibrationIlluminant2>
  <ColorMatrix1 Rows="3" Cols="3">
    <Element Row="2" Col="2">0.500200</Element>
    <Element Row="2" Col="1">0.089300</Element>
    <Element Row="2" Col="0">0.025500</Element>
    <Element Row="1" Col="2">0.256900</Element>
    <Element Row="1" Col="1">1.067300</Element>
    <Element Row="1" Col="0">-0.289600</Element>
    <Element Row="0" Col="2">-0.059000</Element>
    <Element Row="0" Col="1">-0.656200</Element>
    <Element Row="0" Col="0">1.414300</Element>
  </ColorMatrix1>
  <ColorMatrix2 Rows="3" Cols="3">
    <Element Row="2" Col="2">0.439500</Element>
    <Element Row="2" Col="1">0.155400</Element>
    <Element Row="2" Col="0">-0.013200</Element>
    <Element Row="1" Col="2">0.199800</Element>
    <Element Row="1" Col="1">1.160000</Element>
    <Element Row="1" Col="0">-0.336900</Element>
    <Element Row="0" Col="2">-0.147400</Element>
    <Element Row="0" Col="1">-0.535800</Element>
    <Element Row="0" Col="0">1.369000</Element>
  </ColorMatrix2>
  <ForwardMatrix1 Rows="0" Cols="0"/>
  <ForwardMatrix2 Rows="0" Cols="0"/>
  <ReductionMatrix1 Rows="0" Cols="0"/>
  <ReductionMatrix2 Rows="0" Cols="0"/>
  <EmbedPolicy>3</EmbedPolicy>
    <UniqueCameraModelRestriction>Fujifilm FinePix F550EXR</UniqueCameraModelRestriction>
  <Copyright>CC-BY-SA 3.0, rawstudio.org</Copyright>
</dcpData>
