profiles/simple-src/Konica_Minolta_Maxxum_5D-simple.xml
<?xml version="1.0" encoding="UTF-8"?>
<!--
     License: CC-BY-SA 3.0

     This work is licensed under a 
     Creative Commons Attribution-ShareAlike 3.0 Unported License.

     See more at:
     http://creativecommons.org/licenses/by-sa/3.0/
-->
<dcpData>
  <ProfileName>Konica Minolta Maxxum 5D Simple</ProfileName>
  <CalibrationIlluminant1>17</CalibrationIlluminant1>
  <CalibrationIlluminant2>21</CalibrationIlluminant2>
  <ColorMatrix1 Rows="3" Cols="3">
    <Element Row="2" Col="2">0.655800</Element>
    <Element Row="2" Col="1">0.062800</Element>
    <Element Row="2" Col="0">-0.048900</Element>
    <Element Row="1" Col="2">0.269300</Element>
    <Element Row="1" Col="1">1.454300</Element>
    <Element Row="1" Col="0">-0.701600</Element>
    <Element Row="0" Col="2">0.016200</Element>
    <Element Row="0" Col="1">-0.562500</Element>
    <Element Row="0" Col="0">1.256100</Element>
  </ColorMatrix1>
  <ColorMatrix2 Rows="3" Cols="3">
    <Element Row="2" Col="2">0.664400</Element>
    <Element Row="2" Col="1">0.088200</Element>
    <Element Row="2" Col="0">-0.082900</Element>
    <Element Row="1" Col="2">0.231600</Element>
    <Element Row="1" Col="1">1.576200</Element>
    <Element Row="1" Col="0">-0.795700</Element>
    <Element Row="0" Col="2">-0.108600</Element>
    <Element Row="0" Col="1">-0.328300</Element>
    <Element Row="0" Col="0">1.028400</Element>
  </ColorMatrix2>
  <ForwardMatrix1 Rows="0" Cols="0"/>
  <ForwardMatrix2 Rows="0" Cols="0"/>
  <ReductionMatrix1 Rows="0" Cols="0"/>
  <ReductionMatrix2 Rows="0" Cols="0"/>
  <EmbedPolicy>3</EmbedPolicy>
  <UniqueCameraModelRestriction>Konica Minolta Maxxum 5D</UniqueCameraModelRestriction>
  <Copyright>CC-BY-SA 3.0, rawstudio.org</Copyright>
</dcpData>
