profiles/simple-src/Leaf_Valeo_6-simple.xml
<?xml version="1.0" encoding="UTF-8"?>
<!--
     License: CC-BY-SA 3.0

     This work is licensed under a 
     Creative Commons Attribution-ShareAlike 3.0 Unported License.

     See more at:
     http://creativecommons.org/licenses/by-sa/3.0/
-->
<dcpData>
  <ProfileName>Leaf Valeo 6 Simple</ProfileName>
  <CalibrationIlluminant1>21</CalibrationIlluminant1>
  <CalibrationIlluminant2>0</CalibrationIlluminant2>
  <ColorMatrix1 Rows="3" Cols="3">
    <Element Row="2" Col="2">0.653600</Element>
    <Element Row="2" Col="1">0.734900</Element>
    <Element Row="2" Col="0">-0.453600</Element>
    <Element Row="1" Col="2">0.227500</Element>
    <Element Row="1" Col="1">1.458500</Element>
    <Element Row="1" Col="0">-0.670100</Element>
    <Element Row="0" Col="2">0.044900</Element>
    <Element Row="0" Col="1">0.218900</Element>
    <Element Row="0" Col="0">0.395200</Element>
  </ColorMatrix1>
  <ColorMatrix2 Rows="0" Cols="0"/>
  <ForwardMatrix1 Rows="0" Cols="0"/>
  <ForwardMatrix2 Rows="0" Cols="0"/>
  <ReductionMatrix1 Rows="0" Cols="0"/>
  <ReductionMatrix2 Rows="0" Cols="0"/>
  <EmbedPolicy>3</EmbedPolicy>
  <UniqueCameraModelRestriction>Leaf Valeo 6</UniqueCameraModelRestriction>
  <Copyright>CC-BY-SA 3.0, rawstudio.org</Copyright>
</dcpData>
