profiles/simple-src/Leica-M8-simple.xml
<?xml version="1.0" encoding="UTF-8"?>
<!--
     License: CC-BY-SA 3.0

     This work is licensed under a 
     Creative Commons Attribution-ShareAlike 3.0 Unported License.

     See more at:
     http://creativecommons.org/licenses/by-sa/3.0/
-->
<dcpData>
  <ProfileName>Leica M8 Simple</ProfileName>
  <CalibrationIlluminant1>17</CalibrationIlluminant1>
  <CalibrationIlluminant2>21</CalibrationIlluminant2>
  <ColorMatrix1 Rows="3" Cols="3">
    <Element Row="2" Col="2">0.716000</Element>
    <Element Row="2" Col="1">0.247300</Element>
    <Element Row="2" Col="0">-0.088600</Element>
    <Element Row="1" Col="2">0.241900</Element>
    <Element Row="1" Col="1">1.217500</Element>
    <Element Row="1" Col="0">-0.432500</Element>
    <Element Row="0" Col="2">0.128000</Element>
    <Element Row="0" Col="1">-0.531500</Element>
    <Element Row="0" Col="0">1.047000</Element>
  </ColorMatrix1>
  <ColorMatrix2 Rows="3" Cols="3">
    <Element Row="2" Col="2">0.657800</Element>
    <Element Row="2" Col="1">0.400600</Element>
    <Element Row="2" Col="0">-0.242500</Element>
    <Element Row="1" Col="2">0.185600</Element>
    <Element Row="1" Col="1">1.411900</Element>
    <Element Row="1" Col="0">-0.586000</Element>
    <Element Row="0" Col="2">-0.030500</Element>
    <Element Row="0" Col="1">-0.219600</Element>
    <Element Row="0" Col="0">0.767500</Element>
  </ColorMatrix2>
  <ForwardMatrix1 Rows="0" Cols="0"/>
  <ForwardMatrix2 Rows="0" Cols="0"/>
  <ReductionMatrix1 Rows="0" Cols="0"/>
  <ReductionMatrix2 Rows="0" Cols="0"/>
  <EmbedPolicy>3</EmbedPolicy>
  <UniqueCameraModelRestriction>Leica M8</UniqueCameraModelRestriction>
  <Copyright>CC-BY-SA 3.0, rawstudio.org</Copyright>
</dcpData>
