profiles/simple-src/Leica-D-LUX-4-simple.xml
<?xml version="1.0" encoding="UTF-8"?>
<!--
     License: CC-BY-SA 3.0

     This work is licensed under a 
     Creative Commons Attribution-ShareAlike 3.0 Unported License.

     See more at:
     http://creativecommons.org/licenses/by-sa/3.0/
-->
<dcpData>
  <ProfileName>Leica D-LUX 4 Simple</ProfileName>
  <CalibrationIlluminant1>17</CalibrationIlluminant1>
  <CalibrationIlluminant2>21</CalibrationIlluminant2>
  <ColorMatrix1 Rows="3" Cols="3">
    <Element Row="2" Col="2">0.634800</Element>
    <Element Row="2" Col="1">0.153800</Element>
    <Element Row="2" Col="0">-0.067600</Element>
    <Element Row="1" Col="2">0.370500</Element>
    <Element Row="1" Col="1">1.122400</Element>
    <Element Row="1" Col="0">-0.444000</Element>
    <Element Row="0" Col="2">0.043000</Element>
    <Element Row="0" Col="1">-0.471600</Element>
    <Element Row="0" Col="0">0.994600</Element>
  </ColorMatrix1>
  <ColorMatrix2 Rows="3" Cols="3">
    <Element Row="2" Col="2">0.608300</Element>
    <Element Row="2" Col="1">0.256800</Element>
    <Element Row="2" Col="0">-0.178200</Element>
    <Element Row="1" Col="2">0.316100</Element>
    <Element Row="1" Col="1">1.330700</Element>
    <Element Row="1" Col="0">-0.613400</Element>
    <Element Row="0" Col="2">-0.065500</Element>
    <Element Row="0" Col="1">-0.266800</Element>
    <Element Row="0" Col="0">0.812800</Element>
  </ColorMatrix2>
  <ForwardMatrix1 Rows="0" Cols="0"/>
  <ForwardMatrix2 Rows="0" Cols="0"/>
  <ReductionMatrix1 Rows="0" Cols="0"/>
  <ReductionMatrix2 Rows="0" Cols="0"/>
  <EmbedPolicy>3</EmbedPolicy>
  <UniqueCameraModelRestriction>Leica D-LUX 4</UniqueCameraModelRestriction>
  <Copyright>CC-BY-SA 3.0, rawstudio.org</Copyright>
</dcpData>
