profiles/simple-src/Leica-S2-simple.xml
<?xml version="1.0" encoding="UTF-8"?>
<!--
     License: CC-BY-SA 3.0

     This work is licensed under a 
     Creative Commons Attribution-ShareAlike 3.0 Unported License.

     See more at:
     http://creativecommons.org/licenses/by-sa/3.0/
-->
<dcpData>
  <ProfileName>Leica S2 Simple</ProfileName>
  <CalibrationIlluminant1>17</CalibrationIlluminant1>
  <CalibrationIlluminant2>21</CalibrationIlluminant2>
  <ColorMatrix1 Rows="3" Cols="3">
    <Element Row="2" Col="2">0.811900</Element>
    <Element Row="2" Col="1">0.241400</Element>
    <Element Row="2" Col="0">-0.079500</Element>
    <Element Row="1" Col="2">0.268000</Element>
    <Element Row="1" Col="1">1.172400</Element>
    <Element Row="1" Col="0">-0.408100</Element>
    <Element Row="0" Col="2">-0.024400</Element>
    <Element Row="0" Col="1">-0.075300</Element>
    <Element Row="0" Col="0">0.525700</Element>
  </ColorMatrix1>
  <ColorMatrix2 Rows="3" Cols="3">
    <Element Row="2" Col="2">0.737900</Element>
    <Element Row="2" Col="1">0.294800</Element>
    <Element Row="2" Col="0">-0.104800</Element>
    <Element Row="1" Col="2">0.219200</Element>
    <Element Row="1" Col="1">1.245600</Element>
    <Element Row="1" Col="0">-0.442300</Element>
    <Element Row="0" Col="2">-0.044700</Element>
    <Element Row="0" Col="1">-0.072100</Element>
    <Element Row="0" Col="0">0.562700</Element>
  </ColorMatrix2>
  <ForwardMatrix1 Rows="0" Cols="0"/>
  <ForwardMatrix2 Rows="0" Cols="0"/>
  <ReductionMatrix1 Rows="0" Cols="0"/>
  <ReductionMatrix2 Rows="0" Cols="0"/>
  <EmbedPolicy>3</EmbedPolicy>
  <UniqueCameraModelRestriction>Leica S2</UniqueCameraModelRestriction>
  <Copyright>CC-BY-SA 3.0, rawstudio.org</Copyright>
</dcpData>
