profiles/simple-src/Nikon_Coolpix_A-simple.xml
<?xml version="1.0" encoding="UTF-8"?>
<!--
     License: CC-BY-SA 3.0

     This work is licensed under a
     Creative Commons Attribution-ShareAlike 3.0 Unported License.

     See more at:
     http://creativecommons.org/licenses/by-sa/3.0/
-->

<dcpData>
  <ProfileName>Nikon Coolpix A Simple</ProfileName>
  <CalibrationIlluminant1>17</CalibrationIlluminant1>
  <CalibrationIlluminant2>21</CalibrationIlluminant2>
  <ColorMatrix1 Rows="3" Cols="3">
    <Element Row="2" Col="2">0.781400</Element>
    <Element Row="2" Col="1">0.109900</Element>
    <Element Row="2" Col="0">-0.045300</Element>
    <Element Row="1" Col="2">0.342200</Element>
    <Element Row="1" Col="1">1.103300</Element>
    <Element Row="1" Col="0">-0.399900</Element>
    <Element Row="0" Col="2">-0.024300</Element>
    <Element Row="0" Col="1">-0.305800</Element>
    <Element Row="0" Col="0">0.864200</Element>
  </ColorMatrix1>
  <ColorMatrix2 Rows="3" Cols="3">
    <Element Row="2" Col="2">0.718100</Element>
    <Element Row="2" Col="1">0.205000</Element>
    <Element Row="2" Col="0">-0.104300</Element>
    <Element Row="1" Col="2">0.279800</Element>
    <Element Row="1" Col="1">1.238900</Element>
    <Element Row="1" Col="0">-0.487100</Element>
    <Element Row="0" Col="2">-0.072400</Element>
    <Element Row="0" Col="1">-0.223900</Element>
    <Element Row="0" Col="0">0.819800</Element>
  </ColorMatrix2>
  <ForwardMatrix1 Rows="3" Cols="3">
    <Element Row="2" Col="2">1.095900</Element>
    <Element Row="2" Col="1">-0.302400</Element>
    <Element Row="2" Col="0">0.031600</Element>
    <Element Row="1" Col="2">-0.126700</Element>
    <Element Row="1" Col="1">0.888800</Element>
    <Element Row="1" Col="0">0.237900</Element>
    <Element Row="0" Col="2">0.093100</Element>
    <Element Row="0" Col="1">0.157900</Element>
    <Element Row="0" Col="0">0.713200</Element>
  </ForwardMatrix1>
  <ForwardMatrix2 Rows="3" Cols="3">
    <Element Row="2" Col="2">0.990100</Element>
    <Element Row="2" Col="1">-0.180100</Element>
    <Element Row="2" Col="0">0.015100</Element>
    <Element Row="1" Col="2">-0.301900</Element>
    <Element Row="1" Col="1">1.034300</Element>
    <Element Row="1" Col="0">0.267600</Element>
    <Element Row="0" Col="2">-0.031400</Element>
    <Element Row="0" Col="1">0.308100</Element>
    <Element Row="0" Col="0">0.687600</Element>
  </ForwardMatrix2>
  <EmbedPolicy>3</EmbedPolicy>
  <UniqueCameraModelRestriction>Nikon Coolpix A</UniqueCameraModelRestriction>
  <Copyright>CC-BY-SA 3.0, rawstudio.org</Copyright>
</dcpData>