profiles/simple-src/Nikon_D7100-simple.xml
<?xml version="1.0" encoding="UTF-8"?>
<!--
     License: CC-BY-SA 3.0

     This work is licensed under a
     Creative Commons Attribution-ShareAlike 3.0 Unported License.

     See more at:
     http://creativecommons.org/licenses/by-sa/3.0/
-->

<dcpData>
  <ProfileName>Nikon D7100 Simple</ProfileName>
  <CalibrationIlluminant1>17</CalibrationIlluminant1>
  <CalibrationIlluminant2>21</CalibrationIlluminant2>
  <ColorMatrix1 Rows="3" Cols="3">
    <Element Row="2" Col="2">0.704100</Element>
    <Element Row="2" Col="1">0.075200</Element>
    <Element Row="2" Col="0">-0.036700</Element>
    <Element Row="1" Col="2">0.309800</Element>
    <Element Row="1" Col="1">1.260100</Element>
    <Element Row="1" Col="0">-0.534900</Element>
    <Element Row="0" Col="2">-0.046700</Element>
    <Element Row="0" Col="1">-0.374500</Element>
    <Element Row="0" Col="0">0.869300</Element>
  </ColorMatrix1>
  <ColorMatrix2 Rows="3" Cols="3">
    <Element Row="2" Col="2">0.639400</Element>
    <Element Row="2" Col="1">0.163800</Element>
    <Element Row="2" Col="0">-0.098800</Element>
    <Element Row="1" Col="2">0.217900</Element>
    <Element Row="1" Col="1">1.434200</Element>
    <Element Row="1" Col="0">-0.636700</Element>
    <Element Row="0" Col="2">-0.104700</Element>
    <Element Row="0" Col="1">-0.311200</Element>
    <Element Row="0" Col="0">0.832200</Element>
  </ColorMatrix2>
  <ForwardMatrix1 Rows="3" Cols="3">
    <Element Row="2" Col="2">1.015300</Element>
    <Element Row="2" Col="1">-0.216100</Element>
    <Element Row="2" Col="0">0.025900</Element>
    <Element Row="1" Col="2">-0.081200</Element>
    <Element Row="1" Col="1">0.804300</Element>
    <Element Row="1" Col="0">0.276800</Element>
    <Element Row="0" Col="2">0.096800</Element>
    <Element Row="0" Col="1">0.203800</Element>
    <Element Row="0" Col="0">0.663700</Element>
  </ForwardMatrix1>
  <ForwardMatrix2 Rows="3" Cols="3">
    <Element Row="2" Col="2">0.936800</Element>
    <Element Row="2" Col="1">-0.126600</Element>
    <Element Row="2" Col="0">0.014900</Element>
    <Element Row="1" Col="2">-0.163900</Element>
    <Element Row="1" Col="1">0.921500</Element>
    <Element Row="1" Col="0">0.242400</Element>
    <Element Row="0" Col="2">0.039400</Element>
    <Element Row="0" Col="1">0.371300</Element>
    <Element Row="0" Col="0">0.553600</Element>
  </ForwardMatrix2>
  <EmbedPolicy>3</EmbedPolicy>
  <UniqueCameraModelRestriction>Nikon D7100</UniqueCameraModelRestriction>
  <Copyright>CC-BY-SA 3.0, rawstudio.org</Copyright>
</dcpData>