profiles/simple-src/Olympus_XZ-10-simple.xml
<?xml version="1.0" encoding="UTF-8"?>
<!--
     License: CC-BY-SA 3.0

     This work is licensed under a
     Creative Commons Attribution-ShareAlike 3.0 Unported License.

     See more at:
     http://creativecommons.org/licenses/by-sa/3.0/
-->

<dcpData>
  <ProfileName>Olympus XZ-10 Simple</ProfileName>
  <CalibrationIlluminant1>17</CalibrationIlluminant1>
  <CalibrationIlluminant2>21</CalibrationIlluminant2>
  <ColorMatrix1 Rows="3" Cols="3">
    <Element Row="2" Col="2">0.539900</Element>
    <Element Row="2" Col="1">0.087200</Element>
    <Element Row="2" Col="0">-0.006400</Element>
    <Element Row="1" Col="2">0.306800</Element>
    <Element Row="1" Col="1">0.953000</Element>
    <Element Row="1" Col="0">-0.213800</Element>
    <Element Row="0" Col="2">0.035800</Element>
    <Element Row="0" Col="1">-0.436600</Element>
    <Element Row="0" Col="0">1.001300</Element>
  </ColorMatrix1>
  <ColorMatrix2 Rows="3" Cols="3">
    <Element Row="2" Col="2">0.513400</Element>
    <Element Row="2" Col="1">0.166300</Element>
    <Element Row="2" Col="0">-0.060200</Element>
    <Element Row="1" Col="2">0.180000</Element>
    <Element Row="1" Col="1">1.129700</Element>
    <Element Row="1" Col="0">-0.288600</Element>
    <Element Row="0" Col="2">-0.092500</Element>
    <Element Row="0" Col="1">-0.348300</Element>
    <Element Row="0" Col="0">0.977700</Element>
  </ColorMatrix2>
  <ForwardMatrix1 Rows="3" Cols="3">
    <Element Row="2" Col="2">1.315400</Element>
    <Element Row="2" Col="1">-0.467000</Element>
    <Element Row="2" Col="0">-0.023300</Element>
    <Element Row="1" Col="2">-0.148700</Element>
    <Element Row="1" Col="1">1.042900</Element>
    <Element Row="1" Col="0">0.105800</Element>
    <Element Row="0" Col="2">0.070400</Element>
    <Element Row="0" Col="1">0.259500</Element>
    <Element Row="0" Col="0">0.634400</Element>
  </ForwardMatrix1>
  <ForwardMatrix2 Rows="3" Cols="3">
    <Element Row="2" Col="2">1.028300</Element>
    <Element Row="2" Col="1">-0.214700</Element>
    <Element Row="2" Col="0">0.011400</Element>
    <Element Row="1" Col="2">-0.226900</Element>
    <Element Row="1" Col="1">1.077300</Element>
    <Element Row="1" Col="0">0.149600</Element>
    <Element Row="0" Col="2">-0.017500</Element>
    <Element Row="0" Col="1">0.415900</Element>
    <Element Row="0" Col="0">0.565900</Element>
  </ForwardMatrix2>
  <EmbedPolicy>3</EmbedPolicy>
  <UniqueCameraModelRestriction>Olympus XZ-10</UniqueCameraModelRestriction>
  <Copyright>CC-BY-SA 3.0, rawstudio.org</Copyright>
</dcpData>