profiles/simple-src/OLYMPUS_XZ-1-simple.xml
<?xml version="1.0" encoding="UTF-8"?>
<!--
     License: CC-BY-SA 3.0

     This work is licensed under a 
     Creative Commons Attribution-ShareAlike 3.0 Unported License.

     See more at:
     http://creativecommons.org/licenses/by-sa/3.0/
-->
<dcpData>
  <ProfileName>OLYMPUS XZ-1 Simple</ProfileName>
  <CalibrationIlluminant1>17</CalibrationIlluminant1>
  <CalibrationIlluminant2>21</CalibrationIlluminant2>
  <ColorMatrix1 Rows="3" Cols="3">
    <Element Row="2" Col="2">0.567200</Element>
    <Element Row="2" Col="1">0.082400</Element>
    <Element Row="2" Col="0">0.027200</Element>
    <Element Row="1" Col="2">0.282200</Element>
    <Element Row="1" Col="1">0.848500</Element>
    <Element Row="1" Col="0">-0.084300</Element>
    <Element Row="0" Col="2">-0.030700</Element>
    <Element Row="0" Col="1">-0.504600</Element>
    <Element Row="0" Col="0">1.128300</Element>
  </ColorMatrix1>
  <ColorMatrix2 Rows="3" Cols="3">
    <Element Row="2" Col="2">0.515800</Element>
    <Element Row="2" Col="1">0.141700</Element>
    <Element Row="2" Col="0">-0.006200</Element>
    <Element Row="1" Col="2">0.229300</Element>
    <Element Row="1" Col="1">0.920800</Element>
    <Element Row="1" Col="0">-0.114100</Element>
    <Element Row="0" Col="2">-0.107400</Element>
    <Element Row="0" Col="1">-0.409500</Element>
    <Element Row="0" Col="0">1.090100</Element>
  </ColorMatrix2>
  <ForwardMatrix1 Rows="0" Cols="0"/>
  <ForwardMatrix2 Rows="0" Cols="0"/>
  <ReductionMatrix1 Rows="0" Cols="0"/>
  <ReductionMatrix2 Rows="0" Cols="0"/>
  <EmbedPolicy>3</EmbedPolicy>
  <UniqueCameraModelRestriction>Olympus XZ-1</UniqueCameraModelRestriction>
  <Copyright>CC-BY-SA 3.0, rawstudio.org</Copyright>
</dcpData>
