profiles/simple-src/OLYMPUS_E-PL2-simple.xml
<?xml version="1.0" encoding="UTF-8"?>
<!--
     License: CC-BY-SA 3.0

     This work is licensed under a 
     Creative Commons Attribution-ShareAlike 3.0 Unported License.

     See more at:
     http://creativecommons.org/licenses/by-sa/3.0/
-->
<dcpData>
  <ProfileName>OLYMPUS E-PL2 Simple</ProfileName>
  <CalibrationIlluminant1>17</CalibrationIlluminant1>
  <CalibrationIlluminant2>21</CalibrationIlluminant2>
  <ColorMatrix1 Rows="3" Cols="3">
    <Element Row="2" Col="2">0.749400</Element>
    <Element Row="2" Col="1">0.112400</Element>
    <Element Row="2" Col="0">-0.028000</Element>
    <Element Row="1" Col="2">0.222400</Element>
    <Element Row="1" Col="1">1.150600</Element>
    <Element Row="1" Col="0">-0.351200</Element>
    <Element Row="0" Col="2">-0.101500</Element>
    <Element Row="0" Col="1">-0.659000</Element>
    <Element Row="0" Col="0">1.543200</Element>
  </ColorMatrix1>
  <ColorMatrix2 Rows="3" Cols="3">
    <Element Row="2" Col="2">0.702300</Element>
    <Element Row="2" Col="1">0.167000</Element>
    <Element Row="2" Col="0">-0.059200</Element>
    <Element Row="1" Col="2">0.176700</Element>
    <Element Row="1" Col="1">1.238700</Element>
    <Element Row="1" Col="0">-0.398700</Element>
    <Element Row="0" Col="2">-0.180600</Element>
    <Element Row="0" Col="1">-0.555200</Element>
    <Element Row="0" Col="0">1.503000</Element>
  </ColorMatrix2>
  <ForwardMatrix1 Rows="0" Cols="0"/>
  <ForwardMatrix2 Rows="0" Cols="0"/>
  <ReductionMatrix1 Rows="0" Cols="0"/>
  <ReductionMatrix2 Rows="0" Cols="0"/>
  <EmbedPolicy>3</EmbedPolicy>
  <UniqueCameraModelRestriction>Olympus E-PL2</UniqueCameraModelRestriction>
  <Copyright>CC-BY-SA 3.0, rawstudio.org</Copyright>
</dcpData>
