profiles/simple-src/OLYMPUS_E-PL1s-simple.xml
<?xml version="1.0" encoding="UTF-8"?>
<!--
     License: CC-BY-SA 3.0

     This work is licensed under a 
     Creative Commons Attribution-ShareAlike 3.0 Unported License.

     See more at:
     http://creativecommons.org/licenses/by-sa/3.0/
-->
<dcpData>
  <ProfileName>OLYMPUS E-PL1s Simple</ProfileName>
  <CalibrationIlluminant1>17</CalibrationIlluminant1>
  <CalibrationIlluminant2>21</CalibrationIlluminant2>
  <ColorMatrix1 Rows="3" Cols="3">
    <Element Row="2" Col="2">0.795900</Element>
    <Element Row="2" Col="1">0.118500</Element>
    <Element Row="2" Col="0">-0.032900</Element>
    <Element Row="1" Col="2">0.251300</Element>
    <Element Row="1" Col="1">1.169700</Element>
    <Element Row="1" Col="0">-0.391100</Element>
    <Element Row="0" Col="2">-0.068700</Element>
    <Element Row="0" Col="1">-0.484800</Element>
    <Element Row="0" Col="0">1.180000</Element>
  </ColorMatrix1>
  <ColorMatrix2 Rows="3" Cols="3">
    <Element Row="2" Col="2">0.741500</Element>
    <Element Row="2" Col="1">0.181000</Element>
    <Element Row="2" Col="0">-0.070900</Element>
    <Element Row="1" Col="2">0.200300</Element>
    <Element Row="1" Col="1">1.275700</Element>
    <Element Row="1" Col="0">-0.457200</Element>
    <Element Row="0" Col="2">-0.139300</Element>
    <Element Row="0" Col="1">-0.387200</Element>
    <Element Row="0" Col="0">1.140900</Element>
  </ColorMatrix2>
  <ForwardMatrix1 Rows="0" Cols="0"/>
  <ForwardMatrix2 Rows="0" Cols="0"/>
  <ReductionMatrix1 Rows="0" Cols="0"/>
  <ReductionMatrix2 Rows="0" Cols="0"/>
  <EmbedPolicy>3</EmbedPolicy>
  <UniqueCameraModelRestriction>Olympus E-PL1s</UniqueCameraModelRestriction>
  <Copyright>CC-BY-SA 3.0, rawstudio.org</Copyright>
</dcpData>
