profiles/simple-src/Panasonic_FZ40-simple.xml
<?xml version="1.0" encoding="UTF-8"?>
<!--
     License: CC-BY-SA 3.0

     This work is licensed under a 
     Creative Commons Attribution-ShareAlike 3.0 Unported License.

     See more at:
     http://creativecommons.org/licenses/by-sa/3.0/
-->
<dcpData>
  <ProfileName>Panasonic DMC-FZ40 Simple</ProfileName>
  <CalibrationIlluminant1>17</CalibrationIlluminant1>
  <CalibrationIlluminant2>21</CalibrationIlluminant2>
  <ColorMatrix1 Rows="3" Cols="3">
    <Element Row="2" Col="2">0.480400</Element>
    <Element Row="2" Col="1">0.025000</Element>
    <Element Row="2" Col="0">0.087900</Element>
    <Element Row="1" Col="2">0.316300</Element>
    <Element Row="1" Col="1">0.813900</Element>
    <Element Row="1" Col="0">-0.077600</Element>
    <Element Row="0" Col="2">-0.017300</Element>
    <Element Row="0" Col="1">-0.778400</Element>
    <Element Row="0" Col="0">1.510300</Element>
  </ColorMatrix1>
  <ColorMatrix2 Rows="3" Cols="3">
    <Element Row="2" Col="2">0.410800</Element>
    <Element Row="2" Col="1">0.115200</Element>
    <Element Row="2" Col="0">0.031600</Element>
    <Element Row="1" Col="2">0.243000</Element>
    <Element Row="1" Col="1">0.963300</Element>
    <Element Row="1" Col="0">-0.169800</Element>
    <Element Row="0" Col="2">-0.137100</Element>
    <Element Row="0" Col="1">-0.553500</Element>
    <Element Row="0" Col="0">1.363900</Element>
  </ColorMatrix2>
  <ForwardMatrix1 Rows="0" Cols="0"/>
  <ForwardMatrix2 Rows="0" Cols="0"/>
  <ReductionMatrix1 Rows="0" Cols="0"/>
  <ReductionMatrix2 Rows="0" Cols="0"/>
  <EmbedPolicy>3</EmbedPolicy>
  <UniqueCameraModelRestriction>Panasonic DMC-FZ40</UniqueCameraModelRestriction>
  <Copyright>CC-BY-SA 3.0, rawstudio.org</Copyright>
</dcpData>
