profiles/simple-src/Panasonic_DMC-LX7-simple.xml
<?xml version="1.0" encoding="UTF-8"?>
<!--
     License: CC-BY-SA 3.0

     This work is licensed under a 
     Creative Commons Attribution-ShareAlike 3.0 Unported License.

     See more at:
     http://creativecommons.org/licenses/by-sa/3.0/
-->
<dcpData>
  <ProfileName>Panasonic DMC-LX7 Simple</ProfileName>
  <CalibrationIlluminant1>17</CalibrationIlluminant1>
  <CalibrationIlluminant2>21</CalibrationIlluminant2>
  <ColorMatrix1 Rows="3" Cols="3">
    <Element Row="2" Col="2">0.537800</Element>
    <Element Row="2" Col="1">0.080700</Element>
    <Element Row="2" Col="0">0.006600</Element>
    <Element Row="1" Col="2">0.296200</Element>
    <Element Row="1" Col="1">0.933900</Element>
    <Element Row="1" Col="0">-0.184900</Element>
    <Element Row="0" Col="2">0.041000</Element>
    <Element Row="0" Col="1">-0.538600</Element>
    <Element Row="0" Col="0">1.112700</Element>
  </ColorMatrix1>
  <ColorMatrix2 Rows="3" Cols="3">
    <Element Row="2" Col="2">0.489900</Element>
    <Element Row="2" Col="1">0.189300</Element>
    <Element Row="2" Col="0">-0.070100</Element>
    <Element Row="1" Col="2">0.165900</Element>
    <Element Row="1" Col="1">1.136600</Element>
    <Element Row="1" Col="0">-0.283700</Element>
    <Element Row="0" Col="2">-0.099100</Element>
    <Element Row="0" Col="1">-0.374300</Element>
    <Element Row="0" Col="0">1.014800</Element>
  </ColorMatrix2>
  <ForwardMatrix1 Rows="0" Cols="0"/>
  <ForwardMatrix2 Rows="0" Cols="0"/>
  <ReductionMatrix1 Rows="0" Cols="0"/>
  <ReductionMatrix2 Rows="0" Cols="0"/>
  <EmbedPolicy>3</EmbedPolicy>
  <UniqueCameraModelRestriction>Panasonic DMC-LX7</UniqueCameraModelRestriction>
  <Copyright>CC-BY-SA 3.0, rawstudio.org</Copyright>
</dcpData>
