profiles/simple-src/Panasonic_DMC-FZ200-simple.xml
<?xml version="1.0" encoding="UTF-8"?>
<!--
     License: CC-BY-SA 3.0

     This work is licensed under a 
     Creative Commons Attribution-ShareAlike 3.0 Unported License.

     See more at:
     http://creativecommons.org/licenses/by-sa/3.0/
-->
<dcpData>
  <ProfileName>Panasonic DMC-FZ200 Simple</ProfileName>
  <CalibrationIlluminant1>17</CalibrationIlluminant1>
  <CalibrationIlluminant2>21</CalibrationIlluminant2>
  <ColorMatrix1 Rows="3" Cols="3">
    <Element Row="2" Col="2">0.549000</Element>
    <Element Row="2" Col="1">0.099300</Element>
    <Element Row="2" Col="0">-0.016000</Element>
    <Element Row="1" Col="2">0.349300</Element>
    <Element Row="1" Col="1">0.948800</Element>
    <Element Row="1" Col="0">-0.245800</Element>
    <Element Row="0" Col="2">0.053300</Element>
    <Element Row="0" Col="1">-0.350000</Element>
    <Element Row="0" Col="0">0.845200</Element>
  </ColorMatrix1>
  <ColorMatrix2 Rows="3" Cols="3">
    <Element Row="2" Col="2">0.493300</Element>
    <Element Row="2" Col="1">0.207500</Element>
    <Element Row="2" Col="0">-0.094100</Element>
    <Element Row="1" Col="2">0.219700</Element>
    <Element Row="1" Col="1">1.178400</Element>
    <Element Row="1" Col="0">-0.373000</Element>
    <Element Row="0" Col="2">-0.074000</Element>
    <Element Row="0" Col="1">-0.256300</Element>
    <Element Row="0" Col="0">0.811200</Element>
  </ColorMatrix2>
  <ForwardMatrix1 Rows="0" Cols="0"/>
  <ForwardMatrix2 Rows="0" Cols="0"/>
  <ReductionMatrix1 Rows="0" Cols="0"/>
  <ReductionMatrix2 Rows="0" Cols="0"/>
  <EmbedPolicy>3</EmbedPolicy>
  <UniqueCameraModelRestriction>Panasonic DMC-FZ200</UniqueCameraModelRestriction>
  <Copyright>CC-BY-SA 3.0, rawstudio.org</Copyright>
</dcpData>
