profiles/simple-src/Panasonic_FZ100-simple.xml
<?xml version="1.0" encoding="UTF-8"?>
<!--
     License: CC-BY-SA 3.0

     This work is licensed under a 
     Creative Commons Attribution-ShareAlike 3.0 Unported License.

     See more at:
     http://creativecommons.org/licenses/by-sa/3.0/
-->
<dcpData>
  <ProfileName>Panasonic DMC-FZ100 Simple</ProfileName>
  <CalibrationIlluminant1>17</CalibrationIlluminant1>
  <CalibrationIlluminant2>21</CalibrationIlluminant2>
  <ColorMatrix1 Rows="3" Cols="3">
    <Element Row="2" Col="2">0.624000</Element>
    <Element Row="2" Col="1">0.092400</Element>
    <Element Row="2" Col="0">0.122600</Element>
    <Element Row="1" Col="2">0.263900</Element>
    <Element Row="1" Col="1">0.893600</Element>
    <Element Row="1" Col="0">-0.115500</Element>
    <Element Row="0" Col="2">-0.032600</Element>
    <Element Row="0" Col="1">-0.933500</Element>
    <Element Row="0" Col="0">1.848100</Element>
  </ColorMatrix1>
  <ColorMatrix2 Rows="3" Cols="3">
    <Element Row="2" Col="2">0.524800</Element>
    <Element Row="2" Col="1">0.223800</Element>
    <Element Row="2" Col="0">0.036600</Element>
    <Element Row="1" Col="2">0.186900</Element>
    <Element Row="1" Col="1">1.076500</Element>
    <Element Row="1" Col="0">-0.239300</Element>
    <Element Row="0" Col="2">-0.176100</Element>
    <Element Row="0" Col="1">-0.614600</Element>
    <Element Row="0" Col="0">1.619700</Element>
  </ColorMatrix2>
  <ForwardMatrix1 Rows="0" Cols="0"/>
  <ForwardMatrix2 Rows="0" Cols="0"/>
  <ReductionMatrix1 Rows="0" Cols="0"/>
  <ReductionMatrix2 Rows="0" Cols="0"/>
  <EmbedPolicy>3</EmbedPolicy>
  <UniqueCameraModelRestriction>Panasonic DMC-FZ100</UniqueCameraModelRestriction>
  <Copyright>CC-BY-SA 3.0, rawstudio.org</Copyright>
</dcpData>
