profiles/simple-src/Panasonic_DMC-FZ70-simple.xml
<?xml version="1.0" encoding="UTF-8"?>
<!--
     License: CC-BY-SA 3.0

     This work is licensed under a
     Creative Commons Attribution-ShareAlike 3.0 Unported License.

     See more at:
     http://creativecommons.org/licenses/by-sa/3.0/
-->

<dcpData>
  <ProfileName>Panasonic DMC-FZ70 Simple</ProfileName>
  <CalibrationIlluminant1>17</CalibrationIlluminant1>
  <CalibrationIlluminant2>21</CalibrationIlluminant2>
  <ColorMatrix1 Rows="3" Cols="3">
    <Element Row="2" Col="2">0.515800</Element>
    <Element Row="2" Col="1">0.072600</Element>
    <Element Row="2" Col="0">0.021100</Element>
    <Element Row="1" Col="2">0.268200</Element>
    <Element Row="1" Col="1">0.911300</Element>
    <Element Row="1" Col="0">-0.137500</Element>
    <Element Row="0" Col="2">0.077700</Element>
    <Element Row="0" Col="1">-0.646600</Element>
    <Element Row="0" Col="0">1.307300</Element>
  </ColorMatrix1>
  <ColorMatrix2 Rows="3" Cols="3">
    <Element Row="2" Col="2">0.435100</Element>
    <Element Row="2" Col="1">0.169900</Element>
    <Element Row="2" Col="0">-0.056400</Element>
    <Element Row="1" Col="2">0.174900</Element>
    <Element Row="1" Col="1">1.084700</Element>
    <Element Row="1" Col="0">-0.237500</Element>
    <Element Row="0" Col="2">-0.106600</Element>
    <Element Row="0" Col="1">-0.432400</Element>
    <Element Row="0" Col="0">1.153200</Element>
  </ColorMatrix2>
  <ForwardMatrix1 Rows="3" Cols="3">
    <Element Row="2" Col="2">0.825100</Element>
    <Element Row="2" Col="1">0.000000</Element>
    <Element Row="2" Col="0">0.000000</Element>
    <Element Row="1" Col="2">0.000100</Element>
    <Element Row="1" Col="1">0.711900</Element>
    <Element Row="1" Col="0">0.288000</Element>
    <Element Row="0" Col="2">0.031300</Element>
    <Element Row="0" Col="1">0.135200</Element>
    <Element Row="0" Col="0">0.797800</Element>
  </ForwardMatrix1>
  <ForwardMatrix2 Rows="3" Cols="3">
    <Element Row="2" Col="2">0.825100</Element>
    <Element Row="2" Col="1">0.000000</Element>
    <Element Row="2" Col="0">0.000000</Element>
    <Element Row="1" Col="2">0.000100</Element>
    <Element Row="1" Col="1">0.711900</Element>
    <Element Row="1" Col="0">0.288000</Element>
    <Element Row="0" Col="2">0.031300</Element>
    <Element Row="0" Col="1">0.135200</Element>
    <Element Row="0" Col="0">0.797800</Element>
  </ForwardMatrix2>
  <EmbedPolicy>3</EmbedPolicy>
  <UniqueCameraModelRestriction>Panasonic DMC-FZ70</UniqueCameraModelRestriction>
  <Copyright>CC-BY-SA 3.0, rawstudio.org</Copyright>
</dcpData>