profiles/simple-src/Panasonic_DMC-G6-simple.xml
<?xml version="1.0" encoding="UTF-8"?>
<!--
     License: CC-BY-SA 3.0

     This work is licensed under a
     Creative Commons Attribution-ShareAlike 3.0 Unported License.

     See more at:
     http://creativecommons.org/licenses/by-sa/3.0/
-->

<dcpData>
  <ProfileName>Panasonic DMC-G6 Simple</ProfileName>
  <CalibrationIlluminant1>17</CalibrationIlluminant1>
  <CalibrationIlluminant2>21</CalibrationIlluminant2>
  <ColorMatrix1 Rows="3" Cols="3">
    <Element Row="2" Col="2">0.626900</Element>
    <Element Row="2" Col="1">0.155500</Element>
    <Element Row="2" Col="0">-0.059900</Element>
    <Element Row="1" Col="2">0.306800</Element>
    <Element Row="1" Col="1">1.075300</Element>
    <Element Row="1" Col="0">-0.340700</Element>
    <Element Row="0" Col="2">0.027000</Element>
    <Element Row="0" Col="1">-0.375500</Element>
    <Element Row="0" Col="0">0.890000</Element>
  </ColorMatrix1>
  <ColorMatrix2 Rows="3" Cols="3">
    <Element Row="2" Col="2">0.535200</Element>
    <Element Row="2" Col="1">0.226700</Element>
    <Element Row="2" Col="0">-0.118300</Element>
    <Element Row="1" Col="2">0.259500</Element>
    <Element Row="1" Col="1">1.159000</Element>
    <Element Row="1" Col="0">-0.386900</Element>
    <Element Row="0" Col="2">-0.065100</Element>
    <Element Row="0" Col="1">-0.289100</Element>
    <Element Row="0" Col="0">0.829400</Element>
  </ColorMatrix2>
  <ForwardMatrix1 Rows="3" Cols="3">
    <Element Row="2" Col="2">0.825100</Element>
    <Element Row="2" Col="1">0.000000</Element>
    <Element Row="2" Col="0">0.000000</Element>
    <Element Row="1" Col="2">0.000100</Element>
    <Element Row="1" Col="1">0.711900</Element>
    <Element Row="1" Col="0">0.288000</Element>
    <Element Row="0" Col="2">0.031300</Element>
    <Element Row="0" Col="1">0.135200</Element>
    <Element Row="0" Col="0">0.797800</Element>
  </ForwardMatrix1>
  <ForwardMatrix2 Rows="3" Cols="3">
    <Element Row="2" Col="2">0.825100</Element>
    <Element Row="2" Col="1">0.000000</Element>
    <Element Row="2" Col="0">0.000000</Element>
    <Element Row="1" Col="2">0.000100</Element>
    <Element Row="1" Col="1">0.711900</Element>
    <Element Row="1" Col="0">0.288000</Element>
    <Element Row="0" Col="2">0.031300</Element>
    <Element Row="0" Col="1">0.135200</Element>
    <Element Row="0" Col="0">0.797800</Element>
  </ForwardMatrix2>
  <EmbedPolicy>3</EmbedPolicy>
  <UniqueCameraModelRestriction>Panasonic DMC-G6</UniqueCameraModelRestriction>
  <Copyright>CC-BY-SA 3.0, rawstudio.org</Copyright>
</dcpData>