profiles/simple-src/Panasonic_DMC-G5-simple.xml
<?xml version="1.0" encoding="UTF-8"?>
<!--
     License: CC-BY-SA 3.0

     This work is licensed under a 
     Creative Commons Attribution-ShareAlike 3.0 Unported License.

     See more at:
     http://creativecommons.org/licenses/by-sa/3.0/
-->
<dcpData>
  <ProfileName>Panasonic DMC-G5 Simple</ProfileName>
  <CalibrationIlluminant1>17</CalibrationIlluminant1>
  <CalibrationIlluminant2>21</CalibrationIlluminant2>
  <ColorMatrix1 Rows="3" Cols="3">
    <Element Row="2" Col="2">0.629000</Element>
    <Element Row="2" Col="1">0.131100</Element>
    <Element Row="2" Col="0">-0.040100</Element>
    <Element Row="1" Col="2">0.328900</Element>
    <Element Row="1" Col="1">1.046300</Element>
    <Element Row="1" Col="0">-0.329400</Element>
    <Element Row="0" Col="2">-0.017200</Element>
    <Element Row="0" Col="1">-0.311000</Element>
    <Element Row="0" Col="0">0.808700</Element>
  </ColorMatrix1>
  <ColorMatrix2 Rows="3" Cols="3">
    <Element Row="2" Col="2">0.543400</Element>
    <Element Row="2" Col="1">0.224800</Element>
    <Element Row="2" Col="0">-0.105500</Element>
    <Element Row="1" Col="2">0.261300</Element>
    <Element Row="1" Col="1">1.158400</Element>
    <Element Row="1" Col="0">-0.387900</Element>
    <Element Row="0" Col="2">-0.074000</Element>
    <Element Row="0" Col="1">-0.256200</Element>
    <Element Row="0" Col="0">0.779800</Element>
  </ColorMatrix2>
  <ForwardMatrix1 Rows="0" Cols="0"/>
  <ForwardMatrix2 Rows="0" Cols="0"/>
  <ReductionMatrix1 Rows="0" Cols="0"/>
  <ReductionMatrix2 Rows="0" Cols="0"/>
  <EmbedPolicy>3</EmbedPolicy>
  <UniqueCameraModelRestriction>Panasonic DMC-G5</UniqueCameraModelRestriction>
  <Copyright>CC-BY-SA 3.0, rawstudio.org</Copyright>
</dcpData>
