profiles/simple-src/Panasonic_DMC-GF3-simple.xml
<?xml version="1.0" encoding="UTF-8"?>
<!--
     License: CC-BY-SA 3.0

     This work is licensed under a 
     Creative Commons Attribution-ShareAlike 3.0 Unported License.

     See more at:
     http://creativecommons.org/licenses/by-sa/3.0/
-->
<dcpData>
  <ProfileName>Panasonic DMC-GF3 Simple</ProfileName>
  <CalibrationIlluminant1>21</CalibrationIlluminant1>
  <CalibrationIlluminant2>0</CalibrationIlluminant2>
  <ColorMatrix1 Rows="3" Cols="3">
    <Element Row="0" Col="0">0.8407</Element>
    <Element Row="0" Col="1">-0.3261</Element>
    <Element Row="0" Col="2">-0.0502</Element>
    <Element Row="1" Col="0">-0.3997</Element>
    <Element Row="1" Col="1">1.0651</Element>
    <Element Row="1" Col="2">0.3347</Element>
    <Element Row="2" Col="0">-0.1095</Element>
    <Element Row="2" Col="1">0.2742</Element>
    <Element Row="2" Col="2">0.7294</Element>
  </ColorMatrix1>
  <ColorMatrix2 Rows="0" Cols="0"/>
  <ForwardMatrix1 Rows="0" Cols="0"/>
  <ForwardMatrix2 Rows="0" Cols="0"/>
  <ReductionMatrix1 Rows="0" Cols="0"/>
  <ReductionMatrix2 Rows="0" Cols="0"/>
  <EmbedPolicy>3</EmbedPolicy>
  <UniqueCameraModelRestriction>Panasonic DMC-GF3</UniqueCameraModelRestriction>
  <Copyright>CC-BY-SA 3.0, rawstudio.org</Copyright>
</dcpData>
