profiles/simple-src/Panasonic_DMC-GH2-simple.xml
<?xml version="1.0" encoding="UTF-8"?>
<!--
     License: CC-BY-SA 3.0

     This work is licensed under a 
     Creative Commons Attribution-ShareAlike 3.0 Unported License.

     See more at:
     http://creativecommons.org/licenses/by-sa/3.0/
-->
<dcpData>
  <ProfileName>Panasonic DMC-GH2 Simple</ProfileName>
  <CalibrationIlluminant1>17</CalibrationIlluminant1>
  <CalibrationIlluminant2>21</CalibrationIlluminant2>
  <ColorMatrix1 Rows="3" Cols="3">
    <Element Row="2" Col="2">0.605000</Element>
    <Element Row="2" Col="1">0.150400</Element>
    <Element Row="2" Col="0">-0.050000</Element>
    <Element Row="1" Col="2">0.308300</Element>
    <Element Row="1" Col="1">1.062000</Element>
    <Element Row="1" Col="0">-0.328100</Element>
    <Element Row="0" Col="2">-0.040900</Element>
    <Element Row="0" Col="1">-0.286400</Element>
    <Element Row="0" Col="0">0.797000</Element>
  </ColorMatrix1>
  <ColorMatrix2 Rows="3" Cols="3">
    <Element Row="2" Col="2">0.529800</Element>
    <Element Row="2" Col="1">0.239000</Element>
    <Element Row="2" Col="0">-0.101800</Element>
    <Element Row="1" Col="2">0.248400</Element>
    <Element Row="1" Col="1">1.172400</Element>
    <Element Row="1" Col="0">-0.391300</Element>
    <Element Row="0" Col="2">-0.080600</Element>
    <Element Row="0" Col="1">-0.241000</Element>
    <Element Row="0" Col="0">0.778000</Element>
  </ColorMatrix2>
  <ForwardMatrix1 Rows="0" Cols="0"/>
  <ForwardMatrix2 Rows="0" Cols="0"/>
  <ReductionMatrix1 Rows="0" Cols="0"/>
  <ReductionMatrix2 Rows="0" Cols="0"/>
  <EmbedPolicy>3</EmbedPolicy>
  <UniqueCameraModelRestriction>Panasonic DMC-GH2</UniqueCameraModelRestriction>
  <Copyright>CC-BY-SA 3.0, rawstudio.org</Copyright>
</dcpData>
