profiles/simple-src/PENTAX_K-01-simple.xml
<?xml version="1.0" encoding="UTF-8"?>
<!--
     License: CC-BY-SA 3.0

     This work is licensed under a 
     Creative Commons Attribution-ShareAlike 3.0 Unported License.

     See more at:
     http://creativecommons.org/licenses/by-sa/3.0/
-->
<dcpData>
  <ProfileName>PENTAX K-01 Simple</ProfileName>
  <CalibrationIlluminant1>17</CalibrationIlluminant1>
  <CalibrationIlluminant2>21</CalibrationIlluminant2>
  <ColorMatrix1 Rows="3" Cols="3">
    <Element Row="2" Col="2">0.687600</Element>
    <Element Row="2" Col="1">0.037600</Element>
    <Element Row="2" Col="0">-0.018000</Element>
    <Element Row="1" Col="2">0.428700</Element>
    <Element Row="1" Col="1">0.983400</Element>
    <Element Row="1" Col="0">-0.349600</Element>
    <Element Row="0" Col="2">-0.082400</Element>
    <Element Row="0" Col="1">-0.497700</Element>
    <Element Row="0" Col="0">1.004800</Element>
  </ColorMatrix1>
  <ColorMatrix2 Rows="3" Cols="3">
    <Element Row="2" Col="2">0.658700</Element>
    <Element Row="2" Col="1">0.173200</Element>
    <Element Row="2" Col="0">-0.098800</Element>
    <Element Row="1" Col="2">0.188100</Element>
    <Element Row="1" Col="1">1.230100</Element>
    <Element Row="1" Col="0">-0.399500</Element>
    <Element Row="0" Col="2">-0.116000</Element>
    <Element Row="0" Col="1">-0.261700</Element>
    <Element Row="0" Col="0">0.865800</Element>
  </ColorMatrix2>
  <ForwardMatrix1 Rows="0" Cols="0"/>
  <ForwardMatrix2 Rows="0" Cols="0"/>
  <ReductionMatrix1 Rows="0" Cols="0"/>
  <ReductionMatrix2 Rows="0" Cols="0"/>
  <EmbedPolicy>3</EmbedPolicy>
  <UniqueCameraModelRestriction>PPENTAX K-01</UniqueCameraModelRestriction>
  <Copyright>CC-BY-SA 3.0, rawstudio.org</Copyright>
</dcpData>
