profiles/simple-src/PENTAX_K10D-simple.xml
<?xml version="1.0" encoding="UTF-8"?>
<!--
     License: CC-BY-SA 3.0

     This work is licensed under a 
     Creative Commons Attribution-ShareAlike 3.0 Unported License.

     See more at:
     http://creativecommons.org/licenses/by-sa/3.0/
-->
<dcpData>
  <ProfileName>PENTAX K10D Simple</ProfileName>
  <CalibrationIlluminant1>21</CalibrationIlluminant1>
  <CalibrationIlluminant2>0</CalibrationIlluminant2>
  <ColorMatrix1 Rows="3" Cols="3">
    <Element Row="2" Col="2">0.970500</Element>
    <Element Row="2" Col="1">0.080300</Element>
    <Element Row="2" Col="0">-0.081800</Element>
    <Element Row="1" Col="2">0.211200</Element>
    <Element Row="1" Col="1">1.517200</Element>
    <Element Row="1" Col="0">-0.717000</Element>
    <Element Row="0" Col="2">-0.080300</Element>
    <Element Row="0" Col="1">-0.286300</Element>
    <Element Row="0" Col="0">0.956600</Element>
  </ColorMatrix1>
  <ColorMatrix2 Rows="0" Cols="0"/>
  <ForwardMatrix1 Rows="0" Cols="0"/>
  <ForwardMatrix2 Rows="0" Cols="0"/>
  <ReductionMatrix1 Rows="0" Cols="0"/>
  <ReductionMatrix2 Rows="0" Cols="0"/>
  <EmbedPolicy>3</EmbedPolicy>
  <UniqueCameraModelRestriction>PENTAX K10D</UniqueCameraModelRestriction>
  <Copyright>CC-BY-SA 3.0, rawstudio.org</Copyright>
</dcpData>
