profiles/simple-src/PENTAX_K-30-simple.xml
<?xml version="1.0" encoding="UTF-8"?>
<!--
     License: CC-BY-SA 3.0

     This work is licensed under a 
     Creative Commons Attribution-ShareAlike 3.0 Unported License.

     See more at:
     http://creativecommons.org/licenses/by-sa/3.0/
-->
<dcpData>
  <ProfileName>PENTAX K-30 Simple</ProfileName>
  <CalibrationIlluminant1>17</CalibrationIlluminant1>
  <CalibrationIlluminant2>21</CalibrationIlluminant2>
  <ColorMatrix1 Rows="3" Cols="3">
    <Element Row="2" Col="2">0.677900</Element>
    <Element Row="2" Col="1">0.037100</Element>
    <Element Row="2" Col="0">-0.017700</Element>
    <Element Row="1" Col="2">0.428700</Element>
    <Element Row="1" Col="1">0.983400</Element>
    <Element Row="1" Col="0">-0.349600</Element>
    <Element Row="0" Col="2">-0.084900</Element>
    <Element Row="0" Col="1">-0.512500</Element>
    <Element Row="0" Col="0">1.034700</Element>
  </ColorMatrix1>
  <ColorMatrix2 Rows="3" Cols="3">
    <Element Row="2" Col="2">0.649400</Element>
    <Element Row="2" Col="1">0.170800</Element>
    <Element Row="2" Col="0">-0.097400</Element>
    <Element Row="1" Col="2">0.188100</Element>
    <Element Row="1" Col="1">1.230100</Element>
    <Element Row="1" Col="0">-0.399500</Element>
    <Element Row="0" Col="2">-0.119400</Element>
    <Element Row="0" Col="1">-0.269400</Element>
    <Element Row="0" Col="0">0.891600</Element>
  </ColorMatrix2>
  <ForwardMatrix1 Rows="0" Cols="0"/>
  <ForwardMatrix2 Rows="0" Cols="0"/>
  <ReductionMatrix1 Rows="0" Cols="0"/>
  <ReductionMatrix2 Rows="0" Cols="0"/>
  <EmbedPolicy>3</EmbedPolicy>
  <UniqueCameraModelRestriction>PENTAX K-30</UniqueCameraModelRestriction>
  <Copyright>CC-BY-SA 3.0, rawstudio.org</Copyright>
</dcpData>
