profiles/simple-src/PENTAX_K-500-simple.xml
<?xml version="1.0" encoding="UTF-8"?>
<!--
     License: CC-BY-SA 3.0

     This work is licensed under a
     Creative Commons Attribution-ShareAlike 3.0 Unported License.

     See more at:
     http://creativecommons.org/licenses/by-sa/3.0/
-->

<dcpData>
  <ProfileName>PENTAX K-500 Simple</ProfileName>
  <CalibrationIlluminant1>17</CalibrationIlluminant1>
  <CalibrationIlluminant2>21</CalibrationIlluminant2>
  <ColorMatrix1 Rows="3" Cols="3">
    <Element Row="2" Col="2">0.715600</Element>
    <Element Row="2" Col="1">0.078400</Element>
    <Element Row="2" Col="0">-0.037400</Element>
    <Element Row="1" Col="2">0.337000</Element>
    <Element Row="1" Col="1">1.082200</Element>
    <Element Row="1" Col="0">-0.373600</Element>
    <Element Row="0" Col="2">0.043300</Element>
    <Element Row="0" Col="1">-0.405400</Element>
    <Element Row="0" Col="0">0.906300</Element>
  </ColorMatrix1>
  <ColorMatrix2 Rows="3" Cols="3">
    <Element Row="2" Col="2">0.654500</Element>
    <Element Row="2" Col="1">0.151500</Element>
    <Element Row="2" Col="0">-0.100600</Element>
    <Element Row="1" Col="2">0.273100</Element>
    <Element Row="1" Col="1">1.217500</Element>
    <Element Row="1" Col="0">-0.459300</Element>
    <Element Row="0" Col="2">-0.060800</Element>
    <Element Row="0" Col="1">-0.274000</Element>
    <Element Row="0" Col="0">0.810900</Element>
  </ColorMatrix2>
  <ForwardMatrix1 Rows="3" Cols="3">
    <Element Row="2" Col="2">0.825100</Element>
    <Element Row="2" Col="1">0.000000</Element>
    <Element Row="2" Col="0">0.000000</Element>
    <Element Row="1" Col="2">0.000100</Element>
    <Element Row="1" Col="1">0.711900</Element>
    <Element Row="1" Col="0">0.288000</Element>
    <Element Row="0" Col="2">0.031300</Element>
    <Element Row="0" Col="1">0.135200</Element>
    <Element Row="0" Col="0">0.797800</Element>
  </ForwardMatrix1>
  <ForwardMatrix2 Rows="3" Cols="3">
    <Element Row="2" Col="2">0.825100</Element>
    <Element Row="2" Col="1">0.000000</Element>
    <Element Row="2" Col="0">0.000000</Element>
    <Element Row="1" Col="2">0.000100</Element>
    <Element Row="1" Col="1">0.711900</Element>
    <Element Row="1" Col="0">0.288000</Element>
    <Element Row="0" Col="2">0.031300</Element>
    <Element Row="0" Col="1">0.135200</Element>
    <Element Row="0" Col="0">0.797800</Element>
  </ForwardMatrix2>
  <EmbedPolicy>3</EmbedPolicy>
  <UniqueCameraModelRestriction>PENTAX K-500</UniqueCameraModelRestriction>
  <Copyright>CC-BY-SA 3.0, rawstudio.org</Copyright>
</dcpData>