profiles/simple-src/PENTAX_Q-simple.xml
<?xml version="1.0" encoding="UTF-8"?>
<!--
     License: CC-BY-SA 3.0

     This work is licensed under a 
     Creative Commons Attribution-ShareAlike 3.0 Unported License.

     See more at:
     http://creativecommons.org/licenses/by-sa/3.0/
-->
<dcpData>
  <ProfileName>PENTAX K-x Simple</ProfileName>
  <CalibrationIlluminant1>17</CalibrationIlluminant1>
  <CalibrationIlluminant2>21</CalibrationIlluminant2>
  <ColorMatrix1 Rows="3" Cols="3">
    <Element Row="2" Col="2">0.521700</Element>
    <Element Row="2" Col="1">0.059600</Element>
    <Element Row="2" Col="0">0.037600</Element>
    <Element Row="1" Col="2">0.284400</Element>
    <Element Row="1" Col="1">0.862300</Element>
    <Element Row="1" Col="0">-0.100500</Element>
    <Element Row="0" Col="2">0.034100</Element>
    <Element Row="0" Col="1">-0.600900</Element>
    <Element Row="0" Col="0">1.281000</Element>
  </ColorMatrix1>
  <ColorMatrix2 Rows="3" Cols="3">
    <Element Row="2" Col="2">0.487000</Element>
    <Element Row="2" Col="1">0.149200</Element>
    <Element Row="2" Col="0">-0.021700</Element>
    <Element Row="1" Col="2">0.147300</Element>
    <Element Row="1" Col="1">1.072700</Element>
    <Element Row="1" Col="0">-0.201500</Element>
    <Element Row="0" Col="2">-0.126700</Element>
    <Element Row="0" Col="1">-0.416900</Element>
    <Element Row="0" Col="0">1.173100</Element>
  </ColorMatrix2>
  <ForwardMatrix1 Rows="0" Cols="0"/>
  <ForwardMatrix2 Rows="0" Cols="0"/>
  <ReductionMatrix1 Rows="0" Cols="0"/>
  <ReductionMatrix2 Rows="0" Cols="0"/>
  <EmbedPolicy>3</EmbedPolicy>
  <UniqueCameraModelRestriction>PENTAX K-x</UniqueCameraModelRestriction>
  <Copyright>CC-BY-SA 3.0, rawstudio.org</Copyright>
</dcpData>
