profiles/simple-src/Ricoh_S10_24-72mm-simple.xml
<?xml version="1.0" encoding="UTF-8"?>
<!--
     License: CC-BY-SA 3.0

     This work is licensed under a 
     Creative Commons Attribution-ShareAlike 3.0 Unported License.

     See more at:
     http://creativecommons.org/licenses/by-sa/3.0/
-->
<dcpData>
  <ProfileName>Ricoh S10 24-70mm Simple</ProfileName>
  <CalibrationIlluminant1>17</CalibrationIlluminant1>
  <CalibrationIlluminant2>21</CalibrationIlluminant2>
  <ColorMatrix1 Rows="3" Cols="3">
    <Element Row="2" Col="2">0.527500</Element>
    <Element Row="2" Col="1">0.018900</Element>
    <Element Row="2" Col="0">0.036600</Element>
    <Element Row="1" Col="2">0.224800</Element>
    <Element Row="1" Col="1">0.844200</Element>
    <Element Row="1" Col="0">-0.030900</Element>
    <Element Row="0" Col="2">0.085100</Element>
    <Element Row="0" Col="1">-1.198000</Element>
    <Element Row="0" Col="0">1.746700</Element>
  </ColorMatrix1>
  <ColorMatrix2 Rows="3" Cols="3">
    <Element Row="2" Col="2">0.457700</Element>
    <Element Row="2" Col="1">0.089500</Element>
    <Element Row="2" Col="0">-0.010700</Element>
    <Element Row="1" Col="2">0.205200</Element>
    <Element Row="1" Col="1">1.027200</Element>
    <Element Row="1" Col="0">-0.203800</Element>
    <Element Row="0" Col="2">-0.087800</Element>
    <Element Row="0" Col="1">-0.404300</Element>
    <Element Row="0" Col="0">1.053100</Element>
  </ColorMatrix2>
  <ForwardMatrix1 Rows="0" Cols="0"/>
  <ForwardMatrix2 Rows="0" Cols="0"/>
  <ReductionMatrix1 Rows="0" Cols="0"/>
  <ReductionMatrix2 Rows="0" Cols="0"/>
  <EmbedPolicy>3</EmbedPolicy>
  <UniqueCameraModelRestriction>RICOH S10 24-72mm F2.5-4.4 VC</UniqueCameraModelRestriction>
  <Copyright>CC-BY-SA 3.0, rawstudio.org</Copyright>
</dcpData>
