profiles/simple-src/SAMSUNG_WB2000-simple.xml
<?xml version="1.0" encoding="UTF-8"?>
<!--
     License: CC-BY-SA 3.0

     This work is licensed under a 
     Creative Commons Attribution-ShareAlike 3.0 Unported License.

     See more at:
     http://creativecommons.org/licenses/by-sa/3.0/
-->
<dcpData>
  <ProfileName>Samsung WB2000 Simple</ProfileName>
  <CalibrationIlluminant1>17</CalibrationIlluminant1>
  <CalibrationIlluminant2>21</CalibrationIlluminant2>
  <ColorMatrix1 Rows="3" Cols="3">
    <Element Row="2" Col="2">0.495700</Element>
    <Element Row="2" Col="1">0.123400</Element>
    <Element Row="2" Col="0">0.030800</Element>
    <Element Row="1" Col="2">0.220300</Element>
    <Element Row="1" Col="1">0.872800</Element>
    <Element Row="1" Col="0">-0.056600</Element>
    <Element Row="0" Col="2">-0.038000</Element>
    <Element Row="0" Col="1">-0.437500</Element>
    <Element Row="0" Col="0">1.238900</Element>
  </ColorMatrix1>
  <ColorMatrix2 Rows="3" Cols="3">
    <Element Row="2" Col="2">0.457600</Element>
    <Element Row="2" Col="1">0.178700</Element>
    <Element Row="2" Col="0">-0.002200</Element>
    <Element Row="1" Col="2">0.173300</Element>
    <Element Row="1" Col="1">0.953400</Element>
    <Element Row="1" Col="0">-0.100000</Element>
    <Element Row="0" Col="2">-0.115500</Element>
    <Element Row="0" Col="1">-0.355700</Element>
    <Element Row="0" Col="0">1.209300</Element>
  </ColorMatrix2>
  <ForwardMatrix1 Rows="0" Cols="0"/>
  <ForwardMatrix2 Rows="0" Cols="0"/>
  <ReductionMatrix1 Rows="0" Cols="0"/>
  <ReductionMatrix2 Rows="0" Cols="0"/>
  <EmbedPolicy>3</EmbedPolicy>
  <UniqueCameraModelRestriction>Samsung WB2000</UniqueCameraModelRestriction>
  <Copyright>CC-BY-SA 3.0, rawstudio.org</Copyright>
</dcpData>
