profiles/simple-src/SAMSUNG_GX-1L-simple.xml
<?xml version="1.0" encoding="UTF-8"?>
<!--
     License: CC-BY-SA 3.0

     This work is licensed under a 
     Creative Commons Attribution-ShareAlike 3.0 Unported License.

     See more at:
     http://creativecommons.org/licenses/by-sa/3.0/
-->
<dcpData>
  <ProfileName>SAMSUNG GX-1L Simple</ProfileName>
  <CalibrationIlluminant1>17</CalibrationIlluminant1>
  <CalibrationIlluminant2>21</CalibrationIlluminant2>
  <ColorMatrix1 Rows="3" Cols="3">
    <Element Row="2" Col="2">1.183300</Element>
    <Element Row="2" Col="1">0.068800</Element>
    <Element Row="2" Col="0">-0.064600</Element>
    <Element Row="1" Col="2">0.294700</Element>
    <Element Row="1" Col="1">1.472200</Element>
    <Element Row="1" Col="0">-0.741800</Element>
    <Element Row="0" Col="2">-0.030500</Element>
    <Element Row="0" Col="1">-0.402900</Element>
    <Element Row="0" Col="0">1.210300</Element>
  </ColorMatrix1>
  <ColorMatrix2 Rows="3" Cols="3">
    <Element Row="2" Col="2">1.224200</Element>
    <Element Row="2" Col="1">0.086300</Element>
    <Element Row="2" Col="0">-0.102200</Element>
    <Element Row="1" Col="2">0.253100</Element>
    <Element Row="1" Col="1">1.620800</Element>
    <Element Row="1" Col="0">-0.860300</Element>
    <Element Row="0" Col="2">-0.118900</Element>
    <Element Row="0" Col="1">-0.243900</Element>
    <Element Row="0" Col="0">1.050400</Element>
  </ColorMatrix2>
  <ForwardMatrix1 Rows="0" Cols="0"/>
  <ForwardMatrix2 Rows="0" Cols="0"/>
  <ReductionMatrix1 Rows="0" Cols="0"/>
  <ReductionMatrix2 Rows="0" Cols="0"/>
  <EmbedPolicy>3</EmbedPolicy>
  <UniqueCameraModelRestriction>Samsung GX-1L</UniqueCameraModelRestriction>
  <Copyright>CC-BY-SA 3.0, rawstudio.org</Copyright>
</dcpData>
