profiles/simple-src/SAMSUNG_EX1-simple.xml
<?xml version="1.0" encoding="UTF-8"?>
<!--
     License: CC-BY-SA 3.0

     This work is licensed under a 
     Creative Commons Attribution-ShareAlike 3.0 Unported License.

     See more at:
     http://creativecommons.org/licenses/by-sa/3.0/
-->
<dcpData>
  <ProfileName>SAMSUNG EX1 Simple</ProfileName>
  <CalibrationIlluminant1>17</CalibrationIlluminant1>
  <CalibrationIlluminant2>21</CalibrationIlluminant2>
  <ColorMatrix1 Rows="3" Cols="3">
    <Element Row="2" Col="2">0.483500</Element>
    <Element Row="2" Col="1">0.084300</Element>
    <Element Row="2" Col="0">-0.023300</Element>
    <Element Row="1" Col="2">0.230800</Element>
    <Element Row="1" Col="1">1.037700</Element>
    <Element Row="1" Col="0">-0.236600</Element>
    <Element Row="0" Col="2">-0.044500</Element>
    <Element Row="0" Col="1">-0.321500</Element>
    <Element Row="0" Col="0">0.937900</Element>
  </ColorMatrix1>
  <ColorMatrix2 Rows="3" Cols="3">
    <Element Row="2" Col="2">0.457600</Element>
    <Element Row="2" Col="1">0.138100</Element>
    <Element Row="2" Col="0">-0.076000</Element>
    <Element Row="1" Col="2">0.206600</Element>
    <Element Row="1" Col="1">1.132800</Element>
    <Element Row="1" Col="0">-0.314400</Element>
    <Element Row="0" Col="2">-0.099400</Element>
    <Element Row="0" Col="1">-0.249800</Element>
    <Element Row="0" Col="0">0.889800</Element>
  </ColorMatrix2>
  <ForwardMatrix1 Rows="0" Cols="0"/>
  <ForwardMatrix2 Rows="0" Cols="0"/>
  <ReductionMatrix1 Rows="0" Cols="0"/>
  <ReductionMatrix2 Rows="0" Cols="0"/>
  <EmbedPolicy>3</EmbedPolicy>
  <UniqueCameraModelRestriction>SAMSUNG EX1</UniqueCameraModelRestriction>
  <Copyright>CC-BY-SA 3.0, rawstudio.org</Copyright>
</dcpData>
