profiles/simple-src/SAMSUNG_GX20-simple.xml
<?xml version="1.0" encoding="UTF-8"?>
<!--
     License: CC-BY-SA 3.0

     This work is licensed under a 
     Creative Commons Attribution-ShareAlike 3.0 Unported License.

     See more at:
     http://creativecommons.org/licenses/by-sa/3.0/
-->
<dcpData>
  <ProfileName>SAMSUNG GX20 Simple</ProfileName>
  <CalibrationIlluminant1>17</CalibrationIlluminant1>
  <CalibrationIlluminant2>21</CalibrationIlluminant2>
  <ColorMatrix1 Rows="3" Cols="3">
    <Element Row="2" Col="2">0.769900</Element>
    <Element Row="2" Col="1">0.226700</Element>
    <Element Row="2" Col="0">-0.109400</Element>
    <Element Row="1" Col="2">0.171900</Element>
    <Element Row="1" Col="1">1.482100</Element>
    <Element Row="1" Col="0">-0.647100</Element>
    <Element Row="0" Col="2">0.003500</Element>
    <Element Row="0" Col="1">-0.454900</Element>
    <Element Row="0" Col="0">1.128100</Element>
  </ColorMatrix1>
  <ColorMatrix2 Rows="3" Cols="3">
    <Element Row="2" Col="2">0.718000</Element>
    <Element Row="2" Col="1">0.326400</Element>
    <Element Row="2" Col="0">-0.219900</Element>
    <Element Row="1" Col="2">0.137300</Element>
    <Element Row="1" Col="1">1.609300</Element>
    <Element Row="1" Col="0">-0.749300</Element>
    <Element Row="0" Col="2">-0.086800</Element>
    <Element Row="0" Col="1">-0.271400</Element>
    <Element Row="0" Col="0">0.942700</Element>
  </ColorMatrix2>
  <ForwardMatrix1 Rows="0" Cols="0"/>
  <ForwardMatrix2 Rows="0" Cols="0"/>
  <ReductionMatrix1 Rows="0" Cols="0"/>
  <ReductionMatrix2 Rows="0" Cols="0"/>
  <EmbedPolicy>3</EmbedPolicy>
  <UniqueCameraModelRestriction>SAMSUNG GX20</UniqueCameraModelRestriction>
  <Copyright>CC-BY-SA 3.0, rawstudio.org</Copyright>
</dcpData>
