profiles/simple-src/SAMSUNG_NX200-simple.xml
<?xml version="1.0" encoding="UTF-8"?>
<!--
     License: CC-BY-SA 3.0

     This work is licensed under a 
     Creative Commons Attribution-ShareAlike 3.0 Unported License.

     See more at:
     http://creativecommons.org/licenses/by-sa/3.0/
-->
<dcpData>
  <ProfileName>Samsung NX200 Simple</ProfileName>
  <CalibrationIlluminant1>17</CalibrationIlluminant1>
  <CalibrationIlluminant2>21</CalibrationIlluminant2>
  <ColorMatrix1 Rows="3" Cols="3">
    <Element Row="2" Col="2">0.659200</Element>
    <Element Row="2" Col="1">0.108400</Element>
    <Element Row="2" Col="0">-0.039800</Element>
    <Element Row="1" Col="2">0.204600</Element>
    <Element Row="1" Col="1">1.273400</Element>
    <Element Row="1" Col="0">-0.458600</Element>
    <Element Row="0" Col="2">-0.067300</Element>
    <Element Row="0" Col="1">-0.310700</Element>
    <Element Row="0" Col="0">0.782400</Element>
  </ColorMatrix1>
  <ColorMatrix2 Rows="3" Cols="3">
    <Element Row="2" Col="2">0.609600</Element>
    <Element Row="2" Col="1">0.164100</Element>
    <Element Row="2" Col="0">-0.080300</Element>
    <Element Row="1" Col="2">0.164700</Element>
    <Element Row="1" Col="1">1.338700</Element>
    <Element Row="1" Col="0">-0.492100</Element>
    <Element Row="0" Col="2">-0.075300</Element>
    <Element Row="0" Col="1">-0.226800</Element>
    <Element Row="0" Col="0">0.693300</Element>
  </ColorMatrix2>
  <ForwardMatrix1 Rows="0" Cols="0"/>
  <ForwardMatrix2 Rows="0" Cols="0"/>
  <ReductionMatrix1 Rows="0" Cols="0"/>
  <ReductionMatrix2 Rows="0" Cols="0"/>
  <EmbedPolicy>3</EmbedPolicy>
  <UniqueCameraModelRestriction>Samsung NX200</UniqueCameraModelRestriction>
  <Copyright>CC-BY-SA 3.0, rawstudio.org</Copyright>
</dcpData>
