profiles/simple-src/SONY_DSLR-A550-simple.xml
<?xml version="1.0" encoding="UTF-8"?>
<!--
     License: CC-BY-SA 3.0

     This work is licensed under a 
     Creative Commons Attribution-ShareAlike 3.0 Unported License.

     See more at:
     http://creativecommons.org/licenses/by-sa/3.0/
-->
<dcpData>
  <ProfileName>SONY DSLR-A550 Simple</ProfileName>
  <CalibrationIlluminant1>17</CalibrationIlluminant1>
  <CalibrationIlluminant2>21</CalibrationIlluminant2>
  <ColorMatrix1 Rows="3" Cols="3">
    <Element Row="2" Col="2">0.793400</Element>
    <Element Row="2" Col="1">0.073900</Element>
    <Element Row="2" Col="0">-0.021900</Element>
    <Element Row="1" Col="2">0.337000</Element>
    <Element Row="1" Col="1">1.119700</Element>
    <Element Row="1" Col="0">-0.412400</Element>
    <Element Row="0" Col="2">0.041100</Element>
    <Element Row="0" Col="1">-0.369400</Element>
    <Element Row="0" Col="0">0.770200</Element>
  </ColorMatrix1>
  <ColorMatrix2 Rows="3" Cols="3">
    <Element Row="2" Col="2">0.737100</Element>
    <Element Row="2" Col="1">0.143500</Element>
    <Element Row="2" Col="0">-0.070900</Element>
    <Element Row="1" Col="2">0.302900</Element>
    <Element Row="1" Col="1">1.254200</Element>
    <Element Row="1" Col="0">-0.522800</Element>
    <Element Row="0" Col="2">-0.010300</Element>
    <Element Row="0" Col="1">-0.058000</Element>
    <Element Row="0" Col="0">0.495000</Element>
  </ColorMatrix2>
  <ForwardMatrix1 Rows="0" Cols="0"/>
  <ForwardMatrix2 Rows="0" Cols="0"/>
  <ReductionMatrix1 Rows="0" Cols="0"/>
  <ReductionMatrix2 Rows="0" Cols="0"/>
  <EmbedPolicy>3</EmbedPolicy>
  <UniqueCameraModelRestriction>SONY DSLR-A550</UniqueCameraModelRestriction>
  <Copyright>CC-BY-SA 3.0, rawstudio.org</Copyright>
</dcpData>
