profiles/simple-src/SONY_SLTA37-simple.xml
<?xml version="1.0" encoding="UTF-8"?>
<!--
     License: CC-BY-SA 3.0

     This work is licensed under a 
     Creative Commons Attribution-ShareAlike 3.0 Unported License.

     See more at:
     http://creativecommons.org/licenses/by-sa/3.0/
-->
<dcpData>
  <ProfileName>SONY SLT-A37 Simple</ProfileName>
  <CalibrationIlluminant1>17</CalibrationIlluminant1>
  <CalibrationIlluminant2>21</CalibrationIlluminant2>
  <ColorMatrix1 Rows="3" Cols="3">
    <Element Row="2" Col="2">0.703300</Element>
    <Element Row="2" Col="1">0.092700</Element>
    <Element Row="2" Col="0">-0.041000</Element>
    <Element Row="1" Col="2">0.354100</Element>
    <Element Row="1" Col="1">1.107500</Element>
    <Element Row="1" Col="0">-0.414500</Element>
    <Element Row="0" Col="2">-0.021300</Element>
    <Element Row="0" Col="1">-0.180300</Element>
    <Element Row="0" Col="0">0.612300</Element>
  </ColorMatrix1>
  <ColorMatrix2 Rows="3" Cols="3">
    <Element Row="2" Col="2">0.670100</Element>
    <Element Row="2" Col="1">0.142500</Element>
    <Element Row="2" Col="0">-0.070700</Element>
    <Element Row="1" Col="2">0.298000</Element>
    <Element Row="1" Col="1">1.213500</Element>
    <Element Row="1" Col="0">-0.476400</Element>
    <Element Row="0" Col="2">-0.045500</Element>
    <Element Row="0" Col="1">-0.145600</Element>
    <Element Row="0" Col="0">0.599100</Element>
  </ColorMatrix2>
  <ForwardMatrix1 Rows="0" Cols="0"/>
  <ForwardMatrix2 Rows="0" Cols="0"/>
  <ReductionMatrix1 Rows="0" Cols="0"/>
  <ReductionMatrix2 Rows="0" Cols="0"/>
  <EmbedPolicy>3</EmbedPolicy>
  <UniqueCameraModelRestriction>Sony SLT-A37</UniqueCameraModelRestriction>
  <Copyright>CC-BY-SA 3.0, rawstudio.org</Copyright>
</dcpData>
