profiles/simple-src/SONY_DSLR-A290-simple.xml
<?xml version="1.0" encoding="UTF-8"?>
<!--
     License: CC-BY-SA 3.0

     This work is licensed under a 
     Creative Commons Attribution-ShareAlike 3.0 Unported License.

     See more at:
     http://creativecommons.org/licenses/by-sa/3.0/
-->
<dcpData>
  <ProfileName>SONY DSLR-A290 Simple</ProfileName>
  <CalibrationIlluminant1>17</CalibrationIlluminant1>
  <CalibrationIlluminant2>21</CalibrationIlluminant2>
  <ColorMatrix1 Rows="3" Cols="3">
    <Element Row="2" Col="2">0.722400</Element>
    <Element Row="2" Col="1">0.042800</Element>
    <Element Row="2" Col="0">-0.040800</Element>
    <Element Row="1" Col="2">0.298700</Element>
    <Element Row="1" Col="1">1.494400</Element>
    <Element Row="1" Col="0">-0.768300</Element>
    <Element Row="0" Col="2">-0.021100</Element>
    <Element Row="0" Col="1">-0.199100</Element>
    <Element Row="0" Col="0">0.645900</Element>
  </ColorMatrix1>
  <ColorMatrix2 Rows="3" Cols="3">
    <Element Row="2" Col="2">0.721800</Element>
    <Element Row="2" Col="1">0.074600</Element>
    <Element Row="2" Col="0">-0.087500</Element>
    <Element Row="1" Col="2">0.251200</Element>
    <Element Row="1" Col="1">1.674600</Element>
    <Element Row="1" Col="0">-0.914500</Element>
    <Element Row="0" Col="2">-0.057900</Element>
    <Element Row="0" Col="1">-0.148400</Element>
    <Element Row="0" Col="0">0.603800</Element>
  </ColorMatrix2>
  <ForwardMatrix1 Rows="0" Cols="0"/>
  <ForwardMatrix2 Rows="0" Cols="0"/>
  <ReductionMatrix1 Rows="0" Cols="0"/>
  <ReductionMatrix2 Rows="0" Cols="0"/>
  <EmbedPolicy>3</EmbedPolicy>
  <UniqueCameraModelRestriction>SONY DSLR-A290</UniqueCameraModelRestriction>
  <Copyright>CC-BY-SA 3.0, rawstudio.org</Copyright>
</dcpData>
