profiles/simple-src/SONY_DSLR-A500-simple.xml
<?xml version="1.0" encoding="UTF-8"?>
<!--
     License: CC-BY-SA 3.0

     This work is licensed under a 
     Creative Commons Attribution-ShareAlike 3.0 Unported License.

     See more at:
     http://creativecommons.org/licenses/by-sa/3.0/
-->
<dcpData>
  <ProfileName>SONY DSLR-A500 Simple</ProfileName>
  <CalibrationIlluminant1>17</CalibrationIlluminant1>
  <CalibrationIlluminant2>21</CalibrationIlluminant2>
  <ColorMatrix1 Rows="3" Cols="3">
    <Element Row="2" Col="2">0.832000</Element>
    <Element Row="2" Col="1">0.067300</Element>
    <Element Row="2" Col="0">-0.017700</Element>
    <Element Row="1" Col="2">0.311700</Element>
    <Element Row="1" Col="1">1.173900</Element>
    <Element Row="1" Col="0">-0.447100</Element>
    <Element Row="0" Col="2">0.046700</Element>
    <Element Row="0" Col="1">-0.512800</Element>
    <Element Row="0" Col="0">0.954800</Element>
  </ColorMatrix1>
  <ColorMatrix2 Rows="3" Cols="3">
    <Element Row="2" Col="2">0.762500</Element>
    <Element Row="2" Col="1">0.141900</Element>
    <Element Row="2" Col="0">-0.069100</Element>
    <Element Row="1" Col="2">0.278600</Element>
    <Element Row="1" Col="1">1.307600</Element>
    <Element Row="1" Col="0">-0.557400</Element>
    <Element Row="0" Col="2">-0.027800</Element>
    <Element Row="0" Col="1">-0.112700</Element>
    <Element Row="0" Col="0">0.604600</Element>
  </ColorMatrix2>
  <ForwardMatrix1 Rows="0" Cols="0"/>
  <ForwardMatrix2 Rows="0" Cols="0"/>
  <ReductionMatrix1 Rows="0" Cols="0"/>
  <ReductionMatrix2 Rows="0" Cols="0"/>
  <EmbedPolicy>3</EmbedPolicy>
  <UniqueCameraModelRestriction>SONY DSLR-A500</UniqueCameraModelRestriction>
  <Copyright>CC-BY-SA 3.0, rawstudio.org</Copyright>
</dcpData>
