profiles/simple-src/SONY_DSLR-A580-simple.xml
<?xml version="1.0" encoding="UTF-8"?>
<!--
     License: CC-BY-SA 3.0

     This work is licensed under a 
     Creative Commons Attribution-ShareAlike 3.0 Unported License.

     See more at:
     http://creativecommons.org/licenses/by-sa/3.0/
-->
<dcpData>
  <ProfileName>Sony DSLR-A580 Simple</ProfileName>
  <CalibrationIlluminant1>17</CalibrationIlluminant1>
  <CalibrationIlluminant2>21</CalibrationIlluminant2>
  <ColorMatrix1 Rows="3" Cols="3">
    <Element Row="2" Col="2">0.704600</Element>
    <Element Row="2" Col="1">0.113300</Element>
    <Element Row="2" Col="0">-0.050100</Element>
    <Element Row="1" Col="2">0.333600</Element>
    <Element Row="1" Col="1">1.131600</Element>
    <Element Row="1" Col="0">-0.421900</Element>
    <Element Row="0" Col="2">-0.017800</Element>
    <Element Row="0" Col="1">-0.178000</Element>
    <Element Row="0" Col="0">0.603100</Element>
  </ColorMatrix1>
  <ColorMatrix2 Rows="3" Cols="3">
    <Element Row="2" Col="2">0.673900</Element>
    <Element Row="2" Col="1">0.152400</Element>
    <Element Row="2" Col="0">-0.074100</Element>
    <Element Row="1" Col="2">0.285600</Element>
    <Element Row="1" Col="1">1.228500</Element>
    <Element Row="1" Col="0">-0.481300</Element>
    <Element Row="0" Col="2">-0.041100</Element>
    <Element Row="0" Col="1">-0.149200</Element>
    <Element Row="0" Col="0">0.593200</Element>
  </ColorMatrix2>
  <ForwardMatrix1 Rows="0" Cols="0"/>
  <ForwardMatrix2 Rows="0" Cols="0"/>
  <ReductionMatrix1 Rows="0" Cols="0"/>
  <ReductionMatrix2 Rows="0" Cols="0"/>
  <EmbedPolicy>3</EmbedPolicy>
  <UniqueCameraModelRestriction>Sony DSLR-A580</UniqueCameraModelRestriction>
  <Copyright>CC-BY-SA 3.0, rawstudio.org</Copyright>
</dcpData>
